(Generated with dxf2code)
G21 (Unit in mm)
G90 (Absolute distance mode)
G64 P0.01 (Exact Path 0.001 tol.)
G17
G40 (Cancel diameter comp.)
G49 (Cancel length comp.)
T1M6 (Tool change to T1)
M8 (Coolant flood on)
S5000M5 (Spindle 5000rpm OFF)
G0 Z   0.000 
G0 X  12.050 Y  58.590
G0 Z   0.000 
F150
G1 Z  -0.100
F80
M3
G1 X  11.541 Y  58.638
G1 X  11.330 Y  59.100
G1 X  11.551 Y  68.931
G1 X  11.680 Y  69.280
G1 X  11.981 Y  69.328
G1 X  12.350 Y  69.189
G1 X  12.689 Y  68.976
G1 X  14.114 Y  68.030
G1 X  15.648 Y  67.014
G1 X  16.928 Y  65.956
G1 X  17.591 Y  64.878
G1 X  17.603 Y  64.623
G1 X  17.413 Y  64.200
G1 X  16.994 Y  63.807
G1 X  16.403 Y  63.397
G1 X  15.703 Y  62.919
G1 X  14.949 Y  62.323
G1 X  14.203 Y  61.562
G1 X  13.525 Y  60.587
G1 X  12.976 Y  59.345
G1 X  12.608 Y  58.859
G1 X  12.050 Y  58.590
M5
G1 Z   0.000
G0 Z   0.000 
G40
G0 X  37.728 Y  56.902
G0 Z   0.000 
F150
G1 Z  -0.100
F80
M3
G1 X  34.677 Y  59.531
G1 X  31.564 Y  61.707
G1 X  31.163 Y  62.436
G1 X  30.991 Y  63.193
G1 X  31.087 Y  63.957
G1 X  31.490 Y  64.707
G1 X  33.080 Y  64.732
G1 X  34.356 Y  64.855
G1 X  35.422 Y  65.036
G1 X  36.380 Y  65.234
G1 X  37.728 Y  56.902
M5
G1 Z   0.000
G0 Z   0.000 
G40
G0 X  46.961 Y  45.010
G0 Z   0.000 
F150
G1 Z  -0.100
F80
M3
G1 X  45.934 Y  50.920
G1 X  47.230 Y  51.146
G1 X  48.256 Y  45.234
G1 X  46.961 Y  45.010
M5
G1 Z   0.000
G0 Z   0.000 
G40
G0 X  43.009 Y  36.912
G0 Z   0.000 
F150
G1 Z  -0.100
F80
M3
G1 X  41.322 Y  40.539
G1 X  42.638 Y  41.150
G1 X  44.323 Y  37.522
G1 X  43.009 Y  36.912
M5
G1 Z   0.000
G0 Z   0.000 
G40
G0 X  48.565 Y  35.774
G0 Z   0.000 
F150
G1 Z  -0.100
F80
M3
G1 X  47.538 Y  41.684
G1 X  48.834 Y  41.910
G1 X  49.862 Y  35.998
G1 X  48.565 Y  35.774
M5
G1 Z   0.000
G0 Z   0.000 
G40
G0 X  54.634 Y  38.946
G0 Z   0.000 
F150
G1 Z  -0.100
F80
M3
G1 X  53.189 Y  39.074
G1 X  53.543 Y  43.058
G1 X  54.988 Y  42.930
G1 X  54.634 Y  38.946
M5
G1 Z   0.000
G0 Z   0.000 
G40
G0 X  65.425 Y  37.112
G0 Z   0.000 
F150
G1 Z  -0.100
F80
M3
G1 X  64.587 Y  41.941
G1 X  66.065 Y  42.197
G1 X  66.904 Y  37.370
G1 X  65.425 Y  37.112
M5
G1 Z   0.000
G0 Z   0.000 
G40
G0 X  66.684 Y  29.866
G0 Z   0.000 
F150
G1 Z  -0.100
F80
M3
G1 X  65.845 Y  34.694
G1 X  67.324 Y  34.950
G1 X  68.162 Y  30.123
G1 X  66.684 Y  29.866
M5
G1 Z   0.000
G0 Z   0.000 
G40
G0 X 109.814 Y   7.093
G0 Z   0.000 
F150
G1 Z  -0.100
F80
M3
G1 X 109.814 Y   8.593
G1 X 121.550 Y   8.593
G1 X 125.935 Y   8.593
G1 X 127.627 Y   8.593
G1 X 128.655 Y   8.593
G1 X 128.655 Y   7.093
G1 X 125.449 Y   7.093
G1 X 125.446 Y   7.823
G1 X 125.446 Y   8.593
G1 X 121.646 Y   8.593
G1 X 121.645 Y   7.093
G1 X 118.674 Y   7.093
G1 X 118.673 Y   8.593
G1 X 114.873 Y   8.593
G1 X 114.872 Y   7.093
G1 X 109.814 Y   7.093
M5
G1 Z   0.000
G0 Z   0.000 
G40
G0 X 112.734 Y   8.593
G0 Z   0.000 
F150
G1 Z  -0.100
F80
M3
G1 X 129.328 Y   8.593
M5
G1 Z   0.000
G0 Z   0.000 
G40
G0 X 111.081 Y  27.576
G0 Z   0.000 
F150
G1 Z  -0.100
F80
M3
G1 X 111.081 Y  31.575
G1 X 112.580 Y  31.575
G1 X 112.580 Y  27.576
G1 X 111.081 Y  27.576
M5
G1 Z   0.000
G0 Z   0.000 
G40
G0 X 111.081 Y  34.349
G0 Z   0.000 
F150
G1 Z  -0.100
F80
M3
G1 X 111.081 Y  38.349
G1 X 112.580 Y  38.349
G1 X 112.580 Y  34.349
G1 X 111.081 Y  34.349
M5
G1 Z   0.000
G0 Z   0.000 
G40
G0 X 119.148 Y  53.083
G0 Z   0.000 
F150
G1 Z  -0.100
F80
M3
G1 X 118.773 Y  54.483
G1 X 123.523 Y  55.757
G1 X 123.898 Y  54.355
G1 X 119.148 Y  53.083
M5
G1 Z   0.000
G0 Z   0.000 
G40
G0 X 123.523 Y  61.419
G0 Z   0.000 
F150
G1 Z  -0.100
F80
M3
G1 X 118.773 Y  62.691
G1 X 119.148 Y  64.093
G1 X 123.898 Y  62.819
G1 X 123.523 Y  61.419
M5
G1 Z   0.000
G0 Z   0.000 
G40
G0 X 132.846 Y  58.921
G0 Z   0.000 
F150
G1 Z  -0.100
F80
M3
G1 X 128.096 Y  60.194
G1 X 128.470 Y  61.594
G1 X 133.220 Y  60.321
G1 X 132.846 Y  58.921
M5
G1 Z   0.000
G0 Z   0.000 
G40
G0 X 128.470 Y  55.581
G0 Z   0.000 
F150
G1 Z  -0.100
F80
M3
G1 X 128.096 Y  56.982
G1 X 132.846 Y  58.254
G1 X 133.220 Y  56.854
G1 X 128.470 Y  55.581
M5
G1 Z   0.000
G0 Z   0.000 
G40
G0 X 114.201 Y  63.916
G0 Z   0.000 
F150
G1 Z  -0.100
F80
M3
G1 X 109.451 Y  65.189
G1 X 109.825 Y  66.590
G1 X 114.577 Y  65.318
G1 X 114.201 Y  63.916
M5
G1 Z   0.000
G0 Z   0.000 
G40
G0 X 104.878 Y  66.415
G0 Z   0.000 
F150
G1 Z  -0.100
F80
M3
G1 X 100.128 Y  67.688
G1 X 100.504 Y  69.088
G1 X 105.255 Y  67.814
G1 X 104.878 Y  66.415
M5
G1 Z   0.000
G0 Z   0.000 
G40
G0 X 109.825 Y  50.585
G0 Z   0.000 
F150
G1 Z  -0.100
F80
M3
G1 X 109.451 Y  51.985
G1 X 114.201 Y  53.258
G1 X 114.577 Y  51.858
G1 X 109.825 Y  50.585
M5
G1 Z   0.000
G0 Z   0.000 
G40
G0 X 100.504 Y  48.088
G0 Z   0.000 
F150
G1 Z  -0.100
F80
M3
G1 X 100.128 Y  49.488
G1 X 104.878 Y  50.762
G1 X 105.255 Y  49.360
G1 X 100.504 Y  48.088
M5
G1 Z   0.000
G0 Z   0.000 
G40
G0 X  93.731 Y  50.093
G0 Z   0.000 
F150
G1 Z  -0.100
F80
M3
G1 X  93.676 Y  50.103
G1 X  92.776 Y  50.381
G1 X  92.113 Y  50.794
G1 X  91.704 Y  51.350
G1 X  91.569 Y  52.059
G1 X  91.704 Y  52.711
G1 X  92.113 Y  53.104
G1 X  92.776 Y  53.243
G1 X  93.676 Y  53.151
G1 X  93.731 Y  53.137
G1 X  93.731 Y  52.182
G1 X  93.676 Y  52.196
G1 X  92.617 Y  52.298
G1 X  92.247 Y  51.916
G1 X  92.617 Y  51.390
G1 X  93.676 Y  51.058
G1 X  93.731 Y  51.048
G1 X  93.731 Y  50.093
M5
G1 Z   0.000
G0 Z   0.000 
G40
G0 X  94.099 Y  50.036
G0 Z   0.000 
F150
G1 Z  -0.100
F80
M3
G1 X  94.099 Y  50.987
G1 X  94.739 Y  50.961
G1 X  95.108 Y  51.337
G1 X  94.739 Y  51.869
G1 X  94.099 Y  52.100
G1 X  94.099 Y  53.048
G1 X  95.242 Y  52.465
G1 X  95.650 Y  51.907
G1 X  95.786 Y  51.194
G1 X  95.650 Y  50.545
G1 X  95.242 Y  50.157
G1 X  94.099 Y  50.036
M5
G1 Z   0.000
G0 Z   0.000 
G40
G0 X  95.714 Y  53.848
G0 Z   0.000 
F150
G1 Z  -0.100
F80
M3
G1 X  91.641 Y  54.671
G1 X  91.641 Y  55.648
G1 X  94.755 Y  55.010
G1 X  94.223 Y  55.833
G1 X  94.832 Y  56.143
G1 X  95.714 Y  54.676
G1 X  95.714 Y  53.848
M5
G1 Z   0.000
G0 Z   0.000 
G40
G0 X  93.545 Y  57.078
G0 Z   0.000 
F150
G1 Z  -0.100
F80
M3
G1 X  92.839 Y  57.222
G1 X  92.839 Y  58.808
G1 X  93.545 Y  58.665
G1 X  93.545 Y  57.078
M5
G1 Z   0.000
G0 Z   0.000 
G40
G0 X  95.586 Y  58.584
G0 Z   0.000 
F150
G1 Z  -0.100
F80
M3
G1 X  94.791 Y  58.823
G1 X  94.984 Y  59.258
G1 X  95.054 Y  59.776
G1 X  94.669 Y  60.843
G1 X  93.670 Y  61.422
G1 X  92.676 Y  61.243
G1 X  92.395 Y  60.851
G1 X  92.301 Y  60.295
G1 X  92.366 Y  59.728
G1 X  92.507 Y  59.252
G1 X  91.735 Y  59.359
G1 X  91.623 Y  59.907
G1 X  91.571 Y  60.533
G1 X  91.707 Y  61.472
G1 X  92.120 Y  62.126
G1 X  92.781 Y  62.456
G1 X  93.652 Y  62.429
G1 X  94.531 Y  62.096
G1 X  95.206 Y  61.488
G1 X  95.640 Y  60.665
G1 X  95.785 Y  59.687
G1 X  95.714 Y  59.038
G1 X  95.586 Y  58.584
M5
G1 Z   0.000
G0 Z   0.000 
G40
G0 X  94.099 Y  62.914
G0 Z   0.000 
F150
G1 Z  -0.100
F80
M3
G1 X  94.099 Y  63.945
G1 X  94.631 Y  64.152
G1 X  94.990 Y  65.024
G1 X  94.990 Y  65.492
G1 X  94.099 Y  65.676
G1 X  94.099 Y  66.664
G1 X  95.714 Y  66.335
G1 X  95.714 Y  64.914
G1 X  95.585 Y  63.903
G1 X  95.196 Y  63.248
G1 X  94.719 Y  62.979
G1 X  94.099 Y  62.914
M5
G1 Z   0.000
G0 Z   0.000 
G40
G0 X  93.731 Y  62.961
G0 Z   0.000 
F150
G1 Z  -0.100
F80
M3
G1 X  93.676 Y  62.971
G1 X  92.793 Y  63.307
G1 X  92.156 Y  63.895
G1 X  91.769 Y  64.724
G1 X  91.641 Y  65.786
G1 X  91.641 Y  67.163
G1 X  93.731 Y  66.737
G1 X  93.731 Y  65.749
G1 X  92.364 Y  66.029
G1 X  92.364 Y  65.582
G1 X  92.724 Y  64.538
G1 X  93.693 Y  63.979
G1 X  93.731 Y  63.973
G1 X  93.731 Y  62.961
M5
G1 Z   0.000
G0 Z   0.000 
G40
G0 X  77.002 Y  66.018
G0 Z   0.000 
F150
G1 Z  -0.100
F80
M3
G1 X  76.241 Y  66.173
G1 X  75.583 Y  66.576
G1 X  75.066 Y  67.251
G1 X  75.700 Y  68.711
G1 X  76.115 Y  69.924
G1 X  76.389 Y  70.970
G1 X  76.604 Y  71.923
G1 X  84.751 Y  69.715
G1 X  81.096 Y  68.021
G1 X  77.832 Y  66.081
G1 X  77.002 Y  66.018
M5
G1 Z   0.000
G0 Z   0.000 
G40
G0 X  71.863 Y  46.572
G0 Z   0.000 
F150
G1 Z  -0.100
F80
M3
G1 X  62.997 Y  50.827
G1 X  62.734 Y  51.089
G1 X  62.814 Y  51.383
G1 X  63.092 Y  51.663
G1 X  63.426 Y  51.883
G1 X  64.876 Y  52.792
G1 X  66.434 Y  53.771
G1 X  67.925 Y  54.500
G1 X  69.180 Y  54.659
G1 X  69.418 Y  54.564
G1 X  69.909 Y  53.674
G1 X  70.186 Y  52.131
G1 X  70.804 Y  50.207
G1 X  72.318 Y  48.174
G1 X  72.610 Y  47.639
G1 X  72.624 Y  47.019
G1 X  72.371 Y  46.576
G1 X  71.863 Y  46.572
M5
G1 Z   0.000
G0 Z   0.000 
G40
G0 X  46.576 Y  29.234
G0 Z   0.000 
F150
G1 Z  -0.100
F80
M3
G1 X  44.891 Y  32.861
G1 X  46.206 Y  33.473
G1 X  47.891 Y  29.844
G1 X  46.576 Y  29.234
M5
G1 Z   0.000
G0 Z   0.000 
G40
G0 X  53.885 Y  30.513
G0 Z   0.000 
F150
G1 Z  -0.100
F80
M3
G1 X  52.441 Y  30.641
G1 X  52.795 Y  34.625
G1 X  54.240 Y  34.497
G1 X  53.885 Y  30.513
M5
G1 Z   0.000
G0 Z   0.000 
G40
G0 X  50.169 Y  26.538
G0 Z   0.000 
F150
G1 Z  -0.100
F80
M3
G1 X  49.142 Y  32.450
G1 X  50.439 Y  32.675
G1 X  51.466 Y  26.763
G1 X  50.169 Y  26.538
M5
G1 Z   0.000
G0 Z   0.000 
G40
G0 X  33.317 Y  24.070
G0 Z   0.000 
F150
G1 Z  -0.100
F80
M3
G1 X  32.479 Y  28.898
G1 X  33.956 Y  29.155
G1 X  34.795 Y  24.326
G1 X  33.317 Y  24.070
M5
G1 Z   0.000
G0 Z   0.000 
G40
G0 X  32.059 Y  31.317
G0 Z   0.000 
F150
G1 Z  -0.100
F80
M3
G1 X  31.219 Y  36.144
G1 X  32.698 Y  36.401
G1 X  33.536 Y  31.574
G1 X  32.059 Y  31.317
M5
G1 Z   0.000

G0 Z   0.000 
G0 X   2.565 Y  13.723
G0 Z   0.000 
F150
G1 Z  -0.100
F80
M3
G1 X   1.334 Y  14.961
G1 X   1.277 Y  15.018
G1 X   0.712 Y  15.587
G1 X   0.309 Y  16.078
G1 X   0.141 Y  16.450
G1 X   1.443 Y  19.390
G1 X   2.983 Y  22.221
G1 X   3.247 Y  22.658
G1 X   3.623 Y  23.330
G1 X   4.080 Y  24.169
G1 X   3.204 Y  25.051
G1 X   2.328 Y  25.935
G1 X   2.778 Y  26.381
G1 X   3.220 Y  26.885
G1 X   3.660 Y  27.470
G1 X   4.096 Y  28.089
G1 X   4.663 Y  28.869
G1 X   5.292 Y  29.712
G1 X   5.909 Y  30.525
G1 X   6.236 Y  31.047
G1 X   6.174 Y  31.335
G1 X   6.106 Y  31.791
G1 X   7.495 Y  33.863
G1 X   9.094 Y  35.795
G1 X  10.665 Y  37.334
G1 X  11.975 Y  38.221
G1 X  12.389 Y  38.402
G1 X  12.714 Y  38.515
G1 X  12.996 Y  38.542
G1 X  13.277 Y  38.461
G1 X  13.603 Y  38.252
G1 X  14.015 Y  37.892
G1 X  14.558 Y  37.361
G1 X  15.276 Y  36.639
G1 X  16.006 Y  35.907
G1 X  16.535 Y  35.362
G1 X  16.880 Y  34.951
G1 X  17.056 Y  34.627
G1 X  17.082 Y  34.339
G1 X  16.973 Y  34.039
G1 X  16.746 Y  33.677
G1 X  16.419 Y  33.200
G1 X  14.505 Y  31.185
G1 X  14.230 Y  30.900
G1 X  14.596 Y  31.237
G1 X  15.023 Y  31.648
G1 X  15.548 Y  32.183
G1 X  16.218 Y  32.888
G1 X  16.137 Y  32.759
G1 X  15.998 Y  31.873
G1 X  15.930 Y  31.113
G1 X  15.637 Y  30.072
G1 X  15.196 Y  28.851
G1 X  12.469 Y  26.140
G1 X  10.029 Y  23.716
G1 X  11.316 Y  22.421
G1 X   7.769 Y  18.896
G1 X   6.482 Y  20.191
G1 X   4.822 Y  18.539
G1 X   4.874 Y  18.493
G1 X   6.112 Y  17.248
G1 X   2.565 Y  13.723
M5
G1 Z   0.000
G0 Z   0.000 
G40
G0 X   9.478 Y  39.893
G0 Z   0.000 
F150
G1 Z  -0.100
F80
M3
G1 X   7.961 Y  39.927
G1 X   8.078 Y  45.093
G1 X   9.586 Y  45.059
G1 X   9.686 Y  49.539
G1 X   8.179 Y  49.572
G1 X   8.294 Y  54.740
G1 X   9.802 Y  54.705
G1 X   9.903 Y  59.194
G1 X   8.395 Y  59.228
G1 X   8.511 Y  64.386
G1 X  10.018 Y  64.352
G1 X  10.119 Y  68.840
G1 X   8.611 Y  68.874
G1 X   8.727 Y  74.032
G1 X  10.235 Y  73.998
G1 X  10.253 Y  74.738
G1 X  10.986 Y  72.956
G1 X  12.165 Y  71.419
G1 X  13.721 Y  70.115
G1 X  15.587 Y  69.026
G1 X  17.695 Y  68.140
G1 X  19.980 Y  67.443
G1 X  22.372 Y  66.918
G1 X  24.806 Y  66.551
G1 X  27.214 Y  66.328
G1 X  29.527 Y  66.234
G1 X  31.680 Y  66.255
G1 X  33.606 Y  66.375
G1 X  35.236 Y  66.580
G1 X  36.504 Y  66.856
G1 X  37.342 Y  67.186
G1 X  37.685 Y  67.558
G1 X  37.994 Y  65.603
G1 X  39.445 Y  65.826
G1 X  40.085 Y  61.674
G1 X  38.650 Y  61.451
G1 X  39.314 Y  57.237
G1 X  40.731 Y  57.451
G1 X  41.370 Y  53.300
G1 X  39.971 Y  53.085
G1 X  40.302 Y  50.960
G1 X  37.491 Y  54.554
G1 X  34.532 Y  57.446
G1 X  31.503 Y  59.675
G1 X  28.478 Y  61.277
G1 X  25.535 Y  62.289
G1 X  22.750 Y  62.748
G1 X  20.197 Y  62.691
G1 X  17.953 Y  62.154
G1 X  16.116 Y  61.050
G1 X  14.706 Y  59.347
G1 X  13.655 Y  57.161
G1 X  12.889 Y  54.606
G1 X  12.340 Y  51.798
G1 X  11.938 Y  48.850
G1 X  11.613 Y  45.881
G1 X  11.294 Y  43.002
G1 X  11.012 Y  41.610
G1 X  10.616 Y  40.888
G1 X  10.105 Y  40.483
G1 X   9.481 Y  40.043
G1 X   9.478 Y  39.893
M5
G1 Z   0.000
G0 Z   0.000 
G40
G0 X  18.598 Y  35.129
G0 Z   0.000 
F150
G1 Z  -0.100
F80
M3
G1 X  18.310 Y  35.148
G1 X  17.981 Y  35.316
G1 X  17.562 Y  35.650
G1 X  17.002 Y  36.165
G1 X  16.253 Y  36.876
G1 X  15.513 Y  37.577
G1 X  14.968 Y  38.106
G1 X  14.599 Y  38.508
G1 X  14.381 Y  38.827
G1 X  14.293 Y  39.106
G1 X  14.314 Y  39.388
G1 X  14.418 Y  39.718
G1 X  14.588 Y  40.134
G1 X  15.442 Y  41.467
G1 X  16.939 Y  43.077
G1 X  18.831 Y  44.724
G1 X  20.866 Y  46.166
G1 X  21.322 Y  46.111
G1 X  21.612 Y  46.056
G1 X  22.126 Y  46.396
G1 X  22.922 Y  47.034
G1 X  23.750 Y  47.683
G1 X  24.515 Y  48.270
G1 X  25.123 Y  48.720
G1 X  25.696 Y  49.176
G1 X  26.188 Y  49.632
G1 X  26.625 Y  50.093
G1 X  27.529 Y  49.239
G1 X  28.433 Y  48.384
G1 X  29.261 Y  48.864
G1 X  29.923 Y  49.258
G1 X  30.353 Y  49.531
G1 X  33.143 Y  51.143
G1 X  36.051 Y  52.520
G1 X  36.426 Y  52.363
G1 X  36.927 Y  51.971
G1 X  37.510 Y  51.420
G1 X  37.568 Y  51.366
G1 X  38.839 Y  50.168
G1 X  35.405 Y  46.531
G1 X  34.128 Y  47.737
G1 X  34.080 Y  47.788
G1 X  32.472 Y  46.086
G1 X  33.799 Y  44.832
G1 X  30.366 Y  41.196
G1 X  29.038 Y  42.449
G1 X  26.677 Y  39.949
G1 X  24.037 Y  37.155
G1 X  22.827 Y  36.683
G1 X  21.795 Y  36.362
G1 X  21.036 Y  36.276
G1 X  20.155 Y  36.114
G1 X  20.026 Y  36.029
G1 X  20.715 Y  36.716
G1 X  21.236 Y  37.255
G1 X  21.637 Y  37.692
G1 X  21.965 Y  38.068
G1 X  21.685 Y  37.786
G1 X  19.720 Y  35.821
G1 X  19.253 Y  35.482
G1 X  18.894 Y  35.246
G1 X  18.598 Y  35.129
M5
G1 Z   0.000
G0 Z   0.000 
G40
G0 X  87.942 Y  35.599
G0 Z   0.000 
F150
G1 Z  -0.100
F80
M3
G1 X  83.283 Y  37.834
G1 X  83.935 Y  39.194
G1 X  79.896 Y  41.133
G1 X  79.244 Y  39.773
G1 X  74.584 Y  42.010
G1 X  75.237 Y  43.368
G1 X  71.190 Y  45.311
G1 X  70.536 Y  43.951
G1 X  65.886 Y  46.184
G1 X  66.539 Y  47.544
G1 X  62.491 Y  49.485
G1 X  61.838 Y  48.125
G1 X  57.187 Y  50.358
G1 X  57.839 Y  51.718
G1 X  57.172 Y  52.039
G1 X  59.098 Y  51.974
G1 X  60.985 Y  52.414
G1 X  62.815 Y  53.293
G1 X  64.576 Y  54.545
G1 X  66.252 Y  56.101
G1 X  67.830 Y  57.894
G1 X  69.295 Y  59.857
G1 X  70.631 Y  61.922
G1 X  71.827 Y  64.023
G1 X  72.867 Y  66.094
G1 X  73.736 Y  68.064
G1 X  74.419 Y  69.867
G1 X  74.905 Y  71.438
G1 X  75.178 Y  72.707
G1 X  75.220 Y  73.606
G1 X  75.023 Y  74.071
G1 X  76.933 Y  73.546
G1 X  77.329 Y  74.960
G1 X  81.374 Y  73.830
G1 X  80.986 Y  72.431
G1 X  85.100 Y  71.300
G1 X  85.486 Y  72.678
G1 X  89.532 Y  71.549
G1 X  89.152 Y  70.185
G1 X  91.225 Y  69.611
G1 X  86.792 Y  68.533
G1 X  82.937 Y  67.031
G1 X  79.657 Y  65.189
G1 X  76.951 Y  63.095
G1 X  74.815 Y  60.829
G1 X  73.248 Y  58.481
G1 X  72.248 Y  56.130
G1 X  71.812 Y  53.865
G1 X  72.061 Y  51.737
G1 X  73.032 Y  49.751
G1 X  74.589 Y  47.892
G1 X  76.601 Y  46.141
G1 X  78.934 Y  44.483
G1 X  81.453 Y  42.902
G1 X  84.025 Y  41.381
G1 X  86.516 Y  39.902
G1 X  87.667 Y  39.073
G1 X  88.161 Y  38.414
G1 X  88.320 Y  37.782
G1 X  88.463 Y  37.031
G1 X  88.599 Y  36.966
G1 X  87.942 Y  35.599
M5
G1 Z   0.000
G0 Z   0.000 
G40
G0 X 111.576 Y  45.045
G0 Z   0.000 
F150
G1 Z  -0.100
F80
M3
G1 X 105.573 Y  45.321
G1 X  99.982 Y  46.111
G1 X  94.922 Y  47.360
G1 X  90.512 Y  49.014
G1 X  86.873 Y  51.019
G1 X  84.125 Y  53.319
G1 X  82.389 Y  55.860
G1 X  81.784 Y  58.587
G1 X  82.389 Y  61.316
G1 X  84.125 Y  63.858
G1 X  86.873 Y  66.158
G1 X  90.512 Y  68.162
G1 X  94.922 Y  69.817
G1 X  99.982 Y  71.065
G1 X 105.573 Y  71.855
G1 X 111.576 Y  72.129
G1 X 117.577 Y  71.855
G1 X 123.168 Y  71.065
G1 X 128.228 Y  69.817
G1 X 132.637 Y  68.162
G1 X 136.277 Y  66.158
G1 X 139.025 Y  63.858
G1 X 140.761 Y  61.316
G1 X 141.368 Y  58.587
G1 X 140.761 Y  55.860
G1 X 139.025 Y  53.319
G1 X 136.277 Y  51.019
G1 X 132.637 Y  49.014
G1 X 128.228 Y  47.360
G1 X 123.168 Y  46.111
G1 X 117.577 Y  45.321
G1 X 111.576 Y  45.045
M5
G1 Z   0.000
G0 Z   0.000 
G40
G0 X 111.831 Y  22.458
G0 Z   0.000 
F150
G1 Z  -0.100
F80
M3
G1 X 103.141 Y  28.798
G1 X 103.141 Y  28.798
G1 X  90.999 Y  37.686
G1 X  89.986 Y  38.429
G1 X  89.126 Y  39.074
G1 X  88.509 Y  39.552
G1 X  88.228 Y  39.796
G1 X  88.037 Y  40.306
G1 X  87.887 Y  41.312
G1 X  87.781 Y  42.781
G1 X  87.722 Y  44.680
G1 X  87.740 Y  46.478
G1 X  87.858 Y  47.395
G1 X 108.442 Y  41.227
G1 X 111.831 Y  41.307
G1 X 115.219 Y  41.227
G1 X 135.801 Y  47.395
G1 X 135.920 Y  46.478
G1 X 135.939 Y  44.680
G1 X 135.879 Y  42.781
G1 X 135.773 Y  41.312
G1 X 135.622 Y  40.306
G1 X 135.434 Y  39.796
G1 X 135.151 Y  39.552
G1 X 134.534 Y  39.074
G1 X 133.674 Y  38.429
G1 X 132.662 Y  37.686
G1 X 120.519 Y  28.798
G1 X 120.519 Y  28.798
G1 X 111.831 Y  22.458
M5
G1 Z   0.000
G0 Z   0.000 
G40
G0 X  89.701 Y   0.181
G0 Z   0.000 
F150
G1 Z  -0.100
F80
M3
G1 X  89.709 Y   1.891
G1 X  87.063 Y   1.909
G1 X  87.055 Y   0.189
G1 X  83.483 Y   0.189
G1 X  81.058 Y   0.207
G1 X  81.066 Y   1.953
G1 X  77.688 Y   1.979
G1 X  77.680 Y   0.233
G1 X  71.683 Y   0.269
G1 X  71.691 Y   2.015
G1 X  68.322 Y   2.041
G1 X  68.304 Y   0.295
G1 X  62.306 Y   0.339
G1 X  62.324 Y   2.085
G1 X  59.679 Y   2.103
G1 X  59.661 Y   0.339
G1 X  56.418 Y   0.379
G1 X  52.862 Y   0.416
G1 X  49.330 Y   0.448
G1 X  46.159 Y   0.471
G1 X  43.188 Y   0.500
G1 X  40.725 Y   0.543
G1 X  39.025 Y   0.595
G1 X  38.345 Y   0.648
G1 X  36.521 Y   0.617
G1 X  34.685 Y   0.710
G1 X  31.036 Y   0.904
G1 X  27.418 Y   1.441
G1 X  26.329 Y   1.662
G1 X  25.503 Y   1.820
G1 X  24.982 Y   1.940
G1 X  24.639 Y   2.067
G1 X  24.163 Y   2.226
G1 X  23.574 Y   2.384
G1 X  22.389 Y   2.759
G1 X  20.888 Y   3.258
G1 X  19.356 Y   3.787
G1 X  18.442 Y   4.188
G1 X  17.708 Y   4.634
G1 X  17.176 Y   5.044
G1 X  16.764 Y   5.356
G1 X  16.501 Y   5.740
G1 X  16.367 Y   6.407
G1 X  16.363 Y   6.980
G1 X  16.531 Y   7.435
G1 X  16.944 Y   7.891
G1 X  17.680 Y   8.461
G1 X  18.373 Y   9.030
G1 X  19.145 Y   9.740
G1 X  21.518 Y  11.315
G1 X  25.054 Y  12.555
G1 X  29.697 Y  13.450
G1 X  35.399 Y  13.983
G1 X  37.637 Y  14.063
G1 X  40.925 Y  14.104
G1 X  45.423 Y  14.107
G1 X  51.292 Y  14.071
G1 X  57.354 Y  14.026
G1 X  64.594 Y  13.975
G1 X  72.107 Y  13.925
G1 X  78.985 Y  13.885
G1 X  85.470 Y  13.847
G1 X  90.769 Y  13.797
G1 X  95.118 Y  13.731
G1 X  98.752 Y  13.638
G1 X 101.909 Y  13.516
G1 X 104.823 Y  13.352
G1 X 107.734 Y  13.140
G1 X 110.876 Y  12.871
G1 X 112.110 Y  12.757
G1 X 112.110 Y  13.330
G1 X 112.110 Y  13.895
G1 X 111.034 Y  14.097
G1 X 110.422 Y  14.217
G1 X 109.966 Y  14.336
G1 X 109.644 Y  14.490
G1 X 109.433 Y  14.719
G1 X 109.311 Y  15.061
G1 X 109.256 Y  15.551
G1 X 109.247 Y  16.229
G1 X 109.262 Y  17.130
G1 X 109.303 Y  18.842
G1 X 109.391 Y  19.779
G1 X 109.584 Y  20.230
G1 X 109.941 Y  20.482
G1 X 110.312 Y  20.622
G1 X 110.918 Y  20.706
G1 X 111.943 Y  20.746
G1 X 113.575 Y  20.756
G1 X 115.340 Y  20.764
G1 X 116.331 Y  20.807
G1 X 116.840 Y  20.912
G1 X 117.155 Y  21.109
G1 X 117.851 Y  21.770
G1 X 119.422 Y  23.307
G1 X 121.634 Y  25.492
G1 X 124.255 Y  28.094
G1 X 130.914 Y  34.725
G1 X 132.810 Y  34.725
G1 X 134.565 Y  34.698
G1 X 135.832 Y  34.615
G1 X 136.599 Y  34.480
G1 X 136.859 Y  34.294
G1 X 136.717 Y  33.832
G1 X 136.349 Y  32.880
G1 X 135.830 Y  31.637
G1 X 135.243 Y  30.299
G1 X 134.870 Y  29.438
G1 X 134.397 Y  28.305
G1 X 134.067 Y  27.503
G1 X 133.759 Y  26.773
G1 X 133.409 Y  25.960
G1 X 132.950 Y  24.909
G1 X 132.416 Y  23.668
G1 X 131.928 Y  22.491
G1 X 131.572 Y  21.594
G1 X 131.434 Y  21.187
G1 X 131.633 Y  21.080
G1 X 132.113 Y  21.011
G1 X 132.621 Y  20.970
G1 X 133.506 Y  20.883
G1 X 134.643 Y  20.763
G1 X 135.905 Y  20.624
G1 X 139.019 Y  20.271
G1 X 139.036 Y  18.375
G1 X 139.015 Y  17.453
G1 X 139.003 Y  16.977
G1 X 138.997 Y  16.801
G1 X 138.993 Y  16.773
G1 X 138.989 Y  16.746
G1 X 138.981 Y  16.568
G1 X 138.964 Y  16.091
G1 X 138.940 Y  15.164
G1 X 138.846 Y  14.914
G1 X 138.517 Y  14.744
G1 X 137.880 Y  14.629
G1 X 136.859 Y  14.547
G1 X 135.644 Y  14.447
G1 X 134.149 Y  14.289
G1 X 132.782 Y  14.119
G1 X 131.954 Y  13.983
G1 X 131.919 Y  13.798
G1 X 132.174 Y  13.647
G1 X 132.343 Y  13.550
G1 X 131.858 Y  13.418
G1 X 130.857 Y  13.243
G1 X 129.745 Y  13.091
G1 X 128.929 Y  13.021
G1 X 128.345 Y  12.850
G1 X 128.312 Y  12.245
G1 X 128.408 Y  11.813
G1 X 130.270 Y  11.563
G1 X 130.750 Y  11.398
G1 X 131.277 Y  10.976
G1 X 131.672 Y  10.251
G1 X 131.752 Y   9.176
G1 X 131.530 Y   8.351
G1 X 130.856 Y   7.570
G1 X 129.712 Y   6.820
G1 X 128.083 Y   6.090
G1 X 119.775 Y   3.434
G1 X 118.673 Y   3.136
G1 X 117.703 Y   2.870
G1 X 115.857 Y   2.405
G1 X 113.513 Y   1.862
G1 X 111.189 Y   1.362
G1 X 109.402 Y   1.018
G1 X 107.881 Y   0.774
G1 X 106.492 Y   0.584
G1 X 105.102 Y   0.441
G1 X 103.581 Y   0.336
G1 X 101.802 Y   0.266
G1 X  99.632 Y   0.220
G1 X  96.941 Y   0.194
G1 X  93.599 Y   0.181
G1 X  89.701 Y   0.181
M5
G1 Z   0.000
G0 Z   0.000 
G40
G0 X   2.005 Y   0.349
G0 Z   0.000 
F150
G1 Z  -0.100
F80
M3
G1 X   1.492 Y   3.446
G1 X   1.287 Y   4.725
G1 X   1.109 Y   5.916
G1 X   0.978 Y   6.887
G1 X   0.912 Y   7.505
G1 X   0.904 Y   8.294
G1 X   0.980 Y   8.844
G1 X   1.138 Y   9.094
G1 X   1.472 Y   9.492
G1 X   1.932 Y   9.984
G1 X   2.468 Y  10.514
G1 X   5.114 Y  13.076
G1 X   8.418 Y  16.335
G1 X   9.178 Y  17.089
G1 X  10.000 Y  17.898
G1 X  10.786 Y  18.667
G1 X  11.436 Y  19.298
G1 X  12.026 Y  19.870
G1 X  12.648 Y  20.476
G1 X  13.228 Y  21.047
G1 X  13.692 Y  21.506
G1 X  14.527 Y  22.339
G1 X  15.240 Y  23.045
G1 X  15.951 Y  23.749
G1 X  16.787 Y  24.576
G1 X  17.343 Y  25.127
G1 X  18.175 Y  25.946
G1 X  19.171 Y  26.926
G1 X  20.217 Y  27.952
G1 X  21.310 Y  29.031
G1 X  22.439 Y  30.146
G1 X  23.469 Y  31.167
G1 X  24.269 Y  31.962
G1 X  25.050 Y  32.737
G1 X  26.035 Y  33.698
G1 X  27.098 Y  34.725
G1 X  28.112 Y  35.695
G1 X  29.055 Y  36.608
G1 X  29.928 Y  37.473
G1 X  30.635 Y  38.195
G1 X  31.078 Y  38.675
G1 X  31.720 Y  39.369
G1 X  32.320 Y  39.920
G1 X  32.644 Y  40.203
G1 X  33.106 Y  40.636
G1 X  33.643 Y  41.161
G1 X  34.195 Y  41.719
G1 X  34.823 Y  42.361
G1 X  35.333 Y  42.868
G1 X  35.767 Y  43.290
G1 X  36.169 Y  43.674
G1 X  36.580 Y  44.073
G1 X  37.046 Y  44.533
G1 X  37.608 Y  45.102
G1 X  38.311 Y  45.832
G1 X  45.936 Y  53.850
G1 X  46.241 Y  53.902
G1 X  47.128 Y  53.457
G1 X  48.718 Y  52.658
G1 X  49.669 Y  52.181
G1 X  50.348 Y  51.839
G1 X  50.800 Y  51.613
G1 X  51.072 Y  51.475
G1 X  51.235 Y  51.393
G1 X  51.256 Y  51.381
G1 X  51.271 Y  51.373
G1 X  51.420 Y  51.297
G1 X  51.842 Y  51.085
G1 X  52.673 Y  50.665
G1 X  54.054 Y  49.969
G1 X  56.123 Y  48.926
G1 X  57.030 Y  48.475
G1 X  57.751 Y  48.128
G1 X  58.344 Y  47.853
G1 X  58.866 Y  47.617
G1 X  59.373 Y  47.389
G1 X  59.924 Y  47.140
G1 X  60.574 Y  46.834
G1 X  61.385 Y  46.441
G1 X  62.092 Y  46.103
G1 X  62.775 Y  45.788
G1 X  63.355 Y  45.536
G1 X  63.757 Y  45.380
G1 X  64.507 Y  45.064
G1 X  65.345 Y  44.626
G1 X  65.923 Y  44.323
G1 X  66.832 Y  43.882
G1 X  67.947 Y  43.363
G1 X  69.143 Y  42.823
G1 X  70.423 Y  42.251
G1 X  71.769 Y  41.642
G1 X  73.021 Y  41.068
G1 X  74.018 Y  40.604
G1 X  75.038 Y  40.124
G1 X  76.353 Y  39.510
G1 X  77.792 Y  38.841
G1 X  79.186 Y  38.195
G1 X  80.516 Y  37.580
G1 X  81.782 Y  36.995
G1 X  82.844 Y  36.504
G1 X  83.553 Y  36.173
G1 X  84.618 Y  35.676
G1 X  85.527 Y  35.253
G1 X  86.433 Y  34.830
G1 X  87.501 Y  34.327
G1 X  88.831 Y  33.710
G1 X  90.370 Y  33.008
G1 X  91.194 Y  32.633
G1 X  92.194 Y  32.174
G1 X  93.241 Y  31.691
G1 X  94.211 Y  31.237
G1 X  98.419 Y  29.282
G1 X 101.775 Y  27.763
G1 X 102.459 Y  27.445
G1 X 103.058 Y  27.136
G1 X 103.506 Y  26.874
G1 X 103.740 Y  26.693
G1 X 103.995 Y  26.201
G1 X 104.254 Y  25.454
G1 X 104.400 Y  24.850
G1 X 104.604 Y  23.892
G1 X 104.839 Y  22.711
G1 X 105.078 Y  21.438
G1 X 105.639 Y  18.349
G1 X 104.998 Y  18.543
G1 X 104.097 Y  18.799
G1 X 103.127 Y  19.050
G1 X 102.327 Y  19.236
G1 X 101.939 Y  19.299
G1 X 101.577 Y  19.359
G1 X 100.886 Y  19.531
G1 X  99.989 Y  19.772
G1 X  99.322 Y  19.936
G1 X  98.764 Y  20.055
G1 X  98.196 Y  20.151
G1 X  97.547 Y  20.281
G1 X  96.249 Y  20.558
G1 X  94.517 Y  20.934
G1 X  92.564 Y  21.364
G1 X  90.605 Y  21.799
G1 X  88.852 Y  22.193
G1 X  87.519 Y  22.496
G1 X  86.822 Y  22.665
G1 X  85.380 Y  23.012
G1 X  82.623 Y  23.643
G1 X  79.076 Y  24.438
G1 X  75.268 Y  25.279
G1 X  74.032 Y  25.554
G1 X  72.971 Y  25.795
G1 X  72.199 Y  25.979
G1 X  71.829 Y  26.078
G1 X  51.260 Y  24.096
G1 X  31.229 Y  19.025
G1 X  30.912 Y  18.807
G1 X  30.247 Y  18.375
G1 X  29.330 Y  17.789
G1 X  28.261 Y  17.114
G1 X  24.958 Y  15.039
G1 X  21.887 Y  13.094
G1 X  19.503 Y  11.570
G1 X  18.265 Y  10.757
G1 X  17.664 Y  10.364
G1 X  16.512 Y   9.627
G1 X  14.994 Y   8.666
G1 X  13.297 Y   7.596
G1 X  11.603 Y   6.532
G1 X  10.100 Y   5.593
G1 X   8.971 Y   4.896
G1 X   8.405 Y   4.554
G1 X   7.902 Y   4.272
G1 X   7.417 Y   3.973
G1 X   6.843 Y   3.593
G1 X   6.081 Y   3.063
G1 X   5.489 Y   2.669
G1 X   5.169 Y   2.491
G1 X   4.823 Y   2.301
G1 X   4.134 Y   1.855
G1 X   3.305 Y   1.291
G1 X   2.544 Y   0.747
G1 X   2.005 Y   0.349
M5
G1 Z   0.000
G0 Z   0.000 
G40
G0 X   0.000 Y   0.000
M9 (Coolant off)
M5 (Spindle off)
M2 (Prgram end)

