(Generated with dxf2code)
(Created from file: /home/dima/Documents/CAD/Graphics/rocket.dxf)
G21 (Unit in mm)
G90 (Absolute distance mode)
G64 P0.01 (Exact Path 0.001 tol.)
G17
G40 (Cancel diameter comp.)
G49 (Cancel length comp.)
T1M6 (Tool change to T1)
M8 (Coolant flood on)
S5000M5 (Spindle 5000rpm OFF)
G0 Z   0.000 
G0 X  57.426 Y  51.745
G0 Z   0.000 
F200
G1 Z  -0.200
F100
M3
G1 X  57.195 Y  54.019
G1 X  57.266 Y  54.026
G1 X  47.108 Y  56.125
G1 X  36.510 Y  59.171
G1 X  46.288 Y  64.279
G1 X  55.827 Y  68.364
G1 X  55.757 Y  68.358
G1 X  55.526 Y  70.630
G1 X  56.913 Y  70.770
G1 X  57.107 Y  68.848
G1 X  64.857 Y  71.471
G1 X  72.355 Y  73.507
G1 X  79.567 Y  75.016
G1 X  86.457 Y  76.057
G1 X  92.994 Y  76.682
G1 X  99.140 Y  76.954
G1 X 104.865 Y  76.927
G1 X 110.132 Y  76.660
G1 X 114.906 Y  76.209
G1 X 119.156 Y  75.632
G1 X 122.845 Y  74.987
G1 X 125.940 Y  74.331
G1 X 128.408 Y  73.721
G1 X 130.212 Y  73.214
G1 X 131.320 Y  72.868
G1 X 131.697 Y  72.738
G1 X 133.171 Y  71.935
G1 X 134.180 Y  71.097
G1 X 134.787 Y  70.243
G1 X 135.059 Y  69.390
G1 X 135.082 Y  69.162
G1 X 135.009 Y  68.328
G1 X 134.735 Y  67.539
G1 X 134.322 Y  66.818
G1 X 133.836 Y  66.184
G1 X 133.344 Y  65.658
G1 X 132.913 Y  65.256
G1 X 132.605 Y  65.001
G1 X 132.489 Y  64.911
G1 X 132.144 Y  64.711
G1 X 131.129 Y  64.150
G1 X 129.462 Y  63.292
G1 X 127.167 Y  62.200
G1 X 124.266 Y  60.938
G1 X 120.781 Y  59.567
G1 X 116.734 Y  58.152
G1 X 112.145 Y  56.756
G1 X 107.039 Y  55.440
G1 X 101.436 Y  54.269
G1 X  95.360 Y  53.304
G1 X  88.831 Y  52.611
G1 X  81.872 Y  52.251
G1 X  74.506 Y  52.287
G1 X  66.754 Y  52.783
G1 X  58.637 Y  53.800
G1 X  58.830 Y  51.887
G1 X  57.426 Y  51.745
M5
G1 Z   0.000
G0 Z   0.000 
G40
G0 X  59.322 Y  79.064
G0 Z   0.000 
F200
G1 Z  -0.200
F100
M3
G1 X  59.322 Y  82.150
G1 X  56.070 Y  82.995
G1 X  53.394 Y  84.866
G1 X  51.522 Y  87.543
G1 X  50.679 Y  90.793
G1 X  47.592 Y  90.793
G1 X  47.592 Y  92.178
G1 X  50.679 Y  92.178
G1 X  51.522 Y  95.432
G1 X  53.394 Y  98.107
G1 X  56.070 Y  99.979
G1 X  59.322 Y 100.821
G1 X  59.322 Y 103.908
G1 X  60.716 Y 103.908
G1 X  60.716 Y 100.821
G1 X  63.967 Y  99.978
G1 X  66.642 Y  98.105
G1 X  68.515 Y  95.431
G1 X  69.359 Y  92.178
G1 X  72.436 Y  92.178
G1 X  72.436 Y  90.793
G1 X  69.359 Y  90.793
G1 X  68.515 Y  87.543
G1 X  66.642 Y  84.868
G1 X  63.967 Y  82.995
G1 X  60.716 Y  82.150
G1 X  60.716 Y  79.064
G1 X  59.322 Y  79.064
M5
G1 Z   0.000
G0 Z   0.000 
G40
G0 X 160.467 Y  38.316
G0 Z   0.000 
F200
G1 Z  -0.200
F100
M3
G1 X 160.467 Y  40.425
G1 X 158.456 Y  40.740
G1 X 156.585 Y  41.400
G1 X 154.887 Y  42.372
G1 X 153.396 Y  43.620
G1 X 152.148 Y  45.111
G1 X 151.176 Y  46.809
G1 X 150.516 Y  48.681
G1 X 150.202 Y  50.690
G1 X 148.094 Y  50.690
G1 X 148.094 Y  52.084
G1 X 150.202 Y  52.084
G1 X 150.515 Y  54.095
G1 X 151.175 Y  55.967
G1 X 152.146 Y  57.668
G1 X 153.395 Y  59.160
G1 X 154.886 Y  60.410
G1 X 156.585 Y  61.383
G1 X 158.456 Y  62.045
G1 X 160.467 Y  62.359
G1 X 160.467 Y  64.466
G1 X 161.860 Y  64.466
G1 X 161.860 Y  62.359
G1 X 163.871 Y  62.046
G1 X 165.745 Y  61.386
G1 X 167.445 Y  60.413
G1 X 168.938 Y  59.163
G1 X 170.188 Y  57.670
G1 X 171.159 Y  55.969
G1 X 171.821 Y  54.096
G1 X 172.135 Y  52.084
G1 X 174.243 Y  52.084
G1 X 174.243 Y  50.690
G1 X 172.135 Y  50.690
G1 X 171.819 Y  48.681
G1 X 171.159 Y  46.808
G1 X 170.186 Y  45.109
G1 X 168.936 Y  43.618
G1 X 167.444 Y  42.369
G1 X 165.743 Y  41.398
G1 X 163.871 Y  40.739
G1 X 161.860 Y  40.425
G1 X 161.860 Y  38.316
G1 X 160.467 Y  38.316
M5
G1 Z   0.000
G0 Z   0.000 
G40
G0 X 160.463 Y  10.960
G0 Z   0.000 
F200
G1 Z  -0.200
F100
M3
G1 X 160.463 Y  14.161
G1 X 159.294 Y  14.562
G1 X 158.318 Y  15.281
G1 X 157.599 Y  16.257
G1 X 157.200 Y  17.424
G1 X 153.998 Y  17.424
G1 X 153.998 Y  18.835
G1 X 157.200 Y  18.835
G1 X 157.599 Y  20.002
G1 X 158.317 Y  20.976
G1 X 159.289 Y  21.696
G1 X 160.455 Y  22.098
G1 X 160.455 Y  25.299
G1 X 161.874 Y  25.299
G1 X 161.874 Y  22.098
G1 X 163.041 Y  21.699
G1 X 164.017 Y  20.979
G1 X 164.736 Y  20.004
G1 X 165.137 Y  18.835
G1 X 168.340 Y  18.835
G1 X 168.340 Y  17.414
G1 X 165.137 Y  17.414
G1 X 164.735 Y  16.250
G1 X 164.016 Y  15.277
G1 X 163.041 Y  14.560
G1 X 161.874 Y  14.161
G1 X 161.874 Y  10.960
G1 X 160.463 Y  10.960
M5
G1 Z   0.000
G0 Z   0.000 
G40
G0 X  61.068 Y  12.637
G0 Z   0.000 
F200
G1 Z  -0.200
F100
M3
G1 X  58.161 Y  12.903
G1 X  55.671 Y  14.216
G1 X  53.854 Y  16.367
G1 X  52.972 Y  19.146
G1 X  53.235 Y  22.051
G1 X  54.548 Y  24.543
G1 X  56.699 Y  26.361
G1 X  59.480 Y  27.243
G1 X  62.385 Y  26.978
G1 X  64.876 Y  25.666
G1 X  66.694 Y  23.515
G1 X  67.578 Y  20.734
G1 X  67.312 Y  17.829
G1 X  65.998 Y  15.338
G1 X  63.847 Y  13.520
G1 X  61.068 Y  12.637
M5
G1 Z   0.000
G0 Z   0.000 
G40
G0 Z   0.000 
G0 X   6.787 Y  26.705
G0 Z   0.000 
F200
G1 Z  -0.200
F100
M3
G1 X   6.435 Y  26.794
G1 X   6.164 Y  27.096
G1 X   5.977 Y  27.550
G1 X   5.877 Y  28.094
G1 X   5.872 Y  28.669
G1 X   5.963 Y  29.213
G1 X   6.156 Y  29.666
G1 X   6.456 Y  29.969
G1 X  10.808 Y  32.569
G1 X  15.016 Y  35.217
G1 X  19.024 Y  37.935
G1 X  22.772 Y  40.743
G1 X  26.202 Y  43.661
G1 X  29.254 Y  46.707
G1 X  31.870 Y  49.904
G1 X  33.993 Y  53.271
G1 X  34.427 Y  53.764
G1 X  34.576 Y  54.159
G1 X  34.430 Y  54.559
G1 X  33.981 Y  55.061
G1 X  28.144 Y  56.785
G1 X  27.696 Y  55.964
G1 X  27.049 Y  55.292
G1 X  26.236 Y  54.817
G1 X  25.290 Y  54.581
G1 X  23.731 Y  54.782
G1 X  22.463 Y  55.616
G1 X  22.297 Y  55.423
G1 X  21.037 Y  54.574
G1 X  19.414 Y  53.837
G1 X  17.589 Y  53.213
G1 X  15.728 Y  52.703
G1 X  13.994 Y  52.305
G1 X  12.553 Y  52.021
G1 X  11.566 Y  51.851
G1 X  11.202 Y  51.793
G1 X  10.778 Y  55.996
G1 X  24.431 Y  57.376
G1 X  24.315 Y  58.517
G1 X  10.662 Y  57.138
G1 X  10.239 Y  61.332
G1 X  10.607 Y  61.350
G1 X  11.607 Y  61.381
G1 X  13.076 Y  61.390
G1 X  14.855 Y  61.347
G1 X  16.780 Y  61.219
G1 X  18.693 Y  60.973
G1 X  20.432 Y  60.576
G1 X  21.835 Y  59.994
G1 X  22.046 Y  59.839
G1 X  23.118 Y  60.914
G1 X  24.598 Y  61.426
G1 X  25.575 Y  61.386
G1 X  26.469 Y  61.087
G1 X  27.240 Y  60.562
G1 X  27.843 Y  59.848
G1 X  33.201 Y  62.694
G1 X  33.547 Y  63.282
G1 X  33.615 Y  63.700
G1 X  33.390 Y  64.055
G1 X  32.865 Y  64.449
G1 X  30.111 Y  67.324
G1 X  26.909 Y  69.933
G1 X  23.308 Y  72.307
G1 X  19.366 Y  74.479
G1 X  15.132 Y  76.478
G1 X  10.662 Y  78.338
G1 X   6.008 Y  80.092
G1 X   1.225 Y  81.767
G1 X   0.870 Y  82.006
G1 X   0.590 Y  82.412
G1 X   0.391 Y  82.929
G1 X   0.282 Y  83.494
G1 X   0.270 Y  84.048
G1 X   0.362 Y  84.531
G1 X   0.568 Y  84.881
G1 X   0.894 Y  85.040
G1 X   4.801 Y  85.297
G1 X   8.961 Y  85.273
G1 X  13.310 Y  85.004
G1 X  17.785 Y  84.525
G1 X  22.317 Y  83.867
G1 X  26.846 Y  83.067
G1 X  31.303 Y  82.159
G1 X  35.626 Y  81.176
G1 X  39.749 Y  80.152
G1 X  43.609 Y  79.124
G1 X  47.139 Y  78.122
G1 X  50.275 Y  77.184
G1 X  52.953 Y  76.343
G1 X  55.106 Y  75.632
G1 X  56.672 Y  75.085
G1 X  57.585 Y  74.738
G1 X  58.108 Y  74.522
G1 X  58.893 Y  74.327
G1 X  60.037 Y  74.311
G1 X  61.640 Y  74.625
G1 X  61.940 Y  74.717
G1 X  62.155 Y  74.783
G1 X  73.944 Y  78.119
G1 X  74.145 Y  76.127
G1 X  75.531 Y  76.267
G1 X  75.313 Y  78.443
G1 X  84.289 Y  80.280
G1 X  92.775 Y  81.510
G1 X  93.019 Y  79.097
G1 X  94.405 Y  79.237
G1 X  94.161 Y  81.658
G1 X 103.327 Y  82.338
G1 X 111.741 Y  82.423
G1 X 112.057 Y  79.309
G1 X 113.443 Y  79.449
G1 X 113.145 Y  82.389
G1 X 122.939 Y  81.694
G1 X 131.218 Y  80.473
G1 X 131.667 Y  76.024
G1 X 133.072 Y  76.165
G1 X 132.665 Y  80.185
G1 X 136.005 Y  79.459
G1 X 138.940 Y  78.721
G1 X 141.454 Y  78.004
G1 X 143.539 Y  77.341
G1 X 145.180 Y  76.768
G1 X 146.368 Y  76.316
G1 X 147.089 Y  76.019
G1 X 147.333 Y  75.913
G1 X 149.328 Y  74.833
G1 X 150.724 Y  73.709
G1 X 151.598 Y  72.562
G1 X 152.025 Y  71.414
G1 X 143.443 Y  70.547
G1 X 143.559 Y  69.406
G1 X 152.079 Y  70.268
G1 X 151.840 Y  69.200
G1 X 151.391 Y  68.201
G1 X 150.803 Y  67.294
G1 X 150.154 Y  66.502
G1 X 149.517 Y  65.847
G1 X 148.970 Y  65.351
G1 X 148.586 Y  65.036
G1 X 148.442 Y  64.926
G1 X 148.224 Y  64.775
G1 X 147.578 Y  64.339
G1 X 146.506 Y  63.658
G1 X 145.012 Y  62.767
G1 X 143.104 Y  61.700
G1 X 140.783 Y  60.493
G1 X 138.055 Y  59.181
G1 X 134.927 Y  57.800
G1 X 134.520 Y  61.827
G1 X 133.107 Y  61.685
G1 X 133.557 Y  57.237
G1 X 125.692 Y  54.386
G1 X 116.240 Y  51.747
G1 X 115.943 Y  54.686
G1 X 114.557 Y  54.547
G1 X 114.872 Y  51.431
G1 X 106.609 Y  49.834
G1 X  97.493 Y  48.665
G1 X  97.248 Y  51.088
G1 X  95.862 Y  50.948
G1 X  96.106 Y  48.535
G1 X  87.545 Y  48.044
G1 X  78.382 Y  48.048
G1 X  78.162 Y  50.224
G1 X  76.776 Y  50.083
G1 X  76.977 Y  48.092
G1 X  64.758 Y  49.003
G1 X  64.688 Y  49.004
G1 X  64.642 Y  49.018
G1 X  62.808 Y  49.069
G1 X  61.568 Y  48.838
G1 X  60.770 Y  48.478
G1 X  60.271 Y  48.142
G1 X  59.446 Y  47.619
G1 X  58.021 Y  46.772
G1 X  56.052 Y  45.645
G1 X  53.598 Y  44.283
G1 X  50.712 Y  42.736
G1 X  47.454 Y  41.049
G1 X  43.878 Y  39.268
G1 X  40.043 Y  37.441
G1 X  36.004 Y  35.613
G1 X  31.818 Y  33.831
G1 X  27.541 Y  32.141
G1 X  23.231 Y  30.590
G1 X  18.944 Y  29.225
G1 X  14.737 Y  28.091
G1 X  10.665 Y  27.236
G1 X   6.787 Y  26.705
M5
G1 Z   0.000
G0 Z   0.000 
G40
G0 X  60.018 Y  75.956
G0 Z   0.000 
F200
G1 Z  -0.200
F100
M3
G1 X  56.887 Y  76.272
G1 X  53.972 Y  77.177
G1 X  51.333 Y  78.609
G1 X  49.036 Y  80.505
G1 X  47.139 Y  82.804
G1 X  45.707 Y  85.443
G1 X  44.801 Y  88.357
G1 X  44.487 Y  91.486
G1 X  44.801 Y  94.618
G1 X  45.707 Y  97.533
G1 X  47.139 Y 100.171
G1 X  49.036 Y 102.470
G1 X  51.333 Y 104.366
G1 X  53.972 Y 105.797
G1 X  56.887 Y 106.703
G1 X  60.018 Y 107.017
G1 X  63.147 Y 106.703
G1 X  66.062 Y 105.797
G1 X  68.701 Y 104.366
G1 X  70.999 Y 102.470
G1 X  72.895 Y 100.171
G1 X  74.327 Y  97.533
G1 X  75.233 Y  94.618
G1 X  75.548 Y  91.486
G1 X  75.233 Y  88.357
G1 X  74.327 Y  85.443
G1 X  72.895 Y  82.804
G1 X  70.999 Y  80.505
G1 X  68.701 Y  78.609
G1 X  66.062 Y  77.177
G1 X  63.147 Y  76.272
G1 X  60.018 Y  75.956
M5
G1 Z   0.000
G0 Z   0.000 
G40
G0 X 161.167 Y  36.135
G0 Z   0.000 
F200
G1 Z  -0.200
F100
M3
G1 X 158.093 Y  36.445
G1 X 155.229 Y  37.334
G1 X 152.639 Y  38.741
G1 X 150.381 Y  40.604
G1 X 148.518 Y  42.861
G1 X 147.111 Y  45.452
G1 X 146.222 Y  48.315
G1 X 145.914 Y  51.390
G1 X 146.222 Y  54.466
G1 X 147.111 Y  57.329
G1 X 148.518 Y  59.920
G1 X 150.381 Y  62.177
G1 X 152.639 Y  64.040
G1 X 155.229 Y  65.447
G1 X 158.093 Y  66.336
G1 X 161.167 Y  66.645
G1 X 164.241 Y  66.336
G1 X 167.105 Y  65.447
G1 X 169.696 Y  64.040
G1 X 171.953 Y  62.177
G1 X 173.816 Y  59.920
G1 X 175.223 Y  57.329
G1 X 176.112 Y  54.466
G1 X 176.422 Y  51.390
G1 X 176.112 Y  48.315
G1 X 175.223 Y  45.452
G1 X 173.816 Y  42.861
G1 X 171.953 Y  40.604
G1 X 169.696 Y  38.741
G1 X 167.105 Y  37.334
G1 X 164.241 Y  36.445
G1 X 161.167 Y  36.135
M5
G1 Z   0.000
G0 Z   0.000 
G40
G0 X 160.471 Y   3.998
G0 Z   0.000 
F200
G1 Z  -0.200
F100
M3
G1 X 160.471 Y   6.405
G1 X 158.308 Y   6.737
G1 X 156.293 Y   7.443
G1 X 154.465 Y   8.485
G1 X 152.860 Y   9.825
G1 X 151.517 Y  11.428
G1 X 150.472 Y  13.255
G1 X 149.767 Y  15.269
G1 X 149.437 Y  17.429
G1 X 147.038 Y  17.429
G1 X 147.038 Y  18.824
G1 X 149.437 Y  18.824
G1 X 149.768 Y  20.985
G1 X 150.475 Y  22.998
G1 X 151.518 Y  24.824
G1 X 152.862 Y  26.428
G1 X 154.466 Y  27.769
G1 X 156.294 Y  28.812
G1 X 158.309 Y  29.518
G1 X 160.471 Y  29.848
G1 X 160.471 Y  32.256
G1 X 161.855 Y  32.256
G1 X 161.855 Y  29.848
G1 X 164.018 Y  29.520
G1 X 166.033 Y  28.816
G1 X 167.861 Y  27.774
G1 X 169.466 Y  26.432
G1 X 170.808 Y  24.829
G1 X 171.851 Y  23.001
G1 X 172.557 Y  20.988
G1 X 172.889 Y  18.824
G1 X 175.288 Y  18.824
G1 X 175.288 Y  17.429
G1 X 172.889 Y  17.429
G1 X 172.558 Y  15.266
G1 X 171.853 Y  13.251
G1 X 170.811 Y  11.424
G1 X 169.469 Y   9.820
G1 X 167.863 Y   8.479
G1 X 166.034 Y   7.437
G1 X 164.018 Y   6.734
G1 X 161.855 Y   6.405
G1 X 161.855 Y   3.998
G1 X 160.471 Y   3.998
M5
G1 Z   0.000
G0 Z   0.000 
G40
G0 X  60.848 Y   8.203
G0 Z   0.000 
F200
G1 Z  -0.200
F100
M3
G1 X  58.660 Y   8.299
G1 X  56.581 Y   8.781
G1 X  54.650 Y   9.620
G1 X  52.911 Y  10.782
G1 X  51.404 Y  12.231
G1 X  50.169 Y  13.937
G1 X  49.250 Y  15.864
G1 X  48.689 Y  17.979
G1 X  50.950 Y  18.226
G1 X  50.800 Y  19.611
G1 X  48.537 Y  19.366
G1 X  48.631 Y  21.553
G1 X  49.115 Y  23.631
G1 X  49.953 Y  25.561
G1 X  51.111 Y  27.300
G1 X  52.560 Y  28.809
G1 X  54.264 Y  30.044
G1 X  56.189 Y  30.963
G1 X  58.305 Y  31.525
G1 X  58.544 Y  29.315
G1 X  59.948 Y  29.468
G1 X  59.708 Y  31.677
G1 X  61.892 Y  31.582
G1 X  63.970 Y  31.100
G1 X  65.898 Y  30.260
G1 X  67.637 Y  29.100
G1 X  69.143 Y  27.652
G1 X  70.376 Y  25.948
G1 X  71.296 Y  24.023
G1 X  71.859 Y  21.909
G1 X  69.650 Y  21.668
G1 X  69.802 Y  20.265
G1 X  72.012 Y  20.507
G1 X  71.916 Y  18.321
G1 X  71.430 Y  16.243
G1 X  70.591 Y  14.314
G1 X  69.430 Y  12.575
G1 X  67.980 Y  11.067
G1 X  66.275 Y   9.834
G1 X  64.349 Y   8.916
G1 X  62.235 Y   8.354
G1 X  61.994 Y  10.564
G1 X  60.609 Y  10.412
G1 X  60.848 Y   8.203
M5
G1 Z   0.000
G0 Z   0.000 
G40

G0 Z   0.000 
G0 X  47.311 Y   7.672
G0 Z   0.000 
F200
G1 Z  -0.200
F100
M3
G1 X  42.043 Y   7.899
G1 X  37.265 Y   8.312
G1 X  33.011 Y   8.857
G1 X  29.316 Y   9.474
G1 X  26.216 Y  10.107
G1 X  23.745 Y  10.699
G1 X  21.936 Y  11.191
G1 X  20.826 Y  11.530
G1 X  20.449 Y  11.654
G1 X  19.083 Y  12.375
G1 X  18.106 Y  13.127
G1 X  17.471 Y  13.899
G1 X  17.130 Y  14.673
G1 X   8.661 Y  13.753
G1 X   8.537 Y  14.892
G1 X  17.067 Y  15.820
G1 X  17.260 Y  16.553
G1 X  17.585 Y  17.238
G1 X  17.996 Y  17.858
G1 X  18.442 Y  18.400
G1 X  18.874 Y  18.847
G1 X  19.243 Y  19.186
G1 X  19.501 Y  19.400
G1 X  19.598 Y  19.474
G1 X  19.940 Y  19.678
G1 X  20.952 Y  20.248
G1 X  22.611 Y  21.117
G1 X  24.898 Y  22.225
G1 X  27.789 Y  23.509
G1 X  31.265 Y  24.905
G1 X  35.301 Y  26.351
G1 X  39.879 Y  27.781
G1 X  44.975 Y  29.136
G1 X  50.569 Y  30.348
G1 X  56.637 Y  31.359
G1 X  63.161 Y  32.101
G1 X  70.117 Y  32.514
G1 X  77.483 Y  32.533
G1 X  85.240 Y  32.096
G1 X  93.365 Y  31.140
G1 X  93.155 Y  33.060
G1 X  94.558 Y  33.212
G1 X  94.805 Y  30.941
G1 X  94.718 Y  30.933
G1 X 104.238 Y  29.065
G1 X 114.154 Y  26.374
G1 X 127.523 Y  27.827
G1 X 127.648 Y  26.687
G1 X 114.278 Y  25.233
G1 X 105.154 Y  20.468
G1 X  96.241 Y  16.593
G1 X  96.355 Y  16.605
G1 X  96.601 Y  14.344
G1 X  95.215 Y  14.192
G1 X  95.006 Y  16.113
G1 X  87.275 Y  13.433
G1 X  79.794 Y  11.340
G1 X  72.593 Y   9.776
G1 X  65.712 Y   8.683
G1 X  59.180 Y   8.006
G1 X  53.035 Y   7.688
G1 X  47.311 Y   7.672
M5
G1 Z   0.000
G0 Z   0.000 
G40
G0 X 161.167 Y   1.494
G0 Z   0.000 
F200
G1 Z  -0.200
F100
M3
G1 X 157.815 Y   1.833
G1 X 154.692 Y   2.802
G1 X 151.867 Y   4.335
G1 X 149.404 Y   6.365
G1 X 147.374 Y   8.828
G1 X 145.840 Y  11.653
G1 X 144.872 Y  14.775
G1 X 144.534 Y  18.127
G1 X 144.872 Y  21.479
G1 X 145.840 Y  24.602
G1 X 147.374 Y  27.427
G1 X 149.404 Y  29.890
G1 X 151.867 Y  31.919
G1 X 154.692 Y  33.453
G1 X 157.815 Y  34.422
G1 X 161.167 Y  34.760
G1 X 164.519 Y  34.422
G1 X 167.641 Y  33.453
G1 X 170.468 Y  31.919
G1 X 172.929 Y  29.890
G1 X 174.960 Y  27.427
G1 X 176.494 Y  24.602
G1 X 177.462 Y  21.479
G1 X 177.802 Y  18.127
G1 X 177.462 Y  14.775
G1 X 176.494 Y  11.653
G1 X 174.960 Y   8.828
G1 X 172.929 Y   6.365
G1 X 170.468 Y   4.335
G1 X 167.641 Y   2.802
G1 X 164.519 Y   1.833
G1 X 161.167 Y   1.494
M5
G1 Z   0.000
G0 Z   0.000 
G40
G0 Z   0.000 
G0 X 143.276 Y   0.058
G0 Z   0.000 
F200
G1 Z  -0.200
F100
M3
G1 X 138.924 Y   0.294
G1 X 134.447 Y   0.740
G1 X 129.909 Y   1.362
G1 X 125.375 Y   2.128
G1 X 120.910 Y   3.001
G1 X 116.581 Y   3.951
G1 X 112.449 Y   4.943
G1 X 108.582 Y   5.942
G1 X 105.045 Y   6.916
G1 X 101.902 Y   7.830
G1 X  99.217 Y   8.651
G1 X  97.058 Y   9.346
G1 X  95.489 Y   9.881
G1 X  94.573 Y  10.220
G1 X  94.048 Y  10.434
G1 X  93.261 Y  10.623
G1 X  92.118 Y  10.630
G1 X  90.519 Y  10.302
G1 X  90.219 Y  10.207
G1 X  90.005 Y  10.140
G1 X  78.241 Y   6.714
G1 X  78.026 Y   8.695
G1 X  76.641 Y   8.545
G1 X  76.875 Y   6.379
G1 X  67.911 Y   4.476
G1 X  59.436 Y   3.179
G1 X  59.174 Y   5.591
G1 X  57.789 Y   5.441
G1 X  58.053 Y   3.021
G1 X  48.891 Y   2.274
G1 X  40.478 Y   2.121
G1 X  40.139 Y   5.234
G1 X  38.754 Y   5.084
G1 X  39.074 Y   2.146
G1 X  29.275 Y   2.766
G1 X  20.986 Y   3.923
G1 X  20.504 Y   8.369
G1 X  19.101 Y   8.216
G1 X  19.538 Y   4.200
G1 X  16.191 Y   4.902
G1 X  13.251 Y   5.618
G1 X  10.731 Y   6.317
G1 X   8.642 Y   6.963
G1 X   6.995 Y   7.524
G1 X   5.804 Y   7.966
G1 X   5.081 Y   8.257
G1 X   4.838 Y   8.361
G1 X   2.759 Y   9.474
G1 X   1.328 Y  10.640
G1 X   0.463 Y  11.832
G1 X   0.073 Y  13.024
G1 X   0.037 Y  13.348
G1 X   0.508 Y  15.631
G1 X   1.758 Y  17.540
G1 X   3.050 Y  18.852
G1 X   3.645 Y  19.338
G1 X   3.860 Y  19.494
G1 X   4.503 Y  19.933
G1 X   5.571 Y  20.622
G1 X   7.058 Y  21.525
G1 X   8.959 Y  22.607
G1 X  11.271 Y  23.832
G1 X  13.987 Y  25.164
G1 X  17.106 Y  26.567
G1 X  17.544 Y  22.534
G1 X  18.956 Y  22.688
G1 X  18.471 Y  27.142
G1 X  26.314 Y  30.054
G1 X  35.745 Y  32.763
G1 X  36.064 Y  29.826
G1 X  37.450 Y  29.977
G1 X  37.112 Y  33.089
G1 X  45.360 Y  34.750
G1 X  54.468 Y  35.987
G1 X  54.733 Y  33.558
G1 X  56.118 Y  33.710
G1 X  55.855 Y  36.129
G1 X  64.411 Y  36.685
G1 X  73.575 Y  36.751
G1 X  73.811 Y  34.576
G1 X  75.195 Y  34.728
G1 X  74.979 Y  36.718
G1 X  87.205 Y  35.899
G1 X  87.275 Y  35.898
G1 X  87.321 Y  35.886
G1 X  89.154 Y  35.850
G1 X  90.394 Y  36.091
G1 X  91.188 Y  36.456
G1 X  91.685 Y  36.795
G1 X  92.505 Y  37.324
G1 X  93.924 Y  38.184
G1 X  95.884 Y  39.327
G1 X  98.329 Y  40.706
G1 X 101.202 Y  42.274
G1 X 104.447 Y  43.986
G1 X 108.008 Y  45.794
G1 X 111.829 Y  47.651
G1 X 115.854 Y  49.510
G1 X 120.027 Y  51.323
G1 X 124.291 Y  53.046
G1 X 128.589 Y  54.629
G1 X 132.866 Y  56.028
G1 X 137.065 Y  57.194
G1 X 141.131 Y  58.080
G1 X 145.006 Y  58.640
G1 X 145.357 Y  58.553
G1 X 145.630 Y  58.254
G1 X 145.821 Y  57.802
G1 X 145.925 Y  57.259
G1 X 145.934 Y  56.684
G1 X 145.846 Y  56.140
G1 X 145.656 Y  55.684
G1 X 145.360 Y  55.378
G1 X 141.027 Y  52.747
G1 X 136.839 Y  50.065
G1 X 132.851 Y  47.318
G1 X 129.125 Y  44.480
G1 X 125.718 Y  41.537
G1 X 122.689 Y  38.467
G1 X 120.098 Y  35.250
G1 X 118.001 Y  31.866
G1 X 117.570 Y  31.371
G1 X 117.424 Y  30.974
G1 X 117.573 Y  30.577
G1 X 118.026 Y  30.077
G1 X 123.879 Y  28.397
G1 X 124.318 Y  29.224
G1 X 124.959 Y  29.899
G1 X 125.768 Y  30.380
G1 X 126.715 Y  30.623
G1 X 128.273 Y  30.434
G1 X 129.548 Y  29.609
G1 X 129.713 Y  29.804
G1 X 130.964 Y  30.664
G1 X 132.582 Y  31.414
G1 X 134.403 Y  32.052
G1 X 136.260 Y  32.575
G1 X 137.991 Y  32.986
G1 X 139.431 Y  33.281
G1 X 140.415 Y  33.459
G1 X 140.780 Y  33.518
G1 X 141.298 Y  28.747
G1 X 141.817 Y  23.988
G1 X 141.447 Y  23.968
G1 X 140.447 Y  23.930
G1 X 138.978 Y  23.909
G1 X 137.200 Y  23.938
G1 X 135.272 Y  24.051
G1 X 133.358 Y  24.282
G1 X 131.618 Y  24.667
G1 X 130.211 Y  25.236
G1 X 129.999 Y  25.390
G1 X 128.935 Y  24.309
G1 X 127.459 Y  23.784
G1 X 126.480 Y  23.817
G1 X 125.583 Y  24.109
G1 X 124.809 Y  24.627
G1 X 124.202 Y  25.337
G1 X 118.865 Y  22.450
G1 X 118.522 Y  21.861
G1 X 118.459 Y  21.441
G1 X 118.685 Y  21.088
G1 X 119.216 Y  20.697
G1 X 121.990 Y  17.844
G1 X 125.213 Y  15.260
G1 X 128.830 Y  12.914
G1 X 132.789 Y  10.772
G1 X 137.038 Y   8.804
G1 X 141.523 Y   6.978
G1 X 146.189 Y   5.261
G1 X 150.986 Y   3.621
G1 X 151.342 Y   3.387
G1 X 151.626 Y   2.982
G1 X 151.828 Y   2.467
G1 X 151.941 Y   1.902
G1 X 151.958 Y   1.348
G1 X 151.868 Y   0.865
G1 X 151.665 Y   0.513
G1 X 151.342 Y   0.351
G1 X 147.436 Y   0.066
G1 X 143.276 Y   0.058
M5
G1 Z   0.000
G0 Z   0.000 
G40
G0 X   0.000 Y   0.000
M9 (Coolant off)
M5 (Spindle off)
M2 (Prgram end)



