;Project 02
;Created by Estlcam version 8 build 8.211
;Machining time about ?? 12:02:58 hours

G90
M03 S24000
G00 Z5.0000


;No. 1: Part 6
G00 X87.7981 Y14.2015
G00 Z0.5000
G01 Z-1.0000 F3000 S24000
G02 X77.5175 Y16.4466 I7.1584 J57.4383 F3600
G02 X74.0256 Y17.7973 I9.6105 J30.0349
G02 X71.0504 Y19.5980 I4.9726 J11.5748
G01 X70.6556 Y19.9673
G01 X70.3151 Y20.3695
G01 X70.1582 Y20.6773
G01 X69.9602 Y21.3028
G01 X69.7718 Y22.0763
G01 X69.4424 Y23.6302
G01 X67.9641 Y31.1733
G01 X67.9122 Y31.3134
G01 X67.8554 Y31.3955
G01 X67.6991 Y31.5183
G01 X65.8101 Y32.4680
G01 X63.6140 Y33.6102
G01 X61.4922 Y34.7905
G01 X59.4428 Y36.0091
G02 X51.9966 Y41.2404 I37.5453 J61.3574
G02 X45.8132 Y46.9778 I36.3217 J45.3457
G02 X40.9778 Y53.1276 I34.0356 J31.7372
G02 X38.2705 Y57.9763 I32.0926 J21.0991
G01 X37.5527 Y59.6258
G01 X36.4434 Y62.6206
G01 X35.8481 Y64.1482
G01 X35.4318 Y65.1644
G01 X34.5802 Y67.1630
G01 X35.4734 Y68.0465
G01 X35.8097 Y68.3935
G01 X36.1279 Y68.7511
G03 X37.1864 Y70.2659 I-7.1330 J6.1114
G03 X38.2140 Y73.3140 I-7.8918 J4.3578
G03 X38.2488 Y76.9894 I-13.9664 J1.9702
G03 X37.1460 Y83.8839 I-53.9868 J-5.1002
G03 X36.0665 Y87.5413 I-29.3643 J-6.6785
G03 X34.6818 Y90.5040 I-17.4999 J-6.3746
G03 X32.9632 Y92.8106 I-10.8518 J-6.2918
G03 X31.0046 Y94.5012 I-13.0625 J-13.1531
G01 X30.9978 Y96.1304
G01 X30.9712 Y96.5342
G01 X30.9142 Y96.9193
G03 X30.4322 Y97.9586 I-2.1505 J-0.3658
G03 X28.8980 Y98.8316 I-2.2174 J-2.1123
G03 X26.1715 Y99.2736 I-3.7842 J-14.7120
G01 X25.2396 Y99.3503
G01 X23.0163 Y99.4814
G01 X20.2607 Y99.5977
G01 X16.6175 Y99.7208
G01 X14.7633 Y99.7524
G01 X14.5454 Y99.7143
G01 X14.3774 Y99.6083
G03 X14.2322 Y99.1514 I0.3456 J-0.3613
G03 X14.5698 Y98.6993 I0.7201 J0.1857
G03 X21.6010 Y93.5567 I99.7642 J129.0245
G01 X18.2964 Y87.4277
G01 X17.4171 Y85.8424
G02 X13.3985 Y87.4322 I15.7603 J45.7132
G01 X10.9900 Y88.5216
G01 X9.1308 Y89.4534
G02 X4.5710 Y92.5322 I11.4890 J21.9310
G02 X1.7288 Y95.8728 I8.6522 J10.2409
G02 X0.5612 Y100.2859 I6.9690 J4.2048
G02 X1.1279 Y103.0570 I8.8039 J-0.3569
G02 X2.6783 Y105.9063 I11.9396 J-4.6499
G02 X4.3495 Y107.7018 I8.3127 J-6.0622
G02 X6.6821 Y109.3299 I10.1112 J-12.0013
G02 X10.3020 Y111.0081 I11.9242 J-20.9773
G01 X11.6963 Y111.4916
G01 X12.4270 Y111.7181
G01 X17.9669 Y113.2824
G01 X19.7333 Y113.8240
G01 X21.3958 Y114.3814
G03 X30.5211 Y117.8575 I-109.2699 J300.5645
G03 X30.8176 Y118.1758 I-0.1812 J0.4660
G03 X30.7993 Y120.5950 I-19.0294 J1.0656
G01 X30.7389 Y121.0836
G01 X30.6505 Y121.5411
G01 X30.4050 Y122.3805
G01 X30.3132 Y122.7686
G01 X30.2293 Y123.2149
G01 X30.0863 Y124.2659
G02 X29.8805 Y128.2646 I40.1749 J4.0720
G02 X30.0365 Y132.6284 I50.1187 J0.3928
G01 X30.1724 Y133.9671
G01 X30.4630 Y136.0664
G03 X30.6865 Y136.4532 I-0.3666 J0.4697
G01 X30.7207 Y137.0677
G01 X30.7592 Y138.9672
G03 X30.8396 Y167.9760 I-2885.4153 J22.5062
G01 X30.8149 Y184.6054
G01 X30.7882 Y188.6299
G01 X30.7486 Y191.1804
G01 X30.6933 Y192.5384
G01 X30.6686 Y192.7899
G01 X30.6150 Y193.0268
G01 X30.5195 Y193.1895
G01 X30.4508 Y193.2619
G01 X30.3243 Y193.3415
G01 X30.1623 Y193.3827
G01 X30.0879 Y193.4354
G01 X29.9159 Y193.5978
G01 X29.7248 Y193.8334
G02 X29.2730 Y194.9181 I1.7764 J1.3764
G01 X29.2489 Y195.2603
G01 X29.2868 Y195.7330
G01 X29.4097 Y196.4763
G01 X29.7664 Y198.2505
G01 X29.8639 Y198.8037
G01 X29.9533 Y199.5583
G01 X29.9690 Y200.2540
G01 X29.9045 Y200.9192
G01 X29.7577 Y201.5772
G01 X29.5309 Y202.2546
G01 X29.1948 Y203.0892
G01 X28.9822 Y203.7764
G02 X28.8381 Y205.2937 I4.4660 J1.1895
G02 X29.4129 Y206.6999 I2.1431 J-0.0555
G02 X30.0493 Y207.0641 I1.0200 J-1.0442
G01 X30.8907 Y207.2120
G01 X31.0329 Y207.2577
G01 X31.1897 Y207.3797
G01 X31.2866 Y207.5532
G01 X31.4103 Y208.5872
G01 X32.3434 Y214.6754
G01 X33.7632 Y220.5690
G01 X35.6464 Y226.2540
G01 X37.9668 Y231.7081
G01 X40.6998 Y236.9143
G01 X43.8287 Y241.8656
G01 X47.3272 Y246.5380
G01 X51.1691 Y250.9105
G01 X55.3334 Y254.9675
G01 X59.7954 Y258.6898
G01 X64.5315 Y262.0592
G01 X69.5003 Y265.0466
G01 X74.7363 Y267.6678
G01 X80.1467 Y269.8663
G01 X85.7448 Y271.6417
G01 X91.4994 Y272.9726
G01 X97.3560 Y273.8369
G01 X103.3663 Y274.2274
G01 X109.4422 Y274.1164
G01 X115.5816 Y273.4881
G01 X120.7607 Y272.5553
G01 X125.7988 Y271.2853
G01 X130.6892 Y269.6881
G01 X135.3992 Y267.7847
G01 X139.9443 Y265.5764
G01 X144.2989 Y263.0814
G01 X148.4543 Y260.3108
G01 X152.3993 Y257.2768
G01 X156.1224 Y253.9918
G01 X159.6124 Y250.4680
G01 X162.8579 Y246.7176
G01 X165.8475 Y242.7530
G01 X168.5698 Y238.5863
G01 X171.0136 Y234.2298
G01 X173.1661 Y229.6986
G01 X175.0188 Y224.9993
G01 X176.5597 Y220.1442
G01 X177.7756 Y215.1510
G01 X178.6564 Y210.0261
G01 X179.1907 Y204.7818
G01 X179.3169 Y203.0469
G01 X179.4057 Y202.8692
G01 X179.5566 Y202.7400
G01 X179.6966 Y202.6877
G01 X180.3660 Y202.5467
G01 X180.5545 Y202.4924
G01 X180.8000 Y202.3547
G01 X180.9353 Y202.2359
G02 X181.4465 Y200.8928 I-1.7271 J-1.4262
G02 X181.3239 Y199.4467 I-4.6906 J-0.3305
G01 X181.1354 Y198.8146
G01 X181.0098 Y198.4951
G01 X180.5761 Y197.5612
G01 X180.4292 Y197.1815
G03 X180.2359 Y196.2100 I3.3709 J-1.1759
G01 X180.2316 Y195.7842
G01 X180.2940 Y195.0619
G01 X180.3765 Y194.4938
G01 X180.6160 Y193.1089
G01 X180.7308 Y192.1238
G02 X180.6911 Y190.4185 I-7.8173 J-0.6713
G02 X180.3189 Y189.1037 I-4.5193 J0.5695
G02 X179.4694 Y187.9294 I-4.1494 J2.1073
G01 X179.4044 Y187.7948
G01 X179.3821 Y187.6471
G01 X179.3962 Y148.0253
G01 X179.4361 Y138.0558
G01 X179.4903 Y133.5008
G01 X179.5176 Y132.6574
G01 X179.5409 Y132.3924
G01 X179.5994 Y132.2163
G01 X179.7293 Y132.0488
G01 X179.8771 Y130.7874
G01 X180.1146 Y129.1687
G01 X180.3646 Y127.7182
G01 X180.5541 Y126.8327
G01 X180.6064 Y126.4568
G01 X180.6729 Y125.5216
G01 X180.6891 Y124.4011
G02 X180.3226 Y119.3930 I-39.9926 J0.4089
G01 X180.1468 Y118.3294
G01 X179.9505 Y117.4760
G01 X179.8478 Y117.1497
G01 X179.5313 Y116.4077
G01 X179.4303 Y116.0653
G01 X179.4032 Y115.8324
G01 X179.4278 Y115.5854
G03 X180.1558 Y114.8742 I0.9865 J0.2816
G01 X186.5699 Y112.4602
G01 X188.1168 Y111.8988
G01 X189.4822 Y111.4277
G01 X190.7579 Y111.0171
G01 X192.0349 Y110.6373
G01 X195.3975 Y109.7273
G01 X196.3360 Y109.4577
G01 X198.0814 Y108.9012
G01 X198.8904 Y108.6132
G02 X202.9197 Y106.7184 I-7.3494 J-20.8592
G02 X207.2640 Y102.2958 I-5.8118 J-10.0541
G02 X208.3172 Y99.7125 I-8.9094 J-5.1386
G02 X208.5542 Y97.2143 I-7.8378 J-2.0039
G02 X207.2098 Y93.2089 I-8.6218 J0.6656
G02 X203.6614 Y89.4194 I-12.7301 J8.3640
G02 X199.7775 Y86.9440 I-15.6721 J20.3047
G01 X197.7958 Y85.9916
G01 X195.4355 Y84.9296
G01 X193.2358 Y83.9947
G01 X192.3663 Y83.6490
G01 X191.7965 Y83.4429
G01 X191.7800 Y83.4438
G01 X191.4929 Y83.9359
G01 X190.5118 Y85.6992
G01 X187.5712 Y91.1950
G01 X193.0358 Y95.1798
G01 X194.1976 Y96.0432
G01 X194.7542 Y96.4862
G03 X194.8073 Y97.2464 I-0.2972 J0.4027
G01 X194.6405 Y97.3545
G01 X194.4449 Y97.3890
G01 X190.6562 Y97.2934
G03 X184.0895 Y96.9701 I3.4595 J-137.1218
G03 X180.6784 Y96.6006 I1.3099 J-28.0216
G03 X179.7021 Y96.0931 I0.1507 J-1.4826
G03 X179.3196 Y95.1248 I1.5915 J-1.1884
G01 X179.2726 Y94.7690
G01 X179.2419 Y94.3640
G01 X179.2138 Y93.1408
G01 X179.1787 Y92.8835
G03 X176.3658 Y90.7018 I4.9445 J-9.2797
G03 X174.1745 Y87.4991 I10.8891 J-9.8013
G03 X172.7988 Y84.1668 I20.6232 J-10.4637
G03 X171.7349 Y80.1306 I34.9078 J-11.3596
G03 X170.8926 Y74.4225 I45.8882 J-9.6877
G03 X171.0483 Y70.4384 I14.2401 J-1.4385
G03 X172.2942 Y67.3612 I8.1989 J1.5288
G03 X173.3500 Y66.0299 I8.7399 J5.8468
G01 X174.5206 Y64.8462
G01 X173.7638 Y63.2168
G01 X172.7938 Y61.2023
G02 X160.6317 Y43.6381 I-64.7903 J31.8704
G02 X152.9918 Y36.7373 I-47.0684 J44.4299
G01 X151.3494 Y35.5190
G01 X149.6703 Y34.3562
G01 X147.9552 Y33.2498
G01 X146.2011 Y32.1982
G01 X144.6639 Y31.3101
G01 X144.5779 Y31.2523
G01 X144.5077 Y31.1812
G01 X144.4323 Y31.0523
G01 X144.4047 Y30.9563
G01 X142.2795 Y19.2372
G01 X141.9124 Y18.9424
G01 X141.0490 Y18.3374
G02 X137.7326 Y16.7760 I-9.0825 J14.9882
G02 X132.0422 Y15.3749 I-10.4770 J30.2943
G02 X118.7348 Y15.1761 I-7.3745 J48.1503
G02 X111.2179 Y16.8708 I4.5365 J37.6400
G01 X111.3490 Y18.1259
G01 X111.5474 Y20.7872
G01 X111.6433 Y21.6263
G03 X111.2749 Y22.2103 I-0.6458 J0.0008
G01 X111.1378 Y22.2637
G01 X110.8581 Y22.3239
G01 X110.5073 Y22.3620
G01 X109.7432 Y22.4046
G01 X105.3337 Y22.5195
G01 X103.5379 Y22.5424
G01 X102.7115 Y22.5326
G03 X102.1731 Y22.0240 I-0.0111 J-0.5276
G01 X102.2059 Y20.9114
G01 X102.3144 Y19.0531
G01 X102.4495 Y17.1719
G01 X102.5467 Y16.1842
G01 X102.5379 Y16.1469
G01 X102.5481 Y16.1745
G02 X102.1227 Y15.8302 I-0.8399 J0.6028
G02 X99.3974 Y14.8238 I-6.3804 J13.0843
G02 X96.7463 Y14.3680 I-5.1449 J21.9858
G02 X91.9931 Y14.0448 I-5.8290 J50.6173
G01 X90.6521 Y14.0360
G01 X89.4019 Y14.0691
G01 X88.2896 Y14.1460
G01 X87.7981 Y14.2015
G01 Z-1.5000 F3000
G02 X77.5175 Y16.4466 I7.1584 J57.4383 F3600
G02 X74.0256 Y17.7973 I9.6105 J30.0349
G02 X71.0504 Y19.5980 I4.9726 J11.5748
G01 X70.6556 Y19.9673
G01 X70.3151 Y20.3695
G01 X70.1582 Y20.6773
G01 X69.9602 Y21.3028
G01 X69.7718 Y22.0763
G01 X69.4424 Y23.6302
G01 X67.9641 Y31.1733
G01 X67.9122 Y31.3134
G01 X67.8554 Y31.3955
G01 X67.6991 Y31.5183
G01 X65.8101 Y32.4680
G01 X63.6140 Y33.6102
G01 X61.4922 Y34.7905
G01 X59.4428 Y36.0091
G02 X51.9966 Y41.2404 I37.5453 J61.3574
G02 X45.8132 Y46.9778 I36.3217 J45.3457
G02 X40.9778 Y53.1276 I34.0356 J31.7372
G02 X38.2705 Y57.9763 I32.0926 J21.0991
G01 X37.5527 Y59.6258
G01 X36.4434 Y62.6206
G01 X35.8481 Y64.1482
G01 X35.4318 Y65.1644
G01 X34.5802 Y67.1630
G01 X35.4734 Y68.0465
G01 X35.8097 Y68.3935
G01 X36.1279 Y68.7511
G03 X37.1864 Y70.2659 I-7.1330 J6.1114
G03 X38.2140 Y73.3140 I-7.8918 J4.3578
G03 X38.2488 Y76.9894 I-13.9664 J1.9702
G03 X37.1460 Y83.8839 I-53.9868 J-5.1002
G03 X36.0665 Y87.5413 I-29.3643 J-6.6785
G03 X34.6818 Y90.5040 I-17.4999 J-6.3746
G03 X32.9632 Y92.8106 I-10.8518 J-6.2918
G03 X31.0046 Y94.5012 I-13.0625 J-13.1531
G01 X30.9978 Y96.1304
G01 X30.9712 Y96.5342
G01 X30.9142 Y96.9193
G03 X30.4322 Y97.9586 I-2.1505 J-0.3658
G03 X28.8980 Y98.8316 I-2.2174 J-2.1123
G03 X26.1715 Y99.2736 I-3.7842 J-14.7120
G01 X25.2396 Y99.3503
G01 X23.0163 Y99.4814
G01 X20.2607 Y99.5977
G01 X16.6175 Y99.7208
G01 X14.7633 Y99.7524
G01 X14.5454 Y99.7143
G01 X14.3774 Y99.6083
G03 X14.2322 Y99.1514 I0.3456 J-0.3613
G03 X14.5698 Y98.6993 I0.7201 J0.1857
G03 X21.6010 Y93.5567 I99.7642 J129.0245
G01 X18.2964 Y87.4277
G01 X17.4171 Y85.8424
G02 X13.3985 Y87.4322 I15.7603 J45.7132
G01 X10.9900 Y88.5216
G01 X9.1308 Y89.4534
G02 X4.5710 Y92.5322 I11.4890 J21.9310
G02 X1.7288 Y95.8728 I8.6522 J10.2409
G02 X0.5612 Y100.2859 I6.9690 J4.2048
G02 X1.1279 Y103.0570 I8.8039 J-0.3569
G02 X2.6783 Y105.9063 I11.9396 J-4.6499
G02 X4.3495 Y107.7018 I8.3127 J-6.0622
G02 X6.6821 Y109.3299 I10.1112 J-12.0013
G02 X10.3020 Y111.0081 I11.9242 J-20.9773
G01 X11.6963 Y111.4916
G01 X12.4270 Y111.7181
G01 X17.9669 Y113.2824
G01 X19.7333 Y113.8240
G01 X21.3958 Y114.3814
G03 X30.5211 Y117.8575 I-109.2699 J300.5645
G03 X30.8176 Y118.1758 I-0.1812 J0.4660
G03 X30.7993 Y120.5950 I-19.0294 J1.0656
G01 X30.7389 Y121.0836
G01 X30.6505 Y121.5411
G01 X30.4050 Y122.3805
G01 X30.3132 Y122.7686
G01 X30.2293 Y123.2149
G01 X30.0863 Y124.2659
G02 X29.8805 Y128.2646 I40.1749 J4.0720
G02 X30.0365 Y132.6284 I50.1187 J0.3928
G01 X30.1724 Y133.9671
G01 X30.4630 Y136.0664
G03 X30.6865 Y136.4532 I-0.3666 J0.4697
G01 X30.7207 Y137.0677
G01 X30.7592 Y138.9672
G03 X30.8396 Y167.9760 I-2885.4153 J22.5062
G01 X30.8149 Y184.6054
G01 X30.7882 Y188.6299
G01 X30.7486 Y191.1804
G01 X30.6933 Y192.5384
G01 X30.6686 Y192.7899
G01 X30.6150 Y193.0268
G01 X30.5195 Y193.1895
G01 X30.4508 Y193.2619
G01 X30.3243 Y193.3415
G01 X30.1623 Y193.3827
G01 X30.0879 Y193.4354
G01 X29.9159 Y193.5978
G01 X29.7248 Y193.8334
G02 X29.2730 Y194.9181 I1.7764 J1.3764
G01 X29.2489 Y195.2603
G01 X29.2868 Y195.7330
G01 X29.4097 Y196.4763
G01 X29.7664 Y198.2505
G01 X29.8639 Y198.8037
G01 X29.9533 Y199.5583
G01 X29.9690 Y200.2540
G01 X29.9045 Y200.9192
G01 X29.7577 Y201.5772
G01 X29.5309 Y202.2546
G01 X29.1948 Y203.0892
G01 X28.9822 Y203.7764
G02 X28.8381 Y205.2937 I4.4660 J1.1895
G02 X29.4129 Y206.6999 I2.1431 J-0.0555
G02 X30.0493 Y207.0641 I1.0200 J-1.0442
G01 X30.8907 Y207.2120
G01 X31.0329 Y207.2577
G01 X31.1897 Y207.3797
G01 X31.2866 Y207.5532
G01 X31.4103 Y208.5872
G01 X32.3434 Y214.6754
G01 X33.7632 Y220.5690
G01 X35.6464 Y226.2540
G01 X37.9668 Y231.7081
G01 X40.6998 Y236.9143
G01 X43.8287 Y241.8656
G01 X47.3272 Y246.5380
G01 X51.1691 Y250.9105
G01 X55.3334 Y254.9675
G01 X59.7954 Y258.6898
G01 X64.5315 Y262.0592
G01 X69.5003 Y265.0466
G01 X74.7363 Y267.6678
G01 X80.1467 Y269.8663
G01 X85.7448 Y271.6417
G01 X91.4994 Y272.9726
G01 X97.3560 Y273.8369
G01 X103.3663 Y274.2274
G01 X109.4422 Y274.1164
G01 X115.5816 Y273.4881
G01 X120.7607 Y272.5553
G01 X125.7988 Y271.2853
G01 X130.6892 Y269.6881
G01 X135.3992 Y267.7847
G01 X139.9443 Y265.5764
G01 X144.2989 Y263.0814
G01 X148.4543 Y260.3108
G01 X152.3993 Y257.2768
G01 X156.1224 Y253.9918
G01 X159.6124 Y250.4680
G01 X162.8579 Y246.7176
G01 X165.8475 Y242.7530
G01 X168.5698 Y238.5863
G01 X171.0136 Y234.2298
G01 X173.1661 Y229.6986
G01 X175.0188 Y224.9993
G01 X176.5597 Y220.1442
G01 X177.7756 Y215.1510
G01 X178.6564 Y210.0261
G01 X179.1907 Y204.7818
G01 X179.3169 Y203.0469
G01 X179.4057 Y202.8692
G01 X179.5566 Y202.7400
G01 X179.6966 Y202.6877
G01 X180.3660 Y202.5467
G01 X180.5545 Y202.4924
G01 X180.8000 Y202.3547
G01 X180.9353 Y202.2359
G02 X181.4465 Y200.8928 I-1.7271 J-1.4262
G02 X181.3239 Y199.4467 I-4.6906 J-0.3305
G01 X181.1354 Y198.8146
G01 X181.0098 Y198.4951
G01 X180.5761 Y197.5612
G01 X180.4292 Y197.1815
G03 X180.2359 Y196.2100 I3.3709 J-1.1759
G01 X180.2316 Y195.7842
G01 X180.2940 Y195.0619
G01 X180.3765 Y194.4938
G01 X180.6160 Y193.1089
G01 X180.7308 Y192.1238
G02 X180.6911 Y190.4185 I-7.8173 J-0.6713
G02 X180.3189 Y189.1037 I-4.5193 J0.5695
G02 X179.4694 Y187.9294 I-4.1494 J2.1073
G01 X179.4044 Y187.7948
G01 X179.3821 Y187.6471
G01 X179.3962 Y148.0253
G01 X179.4361 Y138.0558
G01 X179.4903 Y133.5008
G01 X179.5176 Y132.6574
G01 X179.5409 Y132.3924
G01 X179.5994 Y132.2163
G01 X179.7293 Y132.0488
G01 X179.8771 Y130.7874
G01 X180.1146 Y129.1687
G01 X180.3646 Y127.7182
G01 X180.5541 Y126.8327
G01 X180.6064 Y126.4568
G01 X180.6729 Y125.5216
G01 X180.6891 Y124.4011
G02 X180.3226 Y119.3930 I-39.9926 J0.4089
G01 X180.1468 Y118.3294
G01 X179.9505 Y117.4760
G01 X179.8478 Y117.1497
G01 X179.5313 Y116.4077
G01 X179.4303 Y116.0653
G01 X179.4032 Y115.8324
G01 X179.4278 Y115.5854
G03 X180.1558 Y114.8742 I0.9865 J0.2816
G01 X186.5699 Y112.4602
G01 X188.1168 Y111.8988
G01 X189.4822 Y111.4277
G01 X190.7579 Y111.0171
G01 X192.0349 Y110.6373
G01 X195.3975 Y109.7273
G01 X196.3360 Y109.4577
G01 X198.0814 Y108.9012
G01 X198.8904 Y108.6132
G02 X202.9197 Y106.7184 I-7.3494 J-20.8592
G02 X207.2640 Y102.2958 I-5.8118 J-10.0541
G02 X208.3172 Y99.7125 I-8.9094 J-5.1386
G02 X208.5542 Y97.2143 I-7.8378 J-2.0039
G02 X207.2098 Y93.2089 I-8.6218 J0.6656
G02 X203.6614 Y89.4194 I-12.7301 J8.3640
G02 X199.7775 Y86.9440 I-15.6721 J20.3047
G01 X197.7958 Y85.9916
G01 X195.4355 Y84.9296
G01 X193.2358 Y83.9947
G01 X192.3663 Y83.6490
G01 X191.7965 Y83.4429
G01 X191.7800 Y83.4438
G01 X191.4929 Y83.9359
G01 X190.5118 Y85.6992
G01 X187.5712 Y91.1950
G01 X193.0358 Y95.1798
G01 X194.1976 Y96.0432
G01 X194.7542 Y96.4862
G03 X194.8073 Y97.2464 I-0.2972 J0.4027
G01 X194.6405 Y97.3545
G01 X194.4449 Y97.3890
G01 X190.6562 Y97.2934
G03 X184.0895 Y96.9701 I3.4595 J-137.1218
G03 X180.6784 Y96.6006 I1.3099 J-28.0216
G03 X179.7021 Y96.0931 I0.1507 J-1.4826
G03 X179.3196 Y95.1248 I1.5915 J-1.1884
G01 X179.2726 Y94.7690
G01 X179.2419 Y94.3640
G01 X179.2138 Y93.1408
G01 X179.1787 Y92.8835
G03 X176.3658 Y90.7018 I4.9445 J-9.2797
G03 X174.1745 Y87.4991 I10.8891 J-9.8013
G03 X172.7988 Y84.1668 I20.6232 J-10.4637
G03 X171.7349 Y80.1306 I34.9078 J-11.3596
G03 X170.8926 Y74.4225 I45.8882 J-9.6877
G03 X171.0483 Y70.4384 I14.2401 J-1.4385
G03 X172.2942 Y67.3612 I8.1989 J1.5288
G03 X173.3500 Y66.0299 I8.7399 J5.8468
G01 X174.5206 Y64.8462
G01 X173.7638 Y63.2168
G01 X172.7938 Y61.2023
G02 X160.6317 Y43.6381 I-64.7903 J31.8704
G02 X152.9918 Y36.7373 I-47.0684 J44.4299
G01 X151.3494 Y35.5190
G01 X149.6703 Y34.3562
G01 X147.9552 Y33.2498
G01 X146.2011 Y32.1982
G01 X144.6639 Y31.3101
G01 X144.5779 Y31.2523
G01 X144.5077 Y31.1812
G01 X144.4323 Y31.0523
G01 X144.4047 Y30.9563
G01 X142.2795 Y19.2372
G01 X141.9124 Y18.9424
G01 X141.0490 Y18.3374
G02 X137.7326 Y16.7760 I-9.0825 J14.9882
G02 X132.0422 Y15.3749 I-10.4770 J30.2943
G02 X118.7348 Y15.1761 I-7.3745 J48.1503
G02 X111.2179 Y16.8708 I4.5365 J37.6400
G01 X111.3490 Y18.1259
G01 X111.5474 Y20.7872
G01 X111.6433 Y21.6263
G03 X111.2749 Y22.2103 I-0.6458 J0.0008
G01 X111.1378 Y22.2637
G01 X110.8581 Y22.3239
G01 X110.5073 Y22.3620
G01 X109.7432 Y22.4046
G01 X105.3337 Y22.5195
G01 X103.5379 Y22.5424
G01 X102.7115 Y22.5326
G03 X102.1731 Y22.0240 I-0.0111 J-0.5276
G01 X102.2059 Y20.9114
G01 X102.3144 Y19.0531
G01 X102.4495 Y17.1719
G01 X102.5467 Y16.1842
G01 X102.5379 Y16.1469
G01 X102.5481 Y16.1745
G02 X102.1227 Y15.8302 I-0.8399 J0.6028
G02 X99.3974 Y14.8238 I-6.3804 J13.0843
G02 X96.7463 Y14.3680 I-5.1449 J21.9858
G02 X91.9931 Y14.0448 I-5.8290 J50.6173
G01 X90.6521 Y14.0360
G01 X89.4019 Y14.0691
G01 X88.2896 Y14.1460
G01 X87.7981 Y14.2015
G00 Z5.0000


;No. 2: Part 10
G00 X83.3815 Y84.1916 Z5.0000
G00 Z0.5000
G01 Z-1.0000 F3000
G01 X83.4030 Y84.8226 F3600
G03 X106.3984 Y82.7929 I21.8769 J116.5810
G03 X125.1192 Y84.8156 I-1.0459 J97.3277
G02 X124.7838 Y71.6546 I-103.6021 J-3.9443
G02 X123.0121 Y61.3378 I-61.8323 J5.3079
G02 X114.4793 Y55.0154 I-25.5446 J25.5562
G02 X104.3030 Y51.1511 I-20.8237 J39.5062
G01 X101.3941 Y52.4563
G01 X99.4084 Y53.3976
G01 X98.4349 Y53.8773
G02 X93.7945 Y56.3820 I34.1217 J68.7680
G02 X86.7446 Y61.3840 I22.0885 J38.6004
G02 X84.0035 Y72.1054 I45.8608 J17.4365
G02 X83.3815 Y84.1916 I74.3425 J9.8851
G01 Z-1.5000 F3000
G01 X83.4030 Y84.8226 F3600
G03 X106.3984 Y82.7929 I21.8769 J116.5810
G03 X125.1192 Y84.8156 I-1.0459 J97.3277
G02 X124.7838 Y71.6546 I-103.6021 J-3.9443
G02 X123.0121 Y61.3378 I-61.8323 J5.3079
G02 X114.4793 Y55.0154 I-25.5446 J25.5562
G02 X104.3030 Y51.1511 I-20.8237 J39.5062
G01 X101.3941 Y52.4563
G01 X99.4084 Y53.3976
G01 X98.4349 Y53.8773
G02 X93.7945 Y56.3820 I34.1217 J68.7680
G02 X86.7446 Y61.3840 I22.0885 J38.6004
G02 X84.0035 Y72.1054 I45.8608 J17.4365
G02 X83.3815 Y84.1916 I74.3425 J9.8851
G00 Z5.0000


;No. 3: Part 15
G00 X64.7521 Y89.6657 Z5.0000
G00 Z0.5000
G01 Z-1.0000 F3000
G02 X59.2662 Y95.1517 I0.0000 J5.4860 F3600
G02 X64.7521 Y100.6377 I5.4860 J0.0000
G02 X70.2381 Y95.1517 I0.0000 J-5.4860
G02 X64.7521 Y89.6657 I-5.4860 J0.0000
G01 Z-1.5000 F3000
G02 X59.2662 Y95.1517 I0.0000 J5.4860 F3600
G02 X64.7521 Y100.6377 I5.4860 J0.0000
G02 X70.2381 Y95.1517 I0.0000 J-5.4860
G02 X64.7521 Y89.6657 I-5.4860 J0.0000
G00 Z5.0000


;No. 4: Part 8
G00 X129.1740 Y131.9604 Z5.0000
G00 Z0.5000
G01 Z-1.0000 F3000
G02 X137.2352 Y130.1650 I-7.5967 J-53.1003 F3600
G02 X133.8845 Y124.8189 I-34.6913 J18.0202
G02 X129.4570 Y119.9780 I-26.1111 J19.4361
G02 X125.6493 Y117.3724 I-11.7142 J13.0332
G02 X120.5254 Y115.2616 I-15.8990 J31.3201
G02 X113.8589 Y113.5657 I-16.5500 J51.1054
G02 X107.8634 Y112.8258 I-7.8810 J39.1997
G02 X104.7495 Y112.9734 I-0.3802 J24.9028
G02 X100.1792 Y113.7654 I4.2852 J38.3104
G02 X91.1650 Y116.8183 I11.0396 J47.4303
G02 X85.2305 Y120.4146 I10.8165 J24.5439
G02 X79.8668 Y125.9397 I19.8704 J24.6559
G01 X81.7087 Y127.0338
G01 X83.2351 Y127.8745
G01 X84.7949 Y128.6575
G01 X85.8237 Y129.1211
G01 X86.3278 Y129.3295
G02 X90.6241 Y130.3260 I5.0440 J-11.9868
G02 X99.2845 Y130.4045 I4.7572 J-47.0434
G02 X103.8979 Y129.8182 I-4.1711 J-51.2677
G01 X104.8526 Y129.6430
G01 X106.4826 Y129.2976
G01 X107.7014 Y128.9962
G01 X108.7523 Y128.6959
G01 X108.9011 Y128.6821
G01 X109.0474 Y128.7129
G01 X110.5515 Y129.2324
G01 X111.8980 Y129.6530
G01 X113.5929 Y130.1356
G01 X114.5547 Y130.3877
G02 X120.2464 Y131.5578 I15.1449 J-59.2416
G02 X125.4661 Y132.0884 I7.4327 J-47.1837
G02 X129.1740 Y131.9604 I1.1905 J-19.2942
G01 Z-1.5000 F3000
G02 X137.2352 Y130.1650 I-7.5967 J-53.1003 F3600
G02 X133.8845 Y124.8189 I-34.6913 J18.0202
G02 X129.4570 Y119.9780 I-26.1111 J19.4361
G02 X125.6493 Y117.3724 I-11.7142 J13.0332
G02 X120.5254 Y115.2616 I-15.8990 J31.3201
G02 X113.8589 Y113.5657 I-16.5500 J51.1054
G02 X107.8634 Y112.8258 I-7.8810 J39.1997
G02 X104.7495 Y112.9734 I-0.3802 J24.9028
G02 X100.1792 Y113.7654 I4.2852 J38.3104
G02 X91.1650 Y116.8183 I11.0396 J47.4303
G02 X85.2305 Y120.4146 I10.8165 J24.5439
G02 X79.8668 Y125.9397 I19.8704 J24.6559
G01 X81.7087 Y127.0338
G01 X83.2351 Y127.8745
G01 X84.7949 Y128.6575
G01 X85.8237 Y129.1211
G01 X86.3278 Y129.3295
G02 X90.6241 Y130.3260 I5.0440 J-11.9868
G02 X99.2845 Y130.4045 I4.7572 J-47.0434
G02 X103.8979 Y129.8182 I-4.1711 J-51.2677
G01 X104.8526 Y129.6430
G01 X106.4826 Y129.2976
G01 X107.7014 Y128.9962
G01 X108.7523 Y128.6959
G01 X108.9011 Y128.6821
G01 X109.0474 Y128.7129
G01 X110.5515 Y129.2324
G01 X111.8980 Y129.6530
G01 X113.5929 Y130.1356
G01 X114.5547 Y130.3877
G02 X120.2464 Y131.5578 I15.1449 J-59.2416
G02 X125.4661 Y132.0884 I7.4327 J-47.1837
G02 X129.1740 Y131.9604 I1.1905 J-19.2942
G00 Z5.0000


;No. 5: Part 16
G00 X144.2128 Y89.6660 Z5.0000
G00 Z0.5000
G01 Z-1.0000 F3000
G02 X138.7278 Y95.1510 I0.0000 J5.4850 F3600
G02 X144.2128 Y100.6359 I5.4850 J0.0000
G02 X149.6978 Y95.1510 I0.0000 J-5.4850
G02 X144.2128 Y89.6660 I-5.4850 J0.0000
G01 Z-1.5000 F3000
G02 X138.7278 Y95.1510 I0.0000 J5.4850 F3600
G02 X144.2128 Y100.6359 I5.4850 J0.0000
G02 X149.6978 Y95.1510 I0.0000 J-5.4850
G02 X144.2128 Y89.6660 I-5.4850 J0.0000
G00 Z5.0000


;No. 6: Part 11
G00 X107.3779 Y199.0665 Z5.0000
G00 Z0.5000
G01 Z-1.0000 F3000
G02 X102.2055 Y204.2389 I0.0000 J5.1724 F3600
G02 X107.3779 Y209.4112 I5.1724 J0.0000
G02 X112.5502 Y204.2389 I0.0000 J-5.1724
G02 X107.3779 Y199.0665 I-5.1724 J0.0000
G01 Z-1.5000 F3000
G02 X102.2055 Y204.2389 I0.0000 J5.1724 F3600
G02 X107.3779 Y209.4112 I5.1724 J0.0000
G02 X112.5502 Y204.2389 I0.0000 J-5.1724
G02 X107.3779 Y199.0665 I-5.1724 J0.0000
G00 Z5.0000


;No. 7: Part 5
G00 X106.1842 Y199.1894 Z5.0000
G00 Z0.5000
G01 Z-1.0000 F3000
G02 X103.0000 Y201.6121 I1.3573 J5.0878 F3600
G02 X102.3602 Y204.9792 I4.6377 J2.6256
G02 X103.8960 Y208.0234 I4.9999 J-0.6129
G02 X107.4135 Y209.3041 I3.3610 J-3.7602
G02 X111.2031 Y207.6494 I0.1009 J-4.9358
G02 X112.4630 Y203.4087 I-4.0254 J-3.5035
G02 X110.3095 Y200.0064 I-4.8418 J0.6819
G02 X106.1842 Y199.1894 I-3.0129 J4.3896
G01 Z-1.5000 F3000
G02 X103.0000 Y201.6121 I1.3573 J5.0878 F3600
G02 X102.3602 Y204.9792 I4.6377 J2.6256
G02 X103.8960 Y208.0234 I4.9999 J-0.6129
G02 X107.4135 Y209.3041 I3.3610 J-3.7602
G02 X111.2031 Y207.6494 I0.1009 J-4.9358
G02 X112.4630 Y203.4087 I-4.0254 J-3.5035
G02 X110.3095 Y200.0064 I-4.8418 J0.6819
G02 X106.1842 Y199.1894 I-3.0129 J4.3896
G00 Z5.0000


;No. 8: Part 12
G00 X105.7272 Y232.0438 Z5.0000
G00 Z0.5000
G01 Z-1.0000 F3000
G02 X130.9052 Y222.0171 I1.6165 J-32.5664 F3600
G02 X137.6993 Y211.3977 I-23.4242 J-22.4694
G02 X139.9323 Y198.4524 I-30.6457 J-11.9516
G02 X106.2872 Y166.8780 I-32.6231 J1.0496
G02 X83.7597 Y176.9510 I1.0559 J32.5884
G02 X76.9726 Y187.5803 I23.4649 J22.4646
G02 X74.7402 Y200.5270 I30.7130 J11.9616
G02 X105.7272 Y232.0438 I32.5720 J-1.0330
G01 Z-1.5000 F3000
G02 X130.9052 Y222.0171 I1.6165 J-32.5664 F3600
G02 X137.6993 Y211.3977 I-23.4242 J-22.4694
G02 X139.9323 Y198.4524 I-30.6457 J-11.9516
G02 X106.2872 Y166.8780 I-32.6231 J1.0496
G02 X83.7597 Y176.9510 I1.0559 J32.5884
G02 X76.9726 Y187.5803 I23.4649 J22.4646
G02 X74.7402 Y200.5270 I30.7130 J11.9616
G02 X105.7272 Y232.0438 I32.5720 J-1.0330
G00 Z5.0000


;No. 9: Engraving 2
G00 X156.0403 Y209.7370 Z5.0000
G00 Z0.5000
G01 Z-1.0000 F3000
G01 X154.9547 Y186.9457 F3600
G00 Z5.0000
G00 X156.0403 Y209.7370
G00 Z-0.5000
G01 Z-1.5000 F3000
G01 X154.9547 Y186.9457 F3600
G00 Z5.0000


;No. 10: Engraving 1
G00 X58.1710 Y189.1521 Z5.0000
G00 Z0.5000
G01 Z-1.0000 F3000
G01 X58.7617 Y212.3234 F3600
G00 Z5.0000
G00 X58.1710 Y189.1521
G00 Z-0.5000
G01 Z-1.5000 F3000
G01 X58.7617 Y212.3234 F3600
G00 Z5.0000


;No. 11: Part 14
G00 X101.4224 Y244.2446 Z5.0000
G00 Z0.5000
G01 Z-1.0000 F3000
G03 X64.4223 Y213.5713 I5.8613 J-44.7228 F3600
G01 X58.6963 Y212.8191
G01 X58.5527 Y212.7776
G03 X58.2665 Y212.3930 I0.2089 J-0.4542
G01 X58.2349 Y211.0213
G01 X40.7244 Y209.2004
G01 X29.8525 Y208.0965
G03 X29.0952 Y207.8173 I0.1779 J-1.6490
G03 X28.2334 Y206.7775 I1.5458 J-2.1582
G03 X27.7020 Y204.9236 I4.8934 J-2.4060
G03 X27.8894 Y203.5949 I3.5394 J-0.1784
G01 X28.0664 Y203.1074
G01 X28.6667 Y201.7482
G01 X28.8304 Y201.3222
G01 X28.9501 Y200.9098
G01 X29.0135 Y200.5138
G01 X29.0232 Y200.1673
G01 X28.9994 Y199.7908
G01 X28.9466 Y199.3839
G01 X28.7762 Y198.5027
G01 X28.4570 Y197.0853
G01 X28.2830 Y196.1222
G03 X28.2334 Y194.7055 I5.5339 J-0.9029
G03 X29.3806 Y192.7059 I2.5630 J0.1416
G01 X29.8557 Y192.4504
G01 X30.4056 Y192.2606
G03 X33.5193 Y191.7584 I4.8748 J20.3198
G03 X37.5813 Y191.5463 I5.1394 J59.4314
G03 X43.8629 Y191.5908 I2.2320 J128.3011
G03 X57.7519 Y192.3870 I-9.0722 J279.8006
G01 X57.6724 Y189.1146
G03 X57.8904 Y188.7382 I0.4986 J0.0374
G01 X57.9782 Y188.6907
G01 X58.1232 Y188.6544
G01 X63.6188 Y188.2893
G01 X64.4485 Y185.3926
G01 X65.6069 Y182.2547
G01 X66.9815 Y179.2398
G01 X68.5616 Y176.3561
G03 X79.1777 Y164.1915 I38.8841 J23.2196
G03 X93.3575 Y156.5274 I28.2480 J35.3135
G01 X96.5058 Y155.6240
G01 X99.7336 Y154.9495
G01 X103.0305 Y154.5120
G01 X106.3857 Y154.3196
G01 X109.7886 Y154.3805
G01 X113.2265 Y154.7025
G03 X121.1508 Y156.4762 I-5.9058 J44.9743
G03 X132.8669 Y162.2223 I-13.6830 J42.7164
G03 X150.5321 Y186.3207 I-25.6431 J37.3214
G01 X154.9680 Y186.4459
G01 X155.0670 Y186.4585
G01 X155.2060 Y186.5135
G03 X155.4495 Y186.8739 I-0.2513 J0.4322
G01 X155.5547 Y189.0598
G03 X175.5224 Y187.4256 I90.7800 J986.4100
G01 X177.7228 Y187.2880
G01 X179.5556 Y187.1984
G03 X180.2141 Y187.3842 I0.0192 J1.1917
G03 X181.0377 Y188.3994 I-1.4167 J1.9910
G03 X181.7005 Y190.5639 I-7.8251 J3.5796
G03 X181.7703 Y192.0406 I-5.9283 J1.0203
G01 X181.7378 Y192.3892
G01 X181.6359 Y193.0623
G01 X181.3118 Y194.6375
G01 X181.2137 Y195.2407
G01 X181.1633 Y195.8384
G01 X181.1785 Y196.4396
G01 X181.2565 Y196.9733
G03 X182.3121 Y199.0021 I-8.4502 J5.6856
G03 X182.5462 Y200.4902 I-3.5058 J1.3140
G03 X182.1965 Y201.9093 I-4.2150 J-0.2861
G01 X181.9299 Y202.4944
G01 X181.5801 Y203.1603
G01 X181.4795 Y203.2708
G01 X181.3034 Y203.3628
G01 X180.6469 Y203.5072
G01 X178.9988 Y203.8326
G01 X175.7136 Y204.4283
G01 X161.3804 Y206.8726
G01 X156.4367 Y207.7340
G01 X156.5398 Y209.7610
G03 X156.2455 Y210.1930 I-0.4994 J-0.0240
G01 X156.0518 Y210.2369
G01 X151.1824 Y210.1738
G01 X150.3877 Y213.0797
G01 X149.2534 Y216.2613
G01 X147.8975 Y219.3187
G01 X146.3309 Y222.2435
G01 X144.5643 Y225.0275
G01 X142.6086 Y227.6623
G03 X127.5083 Y239.8740 I-35.4323 J-28.3715
G01 X124.5312 Y241.2326
G01 X121.4512 Y242.3757
G01 X118.2793 Y243.2951
G01 X115.0261 Y243.9823
G01 X111.7027 Y244.4292
G01 X108.3199 Y244.6273
G01 X104.8887 Y244.5685
G01 X101.4224 Y244.2446
G01 Z-1.5000 F3000
G03 X64.4223 Y213.5713 I5.8613 J-44.7228 F3600
G01 X58.6963 Y212.8191
G01 X58.5527 Y212.7776
G03 X58.2665 Y212.3930 I0.2089 J-0.4542
G01 X58.2349 Y211.0213
G01 X40.7244 Y209.2004
G01 X29.8525 Y208.0965
G03 X29.0952 Y207.8173 I0.1779 J-1.6490
G03 X28.2334 Y206.7775 I1.5458 J-2.1582
G03 X27.7020 Y204.9236 I4.8934 J-2.4060
G03 X27.8894 Y203.5949 I3.5394 J-0.1784
G01 X28.0664 Y203.1074
G01 X28.6667 Y201.7482
G01 X28.8304 Y201.3222
G01 X28.9501 Y200.9098
G01 X29.0135 Y200.5138
G01 X29.0232 Y200.1673
G01 X28.9994 Y199.7908
G01 X28.9466 Y199.3839
G01 X28.7762 Y198.5027
G01 X28.4570 Y197.0853
G01 X28.2830 Y196.1222
G03 X28.2334 Y194.7055 I5.5339 J-0.9029
G03 X29.3806 Y192.7059 I2.5630 J0.1416
G01 X29.8557 Y192.4504
G01 X30.4056 Y192.2606
G03 X33.5193 Y191.7584 I4.8748 J20.3198
G03 X37.5813 Y191.5463 I5.1394 J59.4314
G03 X43.8629 Y191.5908 I2.2320 J128.3011
G03 X57.7519 Y192.3870 I-9.0722 J279.8006
G01 X57.6724 Y189.1146
G03 X57.8904 Y188.7382 I0.4986 J0.0374
G01 X57.9782 Y188.6907
G01 X58.1232 Y188.6544
G01 X63.6188 Y188.2893
G01 X64.4485 Y185.3926
G01 X65.6069 Y182.2547
G01 X66.9815 Y179.2398
G01 X68.5616 Y176.3561
G03 X79.1777 Y164.1915 I38.8841 J23.2196
G03 X93.3575 Y156.5274 I28.2480 J35.3135
G01 X96.5058 Y155.6240
G01 X99.7336 Y154.9495
G01 X103.0305 Y154.5120
G01 X106.3857 Y154.3196
G01 X109.7886 Y154.3805
G01 X113.2265 Y154.7025
G03 X121.1508 Y156.4762 I-5.9058 J44.9743
G03 X132.8669 Y162.2223 I-13.6830 J42.7164
G03 X150.5321 Y186.3207 I-25.6431 J37.3214
G01 X154.9680 Y186.4459
G01 X155.0670 Y186.4585
G01 X155.2060 Y186.5135
G03 X155.4495 Y186.8739 I-0.2513 J0.4322
G01 X155.5547 Y189.0598
G03 X175.5224 Y187.4256 I90.7800 J986.4100
G01 X177.7228 Y187.2880
G01 X179.5556 Y187.1984
G03 X180.2141 Y187.3842 I0.0192 J1.1917
G03 X181.0377 Y188.3994 I-1.4167 J1.9910
G03 X181.7005 Y190.5639 I-7.8251 J3.5796
G03 X181.7703 Y192.0406 I-5.9283 J1.0203
G01 X181.7378 Y192.3892
G01 X181.6359 Y193.0623
G01 X181.3118 Y194.6375
G01 X181.2137 Y195.2407
G01 X181.1633 Y195.8384
G01 X181.1785 Y196.4396
G01 X181.2565 Y196.9733
G03 X182.3121 Y199.0021 I-8.4502 J5.6856
G03 X182.5462 Y200.4902 I-3.5058 J1.3140
G03 X182.1965 Y201.9093 I-4.2150 J-0.2861
G01 X181.9299 Y202.4944
G01 X181.5801 Y203.1603
G01 X181.4795 Y203.2708
G01 X181.3034 Y203.3628
G01 X180.6469 Y203.5072
G01 X178.9988 Y203.8326
G01 X175.7136 Y204.4283
G01 X161.3804 Y206.8726
G01 X156.4367 Y207.7340
G01 X156.5398 Y209.7610
G03 X156.2455 Y210.1930 I-0.4994 J-0.0240
G01 X156.0518 Y210.2369
G01 X151.1824 Y210.1738
G01 X150.3877 Y213.0797
G01 X149.2534 Y216.2613
G01 X147.8975 Y219.3187
G01 X146.3309 Y222.2435
G01 X144.5643 Y225.0275
G01 X142.6086 Y227.6623
G03 X127.5083 Y239.8740 I-35.4323 J-28.3715
G01 X124.5312 Y241.2326
G01 X121.4512 Y242.3757
G01 X118.2793 Y243.2951
G01 X115.0261 Y243.9823
G01 X111.7027 Y244.4292
G01 X108.3199 Y244.6273
G01 X104.8887 Y244.5685
G01 X101.4224 Y244.2446
G00 Z5.0000


;No. 12: Part 3
G00 X95.3519 Y298.6322 Z5.0000
G00 Z0.5000
G01 Z-1.0000 F3000
G03 X94.8884 Y297.8459 I-0.0558 J-0.4969 F3600
G01 X94.9922 Y297.7383
G01 X96.0901 Y296.9979
G01 X97.0778 Y296.2379
G02 X99.6295 Y293.6812 I-11.5184 J-14.0478
G02 X102.6338 Y288.5114 I-15.3743 J-12.3921
G02 X104.2983 Y282.1890 I-27.4525 J-10.6078
G02 X104.8340 Y275.2460 I-50.1133 J-7.3587
G01 X102.2318 Y275.1891
G01 X102.2630 Y274.1900
G01 X102.3311 Y274.1930
G01 X103.5731 Y275.2400
G01 X103.5105 Y277.2831
G01 X103.4103 Y279.2073
G01 X103.3041 Y280.4798
G01 X103.1544 Y281.7331
G03 X102.1353 Y285.8311 I-16.7656 J-1.9936
G03 X100.6650 Y288.6219 I-16.4773 J-6.8985
G03 X98.4960 Y291.6118 I-20.5699 J-12.6404
G03 X94.3508 Y295.2226 I-13.1865 J-10.9532
G03 X90.7606 Y296.6198 I-5.3519 J-8.4411
G01 X90.1519 Y296.6949
G01 X90.0036 Y296.6766
G01 X89.9107 Y296.6402
G03 X89.6487 Y296.0946 I0.2278 J-0.4451
G01 X89.7002 Y295.9544
G01 X89.7910 Y295.8356
G01 X90.7406 Y294.9450
G01 X91.6008 Y294.0506
G01 X92.3813 Y293.1479
G01 X93.0879 Y292.2355
G02 X95.3127 Y288.3902 I-16.8834 J-12.3344
G02 X97.0158 Y283.0806 I-25.8347 J-11.2148
G02 X98.2228 Y274.9341 I-70.6504 J-14.6298
G01 X99.0350 Y274.0041
G01 X99.3581 Y274.0246
G01 X99.2922 Y275.0225
G03 X91.7763 Y274.0670 I5.5872 J-73.9860
G03 X88.9617 Y282.4286 I-26.5891 J-4.2958
G03 X86.7106 Y286.0107 I-25.2758 J-13.3851
G01 X85.7101 Y287.3675
G01 X85.1120 Y288.1478
G03 X83.2526 Y290.2802 I-21.2765 J-16.6747
G03 X77.4121 Y294.4727 I-14.0369 J-13.3905
G03 X70.4894 Y296.4355 I-10.2259 J-22.8766
G03 X70.1433 Y295.5909 I0.0159 J-0.4997
G02 X81.6659 Y284.1411 I-25.1479 J-36.8306
G02 X86.4369 Y272.9274 I-24.4679 J-17.0321
G03 X78.4157 Y270.4046 I17.8036 J-70.6209
G03 X73.3933 Y275.9722 I-47.0969 J-37.4367
G01 X72.0375 Y277.2251
G01 X70.5623 Y278.4805
G03 X68.2345 Y280.1509 I-14.0224 J-17.0845
G03 X62.9067 Y282.7214 I-13.8491 J-21.8982
G03 X57.3968 Y283.7718 I-6.1071 J-17.0582
G03 X53.5786 Y283.1733 I-0.3739 J-10.0933
G01 X53.1703 Y283.0015
G01 X53.0593 Y282.9014
G01 X53.0040 Y282.8183
G03 X53.1022 Y282.2211 I0.4419 J-0.2340
G01 X53.2708 Y282.1160
G01 X54.8282 Y281.6792
G01 X56.2712 Y281.2052
G01 X57.6613 Y280.6777
G01 X58.9759 Y280.1111
G02 X63.7119 Y277.4419 I-13.4989 J-29.4874
G02 X68.5163 Y273.5050 I-20.1273 J-29.4621
G02 X70.8865 Y270.9985 I-29.9425 J-30.6882
G01 X71.6013 Y270.1610
G01 X72.2814 Y269.3286
G01 X72.9283 Y268.5052
G01 X73.1676 Y268.1899
G01 X73.1544 Y268.1788
G03 X64.1018 Y263.1489 I32.1366 J-68.5001
G03 X61.7847 Y265.6351 I-20.6847 J-16.9547
G01 X59.7034 Y267.6199
G01 X58.8087 Y268.2688
G03 X54.7622 Y270.8140 I-22.2869 J-30.9448
G03 X51.0875 Y272.4417 I-11.5742 J-21.1674
G03 X44.8311 Y273.5172 I-6.4761 J-18.9367
G03 X40.2253 Y273.2501 I-0.2890 J-34.8554
G01 X38.0461 Y272.9654
G03 X37.7101 Y272.6891 I0.1179 J-0.4859
G03 X37.9677 Y272.0196 I0.4539 J-0.2096
G01 X39.5359 Y271.5896
G01 X40.9771 Y271.1718
G01 X42.3626 Y270.7405
G02 X46.2063 Y269.3455 I-16.0104 J-50.1070
G02 X51.7044 Y266.5610 I-13.1636 J-32.8114
G02 X59.2563 Y259.7360 I-15.6936 J-24.9561
G01 X58.4756 Y259.1190
G03 X54.8431 Y261.5933 I-15.4214 J-18.7359
G03 X51.3921 Y263.0414 I-8.1528 J-14.5938
G03 X45.9374 Y263.9165 I-8.1247 J-33.2029
G03 X42.0964 Y263.6861 I-1.0571 J-14.5044
G03 X38.7706 Y262.3709 I1.9505 J-9.7952
G03 X38.7884 Y261.5036 I0.2576 J-0.4285
G01 X38.9781 Y261.4449
G01 X40.3588 Y261.3082
G01 X41.6572 Y261.1512
G01 X42.8819 Y260.9742
G01 X44.0358 Y260.7780
G02 X47.9997 Y259.8185 I-5.9256 J-33.1471
G02 X51.7060 Y258.2899 I-5.9991 J-19.8035
G02 X54.8420 Y256.0782 I-7.2581 J-13.6205
G01 X55.9352 Y255.7035
G01 X56.2525 Y255.9773
G01 X54.8380 Y256.0618
G01 X53.0884 Y254.4425
G03 X50.5595 Y255.8003 I-12.6825 J-20.5860
G03 X48.7344 Y256.4437 I-4.2868 J-9.2506
G03 X42.3723 Y256.8733 I-4.9892 J-26.5644
G03 X38.6023 Y256.2460 I0.5831 J-15.1477
G03 X36.9734 Y255.5713 I2.5731 J-8.5155
G01 X36.6778 Y255.4016
G01 X36.3643 Y255.1973
G01 X36.2363 Y255.0453
G01 X36.1851 Y254.9050
G03 X36.5901 Y254.3129 I0.4900 J-0.0993
G02 X40.6911 Y254.1995 I1.0895 J-34.7922
G02 X45.0265 Y253.4571 I-2.2967 J-26.4451
G02 X50.1532 Y251.4757 I-5.8784 J-22.8329
G03 X37.5285 Y233.1729 I54.7768 J-51.2889
G03 X30.3317 Y208.1486 I67.3346 J-32.9118
G01 X29.8478 Y208.1009
G01 X29.6527 Y208.0688
G01 X29.4518 Y208.0079
G03 X28.6539 Y207.4258 I0.7043 J-1.8032
G03 X28.0752 Y206.4287 I2.7967 J-2.2896
G01 X27.8931 Y205.8943
G01 X27.8040 Y205.5442
G01 X27.7371 Y205.1997
G03 X27.8189 Y203.8503 I3.1675 J-0.4850
G01 X27.8913 Y203.5980
G01 X28.0672 Y203.1108
G01 X28.6646 Y201.7521
G01 X28.8277 Y201.3262
G01 X28.9472 Y200.9136
G01 X29.0107 Y200.5173
G01 X29.0193 Y200.1586
G01 X28.9978 Y199.8057
G01 X28.9469 Y199.4055
G01 X28.7819 Y198.5392
G01 X28.3744 Y196.6703
G01 X28.2953 Y196.1960
G01 X28.2395 Y195.7244
G03 X28.2967 Y194.3465 I4.4270 J-0.5064
G03 X28.9121 Y193.1175 I2.4925 J0.4795
G01 X29.2795 Y192.7899
G01 X29.7269 Y192.5216
G01 X29.8958 Y192.4553
G01 X29.9024 Y192.4334
G01 Y137.1934
G01 Y138.2714
G01 X29.8682 Y137.1768
G01 X29.7487 Y137.0871
G01 X29.6610 Y136.9660
G01 X29.6242 Y136.8732
G01 X29.4972 Y136.3646
G01 X29.3814 Y135.7799
G01 X29.1807 Y134.4122
G03 X28.8336 Y128.4329 I54.8999 J-6.1866
G03 X29.0008 Y124.2940 I38.7461 J-0.5079
G03 X29.8986 Y120.7863 I9.6490 J0.6008
G01 X29.9018 Y118.7263
G01 X23.5273 Y116.2678
G01 X21.1889 Y115.3970
G01 X19.2646 Y114.7152
G01 X18.1176 Y114.3516
G01 X16.9538 Y114.0215
G01 X13.4021 Y113.1041
G01 X12.2147 Y112.7797
G01 X11.0339 Y112.4243
G01 X9.8649 Y112.0243
G03 X5.2431 Y109.6938 I8.3103 J-22.2295
G03 X0.7459 Y104.8143 I6.5607 J-10.5587
G03 X-0.3686 Y101.7335 I10.1166 J-5.4020
G01 X-0.4775 Y101.0683
G01 X-0.5003 Y100.3778
G01 X-0.4799 Y99.7161
G01 X-0.4184 Y99.0711
G03 X1.0149 Y95.0370 I10.1816 J1.3456
G03 X3.7470 Y91.8389 I11.9835 J7.4716
G03 X8.8898 Y88.4151 I17.5572 J20.7971
G03 X16.8918 Y84.9336 I39.5463 J79.9597
G01 X15.4254 Y82.1351
G03 X15.6259 Y81.5229 I0.4637 J-0.1871
G01 X15.7735 Y81.4612
G01 X21.2170 Y79.9369
G01 X21.3351 Y79.2730
G03 X19.0823 Y80.1640 I-3.1363 J-4.6363
G01 X18.7004 Y80.1587
G01 X18.2408 Y80.0723
G03 X17.1669 Y79.6233 I1.0721 J-4.0731
G03 X14.6884 Y76.2317 I2.7923 J-4.6419
G03 X14.4582 Y73.8013 I7.8357 J-1.9683
G03 X14.9679 Y70.9020 I12.6163 J0.7235
G03 X17.5554 Y66.3009 I10.8536 J3.0756
G03 X19.2521 Y65.0129 I4.8536 J4.6324
G03 X20.8847 Y64.5722 I1.6356 J2.8150
G01 X21.3372 Y64.6077
G01 X21.7704 Y64.6936
G01 X22.1866 Y64.8134
G01 X23.3682 Y65.2383
G01 X23.9389 Y65.4157
G01 X24.3167 Y65.4983
G01 X24.8749 Y65.5599
G01 X25.2502 Y65.5780
G01 X26.0192 Y65.5744
G01 X26.8085 Y65.5332
G01 X28.4278 Y65.4156
G01 X29.2491 Y65.3806
G01 X30.0730 Y65.3906
G01 X30.4847 Y65.4198
G01 X30.8955 Y65.4692
G03 X33.7181 Y66.5948 I-1.0561 J6.7502
G03 X35.5736 Y62.3052 I42.7626 J15.9514
G03 X37.0159 Y58.2428 I30.7409 J8.6270
G03 X38.6238 Y54.9816 I30.8482 J13.1824
G03 X45.0077 Y46.3301 I39.0068 J22.1019
G03 X54.9628 Y37.7494 I45.5566 J42.7881
G03 X66.9880 Y30.7944 I47.3833 J68.0524
G01 X68.9214 Y20.8852
G01 X69.0284 Y20.5410
G01 X69.1986 Y20.1836
G03 X71.0284 Y18.3451 I5.1190 J3.2649
G03 X74.8754 Y16.3362 I10.8396 J16.0699
G01 X73.5296 Y16.1187
G01 X72.5296 Y15.8946
G03 X69.2008 Y14.8228 I4.2913 J-19.0324
G03 X66.1430 Y12.2248 I2.8083 J-6.4040
G03 X64.9336 Y9.9031 I10.0319 J-6.7012
G03 X64.3174 Y7.6074 I8.2257 J-3.4388
G03 X64.1691 Y4.2899 I22.3905 J-2.6629
G01 X64.2855 Y2.9706
G01 X64.4784 Y1.5140
G01 X64.5469 Y1.3275
G01 X64.6826 Y1.1824
G01 X64.8159 Y1.1149
G01 X64.9414 Y1.0891
G01 X68.3713 Y0.6490
G01 X70.4698 Y0.4242
G01 X71.4885 Y0.3351
G01 X72.4263 Y0.2726
G03 X80.2877 Y0.4824 I2.5675 J51.1748
G01 X82.2302 Y0.7289
G01 X83.7800 Y0.9903
G03 X86.8415 Y1.7788 I-4.4072 J23.4503
G01 X87.8476 Y2.1666
G01 X88.9571 Y2.6666
G01 X90.4249 Y3.3915
G01 X92.4077 Y4.4418
G01 X101.3161 Y5.0863
G01 X101.4619 Y5.1192
G03 X101.7776 Y5.5358 I-0.1818 J0.4658
G01 X101.9515 Y7.7233
G01 X102.0253 Y9.0482
G01 X102.0590 Y9.9774
G03 X101.6884 Y14.5341 I-16.3012 J0.9674
G01 X102.5904 Y14.9388
G01 X103.3456 Y15.3392
G03 X103.5569 Y15.7194 I-0.2879 J0.4088
G01 X103.1180 Y21.6594
G03 X110.5967 Y21.5600 I4.9353 J89.9955
G01 X110.2054 Y16.6037
G01 X110.2159 Y16.4547
G03 X110.4861 Y16.1138 I0.4879 J0.1092
G01 X111.0104 Y15.9154
G01 X111.8892 Y15.6127
G01 X111.5540 Y14.2420
G01 X111.3354 Y13.1444
G03 X111.1484 Y11.2448 I13.1830 J-2.2567
G03 X111.2488 Y6.4942 I53.9632 J-1.2364
G01 X111.3256 Y5.3728
G01 X111.3733 Y5.2312
G01 X111.4975 Y5.0761
G01 X111.6253 Y4.9986
G01 X111.7703 Y4.9623
G01 X120.6924 Y4.1279
G03 X125.5111 Y1.5888 I24.8508 J41.3196
G03 X129.5291 Y0.4148 I7.9690 J19.8103
G03 X139.3499 Y-0.5000 I9.4524 J48.3047
G03 X142.5117 Y-0.3797 I0.1387 J37.9687
G01 X145.1139 Y-0.1556
G01 X148.0787 Y0.1607
G03 X148.5148 Y0.5820 I-0.0588 J0.4973
G03 X148.9291 Y3.7430 I-24.1073 J4.7678
G03 X148.7877 Y6.9028 I-20.4454 J0.6682
G03 X148.1531 Y9.2247 I-9.2362 J-1.2767
G03 X146.9425 Y11.5451 I-10.6619 J-4.0863
G03 X143.8352 Y14.1010 I-5.7705 J-3.8488
G03 X137.7831 Y15.7221 I-9.3472 J-22.7889
G03 X140.9401 Y17.1448 I-7.1326 J20.0399
G01 X141.4521 Y17.4377
G01 X142.2614 Y17.9670
G01 X143.0139 Y18.5392
G01 X143.1402 Y18.6926
G01 X143.1899 Y18.8335
G01 X145.3279 Y30.5850
G03 X162.9659 Y44.7370 I-31.7860 J57.6831
G03 X175.3162 Y64.2717 I-57.0054 J49.7115
G03 X176.9884 Y63.4072 I4.8171 J7.2688
G01 X177.3907 Y63.2783
G01 X177.7968 Y63.1788
G01 X178.2054 Y63.1056
G03 X179.8493 Y63.0142 I1.3719 J9.8472
G01 X180.6691 Y63.0477
G01 X182.2859 Y63.1623
G01 X183.0743 Y63.2024
G01 X183.8429 Y63.2052
G01 X184.2181 Y63.1869
G01 X184.7741 Y63.1259
G01 X185.1469 Y63.0461
G01 X185.7099 Y62.8753
G01 X186.6744 Y62.5311
G01 X187.0762 Y62.4032
G01 X187.7062 Y62.2603
G01 X188.1482 Y62.2192
G03 X189.7582 Y62.6109 I0.0804 J3.1744
G03 X191.5061 Y63.9042 I-2.9307 J5.7887
G03 X194.0642 Y68.3201 I-8.2992 J7.7566
G03 X194.6265 Y71.2734 I-12.5206 J3.9138
G03 X194.4027 Y73.8737 I-8.2721 J0.5977
G03 X191.9429 Y77.2500 I-5.2745 J-1.2584
G03 X190.0755 Y77.8054 I-1.8756 J-2.8895
G03 X189.0030 Y77.5440 I0.3241 J-3.6604
G01 X188.4205 Y77.2779
G01 X187.7585 Y76.9048
G01 X187.8743 Y77.5728
G01 X193.3390 Y79.1030
G01 X193.5159 Y79.1935
G03 X193.6643 Y79.7802 I-0.3117 J0.3910
G01 X192.2005 Y82.5703
G03 X199.7884 Y85.8398 I-31.3580 J83.2166
G03 X204.4125 Y88.7058 I-12.6929 J25.6422
G03 X207.7523 Y92.1673 I-8.9949 J12.0203
G03 X209.4106 Y96.0803 I-8.5870 J5.9471
G03 X209.5708 Y98.7057 I-10.0653 J1.9318
G03 X208.6385 Y101.8613 I-10.7277 J-1.4540
G03 X204.1337 Y107.1408 I-11.3377 J-5.1124
G03 X199.2279 Y109.6607 I-12.9094 J-19.0964
G01 X198.0587 Y110.0607
G01 X196.8778 Y110.4162
G01 X195.6903 Y110.7405
G01 X192.1385 Y111.6580
G01 X190.9748 Y111.9880
G01 X189.8276 Y112.3517
G02 X180.3104 Y115.9287 I86.7194 J245.1831
G01 X180.3135 Y115.9969
G01 X180.7669 Y116.6185
G01 X180.8353 Y116.7513
G01 X181.0642 Y118.0455
G01 X181.3075 Y119.6440
G01 X181.5509 Y121.5756
G03 X181.7620 Y124.8498 I-29.9395 J3.5739
G03 X181.6459 Y126.4656 I-8.8188 J0.1783
G01 X181.3272 Y127.7700
G01 X181.1278 Y128.8684
G01 X180.8553 Y130.8057
G01 X180.6315 Y132.8088
G03 X180.3244 Y133.1770 I-0.4905 J-0.0970
G01 X180.3135 Y133.9778
G01 Y133.1847
G01 Y187.4647
G01 Y187.4350
G01 X180.3479 Y187.4851
G01 X180.4975 Y187.6168
G01 X180.7512 Y187.9175
G01 X180.9605 Y188.2544
G01 X181.1372 Y188.6164
G03 X181.7004 Y190.5611 I-8.3383 J3.4687
G03 X181.7709 Y192.0383 I-5.9409 J1.0241
G01 X181.7387 Y192.3872
G01 X181.6374 Y193.0609
G01 X181.3143 Y194.6380
G01 X181.2164 Y195.2419
G01 X181.1662 Y195.8401
G01 X181.1814 Y196.4416
G01 X181.2586 Y196.9735
G03 X182.3348 Y199.0612 I-8.0365 J5.4639
G03 X182.5326 Y200.6874 I-3.4627 J1.2464
G03 X182.2595 Y201.7664 I-4.5838 J-0.5858
G01 X181.9342 Y202.4935
G01 X181.5516 Y203.1994
G01 X181.4397 Y203.2985
G01 X181.3036 Y203.3600
G01 X180.2380 Y203.5903
G03 X176.5221 Y223.7524 I-75.6254 J-3.5144
G03 X170.1494 Y237.9190 I-70.5056 J-23.1998
G02 X173.6466 Y238.4745 I3.8024 J-12.6515
G01 X174.2781 Y238.4888
G01 X175.5563 Y238.4726
G01 X176.8387 Y238.4151
G01 X179.9386 Y238.2386
G01 X181.0899 Y238.2156
G01 X181.6793 Y238.2298
G03 X182.1140 Y238.8004 I-0.0597 J0.4964
G01 X182.0461 Y238.9871
G01 X181.9108 Y239.1326
G01 X180.4913 Y240.0845
G01 X179.0923 Y240.9428
G03 X176.0744 Y242.3599 I-7.7392 J-12.5600
G03 X167.5048 Y242.1464 I-3.8754 J-16.5438
G01 X166.9674 Y242.9282
G02 X171.7635 Y246.1184 I18.8067 J-23.0739
G01 X172.9616 Y246.7488
G01 X174.1713 Y247.3461
G01 X175.9998 Y248.1984
G01 X178.4878 Y249.3198
G03 X178.4423 Y250.2098 I-0.2493 J0.4334
G01 X178.3475 Y250.2412
G01 X178.2427 Y250.2536
G01 X176.9488 Y250.2877
G01 X175.5808 Y250.2592
G01 X174.9134 Y250.2185
G03 X171.1246 Y249.5847 I1.4150 J-20.1005
G03 X164.4986 Y246.2819 I5.0299 J-18.3887
G01 X163.2096 Y247.8873
G02 X167.3632 Y249.9265 I8.7594 J-12.5917
G02 X172.4048 Y250.9240 I6.9159 J-21.7154
G02 X177.3936 Y250.9800 I2.8757 J-33.9181
G02 X185.2687 Y249.9272 I-4.0741 J-60.4519
G03 X185.7345 Y250.1643 I0.0395 J0.4984
G03 X185.5917 Y250.8395 I-0.4296 J0.2618
G03 X181.9628 Y253.2093 I-16.0216 J-20.5704
G03 X176.0302 Y255.3496 I-9.3369 J-16.5886
G03 X170.9657 Y255.4599 I-2.8988 J-16.7715
G03 X168.2769 Y254.9384 I2.7740 J-21.4971
G01 X166.9579 Y254.5674
G01 X165.6421 Y254.1428
G01 X164.7915 Y253.8472
G01 X165.3251 Y254.3455
G01 X166.3508 Y255.0465
G01 X167.4603 Y255.5968
G01 X168.6501 Y256.0114
G02 X173.9219 Y256.5769 I4.5278 J-17.3530
G01 X175.3181 Y256.5190
G01 X176.7220 Y256.4115
G01 X178.1218 Y256.2699
G01 X182.1838 Y255.7982
G01 X183.4558 Y255.6785
G01 X184.6700 Y255.6048
G01 X185.8175 Y255.5941
G01 X186.8901 Y255.6646
G01 X187.8924 Y255.8418
G03 X188.2553 Y256.3741 I-0.1346 J0.4816
G03 X187.9839 Y256.7693 I-0.4974 J-0.0508
G01 X187.1252 Y257.0954
G01 X185.6762 Y257.6910
G01 X183.1813 Y258.8162
G01 X182.0073 Y259.3263
G03 X178.8013 Y260.3455 I-7.1281 J-16.8700
G03 X174.4994 Y260.8305 I-4.8294 J-23.5140
G03 X168.6229 Y260.6439 I-1.2093 J-54.5421
G03 X166.0826 Y260.0126 I0.6818 J-8.1696
G03 X163.7756 Y258.7050 I4.7706 J-11.1060
G03 X161.6595 Y256.9714 I12.8199 J-17.8060
G01 X160.6544 Y256.0161
G01 X158.1334 Y253.4802
G01 X158.1065 Y253.4949
G01 X156.7775 Y254.7772
G01 X154.7686 Y256.6096
G01 X153.2137 Y257.9369
G01 X152.0016 Y258.9236
G01 X151.0012 Y259.7058
G01 X151.0083 Y259.7251
G02 X161.2007 Y266.1466 I20.0462 J-20.5182
G02 X167.3997 Y267.6654 I9.9301 J-27.1201
G01 X168.6843 Y267.8035
G01 X169.9886 Y267.8844
G02 X173.9775 Y267.7725 I1.1444 J-30.3575
G01 X174.0766 Y267.7852
G01 X174.2155 Y267.8402
G03 X174.3885 Y268.5364 I-0.2516 J0.4321
G01 X174.2915 Y268.6501
G01 X173.8865 Y268.9539
G01 X173.1044 Y269.4741
G03 X168.9641 Y271.1144 I-6.8108 J-11.1457
G03 X164.0331 Y271.3473 I-3.2280 J-16.0310
G03 X157.8745 Y269.9050 I2.9685 J-26.5457
G03 X153.9593 Y268.2476 I13.1274 J-36.4636
G03 X146.4552 Y262.9359 I51.2938 J-80.4210
G03 X137.7138 Y267.8827 I-41.4735 J-63.0895
G02 X144.8063 Y277.0846 I20.6467 J-8.5797
G02 X151.2676 Y280.9835 I21.9212 J-29.0244
G02 X156.1200 Y283.0597 I28.9409 J-60.9308
G01 X157.9116 Y283.7278
G01 X159.7932 Y284.3895
G01 X161.8610 Y285.0902
G03 X161.8152 Y285.9802 I-0.2494 J0.4334
G01 X161.6712 Y286.0200
G01 X160.8973 Y286.0982
G01 X159.3866 Y286.2052
G01 X158.0966 Y286.2435
G01 X156.9439 Y286.2316
G03 X153.2032 Y285.8639 I0.7460 J-26.7994
G03 X145.3619 Y283.1337 I4.4013 J-25.2661
G03 X141.1460 Y280.4490 I16.8730 J-31.1493
G03 X137.7163 Y277.4599 I13.0448 J-18.4296
G03 X135.3175 Y274.4159 I17.4338 J-16.2062
G01 X134.6454 Y273.3635
G01 X134.0205 Y272.2982
G01 X133.4326 Y271.2236
G01 X132.8078 Y270.0164
G01 X132.7887 Y270.0169
G03 X127.6355 Y271.8456 I-30.9743 J-79.1091
G01 X127.9401 Y272.4639
G01 X128.5444 Y273.5338
G02 X132.9194 Y278.8186 I20.7085 J-12.6902
G02 X136.2718 Y281.5217 I24.4142 J-26.8466
G01 X137.9857 Y282.7103
G01 X141.3314 Y284.9004
G01 X142.9352 Y285.9868
G03 X142.9115 Y286.7698 I-0.3225 J0.3821
G01 X142.7796 Y286.8402
G01 X142.6329 Y286.8684
G01 X141.7448 Y286.8545
G01 X140.8966 Y286.8014
G01 X140.0702 Y286.7110
G03 X136.9649 Y286.0071 I2.3196 J-17.4347
G03 X131.5106 Y283.2884 I7.0475 J-20.9690
G03 X128.4094 Y280.9949 I25.2834 J-37.4327
G03 X126.2143 Y278.9497 I12.8206 J-15.9603
G03 X122.2916 Y273.3003 I18.7837 J-17.2291
G03 X110.7956 Y275.0387 I-17.3454 J-75.8239
G03 X109.6733 Y284.6043 I-40.8232 J0.0590
G03 X106.6144 Y291.6735 I-21.5287 J-5.1192
G03 X101.6905 Y296.5495 I-13.6575 J-8.8673
G03 X95.3519 Y298.6322 I-7.3083 J-11.5555
G01 Z-1.5000 F3000
G03 X94.8884 Y297.8459 I-0.0558 J-0.4969 F3600
G01 X94.9922 Y297.7383
G01 X96.0901 Y296.9979
G01 X97.0778 Y296.2379
G02 X99.6295 Y293.6812 I-11.5184 J-14.0478
G02 X102.6338 Y288.5114 I-15.3743 J-12.3921
G02 X104.2983 Y282.1890 I-27.4525 J-10.6078
G02 X104.8340 Y275.2460 I-50.1133 J-7.3587
G01 X102.2318 Y275.1891
G01 X102.2630 Y274.1900
G01 X102.3311 Y274.1930
G01 X103.5731 Y275.2400
G01 X103.5105 Y277.2831
G01 X103.4103 Y279.2073
G01 X103.3041 Y280.4798
G01 X103.1544 Y281.7331
G03 X102.1353 Y285.8311 I-16.7656 J-1.9936
G03 X100.6650 Y288.6219 I-16.4773 J-6.8985
G03 X98.4960 Y291.6118 I-20.5699 J-12.6404
G03 X94.3508 Y295.2226 I-13.1865 J-10.9532
G03 X90.7606 Y296.6198 I-5.3519 J-8.4411
G01 X90.1519 Y296.6949
G01 X90.0036 Y296.6766
G01 X89.9107 Y296.6402
G03 X89.6487 Y296.0946 I0.2278 J-0.4451
G01 X89.7002 Y295.9544
G01 X89.7910 Y295.8356
G01 X90.7406 Y294.9450
G01 X91.6008 Y294.0506
G01 X92.3813 Y293.1479
G01 X93.0879 Y292.2355
G02 X95.3127 Y288.3902 I-16.8834 J-12.3344
G02 X97.0158 Y283.0806 I-25.8347 J-11.2148
G02 X98.2228 Y274.9341 I-70.6504 J-14.6298
G01 X99.0350 Y274.0041
G01 X99.3581 Y274.0246
G01 X99.2922 Y275.0225
G03 X91.7763 Y274.0670 I5.5872 J-73.9860
G03 X88.9617 Y282.4286 I-26.5891 J-4.2958
G03 X86.7106 Y286.0107 I-25.2758 J-13.3851
G01 X85.7101 Y287.3675
G01 X85.1120 Y288.1478
G03 X83.2526 Y290.2802 I-21.2765 J-16.6747
G03 X77.4121 Y294.4727 I-14.0369 J-13.3905
G03 X70.4894 Y296.4355 I-10.2259 J-22.8766
G03 X70.1433 Y295.5909 I0.0159 J-0.4997
G02 X81.6659 Y284.1411 I-25.1479 J-36.8306
G02 X86.4369 Y272.9274 I-24.4679 J-17.0321
G03 X78.4157 Y270.4046 I17.8036 J-70.6209
G03 X73.3933 Y275.9722 I-47.0969 J-37.4367
G01 X72.0375 Y277.2251
G01 X70.5623 Y278.4805
G03 X68.2345 Y280.1509 I-14.0224 J-17.0845
G03 X62.9067 Y282.7214 I-13.8491 J-21.8982
G03 X57.3968 Y283.7718 I-6.1071 J-17.0582
G03 X53.5786 Y283.1733 I-0.3739 J-10.0933
G01 X53.1703 Y283.0015
G01 X53.0593 Y282.9014
G01 X53.0040 Y282.8183
G03 X53.1022 Y282.2211 I0.4419 J-0.2340
G01 X53.2708 Y282.1160
G01 X54.8282 Y281.6792
G01 X56.2712 Y281.2052
G01 X57.6613 Y280.6777
G01 X58.9759 Y280.1111
G02 X63.7119 Y277.4419 I-13.4989 J-29.4874
G02 X68.5163 Y273.5050 I-20.1273 J-29.4621
G02 X70.8865 Y270.9985 I-29.9425 J-30.6882
G01 X71.6013 Y270.1610
G01 X72.2814 Y269.3286
G01 X72.9283 Y268.5052
G01 X73.1676 Y268.1899
G01 X73.1544 Y268.1788
G03 X64.1018 Y263.1489 I32.1366 J-68.5001
G03 X61.7847 Y265.6351 I-20.6847 J-16.9547
G01 X59.7034 Y267.6199
G01 X58.8087 Y268.2688
G03 X54.7622 Y270.8140 I-22.2869 J-30.9448
G03 X51.0875 Y272.4417 I-11.5742 J-21.1674
G03 X44.8311 Y273.5172 I-6.4761 J-18.9367
G03 X40.2253 Y273.2501 I-0.2890 J-34.8554
G01 X38.0461 Y272.9654
G03 X37.7101 Y272.6891 I0.1179 J-0.4859
G03 X37.9677 Y272.0196 I0.4539 J-0.2096
G01 X39.5359 Y271.5896
G01 X40.9771 Y271.1718
G01 X42.3626 Y270.7405
G02 X46.2063 Y269.3455 I-16.0104 J-50.1070
G02 X51.7044 Y266.5610 I-13.1636 J-32.8114
G02 X59.2563 Y259.7360 I-15.6936 J-24.9561
G01 X58.4756 Y259.1190
G03 X54.8431 Y261.5933 I-15.4214 J-18.7359
G03 X51.3921 Y263.0414 I-8.1528 J-14.5938
G03 X45.9374 Y263.9165 I-8.1247 J-33.2029
G03 X42.0964 Y263.6861 I-1.0571 J-14.5044
G03 X38.7706 Y262.3709 I1.9505 J-9.7952
G03 X38.7884 Y261.5036 I0.2576 J-0.4285
G01 X38.9781 Y261.4449
G01 X40.3588 Y261.3082
G01 X41.6572 Y261.1512
G01 X42.8819 Y260.9742
G01 X44.0358 Y260.7780
G02 X47.9997 Y259.8185 I-5.9256 J-33.1471
G02 X51.7060 Y258.2899 I-5.9991 J-19.8035
G02 X54.8420 Y256.0782 I-7.2581 J-13.6205
G01 X55.9352 Y255.7035
G01 X56.2525 Y255.9773
G01 X54.8380 Y256.0618
G01 X53.0884 Y254.4425
G03 X50.5595 Y255.8003 I-12.6825 J-20.5860
G03 X48.7344 Y256.4437 I-4.2868 J-9.2506
G03 X42.3723 Y256.8733 I-4.9892 J-26.5644
G03 X38.6023 Y256.2460 I0.5831 J-15.1477
G03 X36.9734 Y255.5713 I2.5731 J-8.5155
G01 X36.6778 Y255.4016
G01 X36.3643 Y255.1973
G01 X36.2363 Y255.0453
G01 X36.1851 Y254.9050
G03 X36.5901 Y254.3129 I0.4900 J-0.0993
G02 X40.6911 Y254.1995 I1.0895 J-34.7922
G02 X45.0265 Y253.4571 I-2.2967 J-26.4451
G02 X50.1532 Y251.4757 I-5.8784 J-22.8329
G03 X37.5285 Y233.1729 I54.7768 J-51.2889
G03 X30.3317 Y208.1486 I67.3346 J-32.9118
G01 X29.8478 Y208.1009
G01 X29.6527 Y208.0688
G01 X29.4518 Y208.0079
G03 X28.6539 Y207.4258 I0.7043 J-1.8032
G03 X28.0752 Y206.4287 I2.7967 J-2.2896
G01 X27.8931 Y205.8943
G01 X27.8040 Y205.5442
G01 X27.7371 Y205.1997
G03 X27.8189 Y203.8503 I3.1675 J-0.4850
G01 X27.8913 Y203.5980
G01 X28.0672 Y203.1108
G01 X28.6646 Y201.7521
G01 X28.8277 Y201.3262
G01 X28.9472 Y200.9136
G01 X29.0107 Y200.5173
G01 X29.0193 Y200.1586
G01 X28.9978 Y199.8057
G01 X28.9469 Y199.4055
G01 X28.7819 Y198.5392
G01 X28.3744 Y196.6703
G01 X28.2953 Y196.1960
G01 X28.2395 Y195.7244
G03 X28.2967 Y194.3465 I4.4270 J-0.5064
G03 X28.9121 Y193.1175 I2.4925 J0.4795
G01 X29.2795 Y192.7899
G01 X29.7269 Y192.5216
G01 X29.8958 Y192.4553
G01 X29.9024 Y192.4334
G01 Y137.1934
G01 Y138.2714
G01 X29.8682 Y137.1768
G01 X29.7487 Y137.0871
G01 X29.6610 Y136.9660
G01 X29.6242 Y136.8732
G01 X29.4972 Y136.3646
G01 X29.3814 Y135.7799
G01 X29.1807 Y134.4122
G03 X28.8336 Y128.4329 I54.8999 J-6.1866
G03 X29.0008 Y124.2940 I38.7461 J-0.5079
G03 X29.8986 Y120.7863 I9.6490 J0.6008
G01 X29.9018 Y118.7263
G01 X23.5273 Y116.2678
G01 X21.1889 Y115.3970
G01 X19.2646 Y114.7152
G01 X18.1176 Y114.3516
G01 X16.9538 Y114.0215
G01 X13.4021 Y113.1041
G01 X12.2147 Y112.7797
G01 X11.0339 Y112.4243
G01 X9.8649 Y112.0243
G03 X5.2431 Y109.6938 I8.3103 J-22.2295
G03 X0.7459 Y104.8143 I6.5607 J-10.5587
G03 X-0.3686 Y101.7335 I10.1166 J-5.4020
G01 X-0.4775 Y101.0683
G01 X-0.5003 Y100.3778
G01 X-0.4799 Y99.7161
G01 X-0.4184 Y99.0711
G03 X1.0149 Y95.0370 I10.1816 J1.3456
G03 X3.7470 Y91.8389 I11.9835 J7.4716
G03 X8.8898 Y88.4151 I17.5572 J20.7971
G03 X16.8918 Y84.9336 I39.5463 J79.9597
G01 X15.4254 Y82.1351
G03 X15.6259 Y81.5229 I0.4637 J-0.1871
G01 X15.7735 Y81.4612
G01 X21.2170 Y79.9369
G01 X21.3351 Y79.2730
G03 X19.0823 Y80.1640 I-3.1363 J-4.6363
G01 X18.7004 Y80.1587
G01 X18.2408 Y80.0723
G03 X17.1669 Y79.6233 I1.0721 J-4.0731
G03 X14.6884 Y76.2317 I2.7923 J-4.6419
G03 X14.4582 Y73.8013 I7.8357 J-1.9683
G03 X14.9679 Y70.9020 I12.6163 J0.7235
G03 X17.5554 Y66.3009 I10.8536 J3.0756
G03 X19.2521 Y65.0129 I4.8536 J4.6324
G03 X20.8847 Y64.5722 I1.6356 J2.8150
G01 X21.3372 Y64.6077
G01 X21.7704 Y64.6936
G01 X22.1866 Y64.8134
G01 X23.3682 Y65.2383
G01 X23.9389 Y65.4157
G01 X24.3167 Y65.4983
G01 X24.8749 Y65.5599
G01 X25.2502 Y65.5780
G01 X26.0192 Y65.5744
G01 X26.8085 Y65.5332
G01 X28.4278 Y65.4156
G01 X29.2491 Y65.3806
G01 X30.0730 Y65.3906
G01 X30.4847 Y65.4198
G01 X30.8955 Y65.4692
G03 X33.7181 Y66.5948 I-1.0561 J6.7502
G03 X35.5736 Y62.3052 I42.7626 J15.9514
G03 X37.0159 Y58.2428 I30.7409 J8.6270
G03 X38.6238 Y54.9816 I30.8482 J13.1824
G03 X45.0077 Y46.3301 I39.0068 J22.1019
G03 X54.9628 Y37.7494 I45.5566 J42.7881
G03 X66.9880 Y30.7944 I47.3833 J68.0524
G01 X68.9214 Y20.8852
G01 X69.0284 Y20.5410
G01 X69.1986 Y20.1836
G03 X71.0284 Y18.3451 I5.1190 J3.2649
G03 X74.8754 Y16.3362 I10.8396 J16.0699
G01 X73.5296 Y16.1187
G01 X72.5296 Y15.8946
G03 X69.2008 Y14.8228 I4.2913 J-19.0324
G03 X66.1430 Y12.2248 I2.8083 J-6.4040
G03 X64.9336 Y9.9031 I10.0319 J-6.7012
G03 X64.3174 Y7.6074 I8.2257 J-3.4388
G03 X64.1691 Y4.2899 I22.3905 J-2.6629
G01 X64.2855 Y2.9706
G01 X64.4784 Y1.5140
G01 X64.5469 Y1.3275
G01 X64.6826 Y1.1824
G01 X64.8159 Y1.1149
G01 X64.9414 Y1.0891
G01 X68.3713 Y0.6490
G01 X70.4698 Y0.4242
G01 X71.4885 Y0.3351
G01 X72.4263 Y0.2726
G03 X80.2877 Y0.4824 I2.5675 J51.1748
G01 X82.2302 Y0.7289
G01 X83.7800 Y0.9903
G03 X86.8415 Y1.7788 I-4.4072 J23.4503
G01 X87.8476 Y2.1666
G01 X88.9571 Y2.6666
G01 X90.4249 Y3.3915
G01 X92.4077 Y4.4418
G01 X101.3161 Y5.0863
G01 X101.4619 Y5.1192
G03 X101.7776 Y5.5358 I-0.1818 J0.4658
G01 X101.9515 Y7.7233
G01 X102.0253 Y9.0482
G01 X102.0590 Y9.9774
G03 X101.6884 Y14.5341 I-16.3012 J0.9674
G01 X102.5904 Y14.9388
G01 X103.3456 Y15.3392
G03 X103.5569 Y15.7194 I-0.2879 J0.4088
G01 X103.1180 Y21.6594
G03 X110.5967 Y21.5600 I4.9353 J89.9955
G01 X110.2054 Y16.6037
G01 X110.2159 Y16.4547
G03 X110.4861 Y16.1138 I0.4879 J0.1092
G01 X111.0104 Y15.9154
G01 X111.8892 Y15.6127
G01 X111.5540 Y14.2420
G01 X111.3354 Y13.1444
G03 X111.1484 Y11.2448 I13.1830 J-2.2567
G03 X111.2488 Y6.4942 I53.9632 J-1.2364
G01 X111.3256 Y5.3728
G01 X111.3733 Y5.2312
G01 X111.4975 Y5.0761
G01 X111.6253 Y4.9986
G01 X111.7703 Y4.9623
G01 X120.6924 Y4.1279
G03 X125.5111 Y1.5888 I24.8508 J41.3196
G03 X129.5291 Y0.4148 I7.9690 J19.8103
G03 X139.3499 Y-0.5000 I9.4524 J48.3047
G03 X142.5117 Y-0.3797 I0.1387 J37.9687
G01 X145.1139 Y-0.1556
G01 X148.0787 Y0.1607
G03 X148.5148 Y0.5820 I-0.0588 J0.4973
G03 X148.9291 Y3.7430 I-24.1073 J4.7678
G03 X148.7877 Y6.9028 I-20.4454 J0.6682
G03 X148.1531 Y9.2247 I-9.2362 J-1.2767
G03 X146.9425 Y11.5451 I-10.6619 J-4.0863
G03 X143.8352 Y14.1010 I-5.7705 J-3.8488
G03 X137.7831 Y15.7221 I-9.3472 J-22.7889
G03 X140.9401 Y17.1448 I-7.1326 J20.0399
G01 X141.4521 Y17.4377
G01 X142.2614 Y17.9670
G01 X143.0139 Y18.5392
G01 X143.1402 Y18.6926
G01 X143.1899 Y18.8335
G01 X145.3279 Y30.5850
G03 X162.9659 Y44.7370 I-31.7860 J57.6831
G03 X175.3162 Y64.2717 I-57.0054 J49.7115
G03 X176.9884 Y63.4072 I4.8171 J7.2688
G01 X177.3907 Y63.2783
G01 X177.7968 Y63.1788
G01 X178.2054 Y63.1056
G03 X179.8493 Y63.0142 I1.3719 J9.8472
G01 X180.6691 Y63.0477
G01 X182.2859 Y63.1623
G01 X183.0743 Y63.2024
G01 X183.8429 Y63.2052
G01 X184.2181 Y63.1869
G01 X184.7741 Y63.1259
G01 X185.1469 Y63.0461
G01 X185.7099 Y62.8753
G01 X186.6744 Y62.5311
G01 X187.0762 Y62.4032
G01 X187.7062 Y62.2603
G01 X188.1482 Y62.2192
G03 X189.7582 Y62.6109 I0.0804 J3.1744
G03 X191.5061 Y63.9042 I-2.9307 J5.7887
G03 X194.0642 Y68.3201 I-8.2992 J7.7566
G03 X194.6265 Y71.2734 I-12.5206 J3.9138
G03 X194.4027 Y73.8737 I-8.2721 J0.5977
G03 X191.9429 Y77.2500 I-5.2745 J-1.2584
G03 X190.0755 Y77.8054 I-1.8756 J-2.8895
G03 X189.0030 Y77.5440 I0.3241 J-3.6604
G01 X188.4205 Y77.2779
G01 X187.7585 Y76.9048
G01 X187.8743 Y77.5728
G01 X193.3390 Y79.1030
G01 X193.5159 Y79.1935
G03 X193.6643 Y79.7802 I-0.3117 J0.3910
G01 X192.2005 Y82.5703
G03 X199.7884 Y85.8398 I-31.3580 J83.2166
G03 X204.4125 Y88.7058 I-12.6929 J25.6422
G03 X207.7523 Y92.1673 I-8.9949 J12.0203
G03 X209.4106 Y96.0803 I-8.5870 J5.9471
G03 X209.5708 Y98.7057 I-10.0653 J1.9318
G03 X208.6385 Y101.8613 I-10.7277 J-1.4540
G03 X204.1337 Y107.1408 I-11.3377 J-5.1124
G03 X199.2279 Y109.6607 I-12.9094 J-19.0964
G01 X198.0587 Y110.0607
G01 X196.8778 Y110.4162
G01 X195.6903 Y110.7405
G01 X192.1385 Y111.6580
G01 X190.9748 Y111.9880
G01 X189.8276 Y112.3517
G02 X180.3104 Y115.9287 I86.7194 J245.1831
G01 X180.3135 Y115.9969
G01 X180.7669 Y116.6185
G01 X180.8353 Y116.7513
G01 X181.0642 Y118.0455
G01 X181.3075 Y119.6440
G01 X181.5509 Y121.5756
G03 X181.7620 Y124.8498 I-29.9395 J3.5739
G03 X181.6459 Y126.4656 I-8.8188 J0.1783
G01 X181.3272 Y127.7700
G01 X181.1278 Y128.8684
G01 X180.8553 Y130.8057
G01 X180.6315 Y132.8088
G03 X180.3244 Y133.1770 I-0.4905 J-0.0970
G01 X180.3135 Y133.9778
G01 Y133.1847
G01 Y187.4647
G01 Y187.4350
G01 X180.3479 Y187.4851
G01 X180.4975 Y187.6168
G01 X180.7512 Y187.9175
G01 X180.9605 Y188.2544
G01 X181.1372 Y188.6164
G03 X181.7004 Y190.5611 I-8.3383 J3.4687
G03 X181.7709 Y192.0383 I-5.9409 J1.0241
G01 X181.7387 Y192.3872
G01 X181.6374 Y193.0609
G01 X181.3143 Y194.6380
G01 X181.2164 Y195.2419
G01 X181.1662 Y195.8401
G01 X181.1814 Y196.4416
G01 X181.2586 Y196.9735
G03 X182.3348 Y199.0612 I-8.0365 J5.4639
G03 X182.5326 Y200.6874 I-3.4627 J1.2464
G03 X182.2595 Y201.7664 I-4.5838 J-0.5858
G01 X181.9342 Y202.4935
G01 X181.5516 Y203.1994
G01 X181.4397 Y203.2985
G01 X181.3036 Y203.3600
G01 X180.2380 Y203.5903
G03 X176.5221 Y223.7524 I-75.6254 J-3.5144
G03 X170.1494 Y237.9190 I-70.5056 J-23.1998
G02 X173.6466 Y238.4745 I3.8024 J-12.6515
G01 X174.2781 Y238.4888
G01 X175.5563 Y238.4726
G01 X176.8387 Y238.4151
G01 X179.9386 Y238.2386
G01 X181.0899 Y238.2156
G01 X181.6793 Y238.2298
G03 X182.1140 Y238.8004 I-0.0597 J0.4964
G01 X182.0461 Y238.9871
G01 X181.9108 Y239.1326
G01 X180.4913 Y240.0845
G01 X179.0923 Y240.9428
G03 X176.0744 Y242.3599 I-7.7392 J-12.5600
G03 X167.5048 Y242.1464 I-3.8754 J-16.5438
G01 X166.9674 Y242.9282
G02 X171.7635 Y246.1184 I18.8067 J-23.0739
G01 X172.9616 Y246.7488
G01 X174.1713 Y247.3461
G01 X175.9998 Y248.1984
G01 X178.4878 Y249.3198
G03 X178.4423 Y250.2098 I-0.2493 J0.4334
G01 X178.3475 Y250.2412
G01 X178.2427 Y250.2536
G01 X176.9488 Y250.2877
G01 X175.5808 Y250.2592
G01 X174.9134 Y250.2185
G03 X171.1246 Y249.5847 I1.4150 J-20.1005
G03 X164.4986 Y246.2819 I5.0299 J-18.3887
G01 X163.2096 Y247.8873
G02 X167.3632 Y249.9265 I8.7594 J-12.5917
G02 X172.4048 Y250.9240 I6.9159 J-21.7154
G02 X177.3936 Y250.9800 I2.8757 J-33.9181
G02 X185.2687 Y249.9272 I-4.0741 J-60.4519
G03 X185.7345 Y250.1643 I0.0395 J0.4984
G03 X185.5917 Y250.8395 I-0.4296 J0.2618
G03 X181.9628 Y253.2093 I-16.0216 J-20.5704
G03 X176.0302 Y255.3496 I-9.3369 J-16.5886
G03 X170.9657 Y255.4599 I-2.8988 J-16.7715
G03 X168.2769 Y254.9384 I2.7740 J-21.4971
G01 X166.9579 Y254.5674
G01 X165.6421 Y254.1428
G01 X164.7915 Y253.8472
G01 X165.3251 Y254.3455
G01 X166.3508 Y255.0465
G01 X167.4603 Y255.5968
G01 X168.6501 Y256.0114
G02 X173.9219 Y256.5769 I4.5278 J-17.3530
G01 X175.3181 Y256.5190
G01 X176.7220 Y256.4115
G01 X178.1218 Y256.2699
G01 X182.1838 Y255.7982
G01 X183.4558 Y255.6785
G01 X184.6700 Y255.6048
G01 X185.8175 Y255.5941
G01 X186.8901 Y255.6646
G01 X187.8924 Y255.8418
G03 X188.2553 Y256.3741 I-0.1346 J0.4816
G03 X187.9839 Y256.7693 I-0.4974 J-0.0508
G01 X187.1252 Y257.0954
G01 X185.6762 Y257.6910
G01 X183.1813 Y258.8162
G01 X182.0073 Y259.3263
G03 X178.8013 Y260.3455 I-7.1281 J-16.8700
G03 X174.4994 Y260.8305 I-4.8294 J-23.5140
G03 X168.6229 Y260.6439 I-1.2093 J-54.5421
G03 X166.0826 Y260.0126 I0.6818 J-8.1696
G03 X163.7756 Y258.7050 I4.7706 J-11.1060
G03 X161.6595 Y256.9714 I12.8199 J-17.8060
G01 X160.6544 Y256.0161
G01 X158.1334 Y253.4802
G01 X158.1065 Y253.4949
G01 X156.7775 Y254.7772
G01 X154.7686 Y256.6096
G01 X153.2137 Y257.9369
G01 X152.0016 Y258.9236
G01 X151.0012 Y259.7058
G01 X151.0083 Y259.7251
G02 X161.2007 Y266.1466 I20.0462 J-20.5182
G02 X167.3997 Y267.6654 I9.9301 J-27.1201
G01 X168.6843 Y267.8035
G01 X169.9886 Y267.8844
G02 X173.9775 Y267.7725 I1.1444 J-30.3575
G01 X174.0766 Y267.7852
G01 X174.2155 Y267.8402
G03 X174.3885 Y268.5364 I-0.2516 J0.4321
G01 X174.2915 Y268.6501
G01 X173.8865 Y268.9539
G01 X173.1044 Y269.4741
G03 X168.9641 Y271.1144 I-6.8108 J-11.1457
G03 X164.0331 Y271.3473 I-3.2280 J-16.0310
G03 X157.8745 Y269.9050 I2.9685 J-26.5457
G03 X153.9593 Y268.2476 I13.1274 J-36.4636
G03 X146.4552 Y262.9359 I51.2938 J-80.4210
G03 X137.7138 Y267.8827 I-41.4735 J-63.0895
G02 X144.8063 Y277.0846 I20.6467 J-8.5797
G02 X151.2676 Y280.9835 I21.9212 J-29.0244
G02 X156.1200 Y283.0597 I28.9409 J-60.9308
G01 X157.9116 Y283.7278
G01 X159.7932 Y284.3895
G01 X161.8610 Y285.0902
G03 X161.8152 Y285.9802 I-0.2494 J0.4334
G01 X161.6712 Y286.0200
G01 X160.8973 Y286.0982
G01 X159.3866 Y286.2052
G01 X158.0966 Y286.2435
G01 X156.9439 Y286.2316
G03 X153.2032 Y285.8639 I0.7460 J-26.7994
G03 X145.3619 Y283.1337 I4.4013 J-25.2661
G03 X141.1460 Y280.4490 I16.8730 J-31.1493
G03 X137.7163 Y277.4599 I13.0448 J-18.4296
G03 X135.3175 Y274.4159 I17.4338 J-16.2062
G01 X134.6454 Y273.3635
G01 X134.0205 Y272.2982
G01 X133.4326 Y271.2236
G01 X132.8078 Y270.0164
G01 X132.7887 Y270.0169
G03 X127.6355 Y271.8456 I-30.9743 J-79.1091
G01 X127.9401 Y272.4639
G01 X128.5444 Y273.5338
G02 X132.9194 Y278.8186 I20.7085 J-12.6902
G02 X136.2718 Y281.5217 I24.4142 J-26.8466
G01 X137.9857 Y282.7103
G01 X141.3314 Y284.9004
G01 X142.9352 Y285.9868
G03 X142.9115 Y286.7698 I-0.3225 J0.3821
G01 X142.7796 Y286.8402
G01 X142.6329 Y286.8684
G01 X141.7448 Y286.8545
G01 X140.8966 Y286.8014
G01 X140.0702 Y286.7110
G03 X136.9649 Y286.0071 I2.3196 J-17.4347
G03 X131.5106 Y283.2884 I7.0475 J-20.9690
G03 X128.4094 Y280.9949 I25.2834 J-37.4327
G03 X126.2143 Y278.9497 I12.8206 J-15.9603
G03 X122.2916 Y273.3003 I18.7837 J-17.2291
G03 X110.7956 Y275.0387 I-17.3454 J-75.8239
G03 X109.6733 Y284.6043 I-40.8232 J0.0590
G03 X106.6144 Y291.6735 I-21.5287 J-5.1192
G03 X101.6905 Y296.5495 I-13.6575 J-8.8673
G03 X95.3519 Y298.6322 I-7.3083 J-11.5555
G00 Z5.0000


;No. 13: Part 13
G00 X107.3797 Y189.8086 Z5.0000
G00 Z0.5000
G01 Z-1.0000 F3000
G02 X92.9478 Y204.2405 I0.0000 J14.4319 F3600
G02 X107.3797 Y218.6724 I14.4319 J0.0000
G02 X121.8115 Y204.2405 I0.0000 J-14.4319
G02 X107.3797 Y189.8086 I-14.4319 J0.0000
G01 Z-1.5000 F3000
G02 X92.9478 Y204.2405 I0.0000 J14.4319 F3600
G02 X107.3797 Y218.6724 I14.4319 J0.0000
G02 X121.8115 Y204.2405 I0.0000 J-14.4319
G02 X107.3797 Y189.8086 I-14.4319 J0.0000
G00 Z5.0000


;No. 14: Part 7
G00 X140.0881 Y148.0392 Z5.0000
G00 Z0.5000
G01 Z-1.0000 F3000
G02 X118.1040 Y146.2228 I-93.4358 J996.9175 F3600
G02 X97.5778 Y145.1456 I-37.0909 J510.6951
G02 X82.4849 Y145.1017 I-8.2501 J241.8793
G01 X79.1544 Y145.2532
G01 X76.0639 Y145.4812
G01 X73.2454 Y145.7911
G01 X70.7158 Y146.1904
G01 X70.5174 Y146.1817
G03 X70.1453 Y145.6106 I0.1205 J-0.4853
G03 X71.5579 Y140.1621 I46.9204 J9.2570
G03 X73.6268 Y134.6721 I53.3157 J16.9570
G01 X74.0813 Y133.6656
G01 X74.5911 Y132.6047
G03 X75.0060 Y132.3644 I0.4273 J0.2596
G01 X75.1894 Y132.3832
G01 X75.3327 Y132.4256
G01 X79.4081 Y134.3946
G03 X83.2552 Y134.0351 I3.4729 J16.4014
G03 X87.0344 Y134.6496 I-0.2156 J13.2546
G03 X89.9045 Y135.9224 I-3.6337 J12.0668
G03 X91.8413 Y137.5455 I-3.9457 J6.6752
G03 X95.4317 Y136.3181 I13.1953 J32.7354
G03 X98.3976 Y135.6717 I6.4924 J22.6635
G03 X103.7180 Y135.8469 I2.1740 J14.8566
G03 X107.1129 Y137.1136 I-2.0600 J10.7038
G03 X108.2346 Y137.9624 I-3.1522 J5.3317
G01 X108.8097 Y138.5641
G01 X109.4118 Y139.3032
G03 X111.0941 Y137.8073 I6.0596 J5.1207
G03 X113.2036 Y136.9096 I4.5388 J7.7392
G03 X118.6345 Y136.6208 I3.3786 J12.3240
G03 X123.5361 Y138.2545 I-2.9463 J17.0096
G03 X127.0906 Y140.7832 I-5.7904 J11.9020
G03 X131.8430 Y139.1967 I5.4172 J8.3160
G01 X132.4342 Y139.1610
G01 X133.0637 Y139.1517
G01 X133.2881 Y139.1632
G01 X133.7615 Y139.2362
G01 X134.2463 Y139.3578
G01 X134.9706 Y139.5980
G01 X135.6440 Y139.8660
G01 X136.3351 Y140.1762
G01 X136.3608 Y140.1729
G03 X137.6905 Y138.6387 I9.6544 J7.0246
G03 X138.8128 Y137.8059 I3.3377 J3.3254
G03 X139.8517 Y137.5509 I1.0777 J2.1469
G03 X141.1823 Y137.6748 I0.1480 J5.6184
G03 X141.5288 Y138.0301 I-0.1387 J0.4819
G03 X142.5697 Y141.8701 I-53.5400 J16.5744
G01 X142.8659 Y143.2143
G01 X143.1981 Y144.9623
G01 X143.4644 Y146.7033
G01 X143.5588 Y147.4927
G01 X143.5847 Y147.8735
G03 X143.1164 Y148.3159 I-0.4968 J-0.0568
G01 X140.0881 Y148.0392
G01 Z-1.5000 F3000
G02 X118.1040 Y146.2228 I-93.4358 J996.9175 F3600
G02 X97.5778 Y145.1456 I-37.0909 J510.6951
G02 X82.4849 Y145.1017 I-8.2501 J241.8793
G01 X79.1544 Y145.2532
G01 X76.0639 Y145.4812
G01 X73.2454 Y145.7911
G01 X70.7158 Y146.1904
G01 X70.5174 Y146.1817
G03 X70.1453 Y145.6106 I0.1205 J-0.4853
G03 X71.5579 Y140.1621 I46.9204 J9.2570
G03 X73.6268 Y134.6721 I53.3157 J16.9570
G01 X74.0813 Y133.6656
G01 X74.5911 Y132.6047
G03 X75.0060 Y132.3644 I0.4273 J0.2596
G01 X75.1894 Y132.3832
G01 X75.3327 Y132.4256
G01 X79.4081 Y134.3946
G03 X83.2552 Y134.0351 I3.4729 J16.4014
G03 X87.0344 Y134.6496 I-0.2156 J13.2546
G03 X89.9045 Y135.9224 I-3.6337 J12.0668
G03 X91.8413 Y137.5455 I-3.9457 J6.6752
G03 X95.4317 Y136.3181 I13.1953 J32.7354
G03 X98.3976 Y135.6717 I6.4924 J22.6635
G03 X103.7180 Y135.8469 I2.1740 J14.8566
G03 X107.1129 Y137.1136 I-2.0600 J10.7038
G03 X108.2346 Y137.9624 I-3.1522 J5.3317
G01 X108.8097 Y138.5641
G01 X109.4118 Y139.3032
G03 X111.0941 Y137.8073 I6.0596 J5.1207
G03 X113.2036 Y136.9096 I4.5388 J7.7392
G03 X118.6345 Y136.6208 I3.3786 J12.3240
G03 X123.5361 Y138.2545 I-2.9463 J17.0096
G03 X127.0906 Y140.7832 I-5.7904 J11.9020
G03 X131.8430 Y139.1967 I5.4172 J8.3160
G01 X132.4342 Y139.1610
G01 X133.0637 Y139.1517
G01 X133.2881 Y139.1632
G01 X133.7615 Y139.2362
G01 X134.2463 Y139.3578
G01 X134.9706 Y139.5980
G01 X135.6440 Y139.8660
G01 X136.3351 Y140.1762
G01 X136.3608 Y140.1729
G03 X137.6905 Y138.6387 I9.6544 J7.0246
G03 X138.8128 Y137.8059 I3.3377 J3.3254
G03 X139.8517 Y137.5509 I1.0777 J2.1469
G03 X141.1823 Y137.6748 I0.1480 J5.6184
G03 X141.5288 Y138.0301 I-0.1387 J0.4819
G03 X142.5697 Y141.8701 I-53.5400 J16.5744
G01 X142.8659 Y143.2143
G01 X143.1981 Y144.9623
G01 X143.4644 Y146.7033
G01 X143.5588 Y147.4927
G01 X143.5847 Y147.8735
G03 X143.1164 Y148.3159 I-0.4968 J-0.0568
G01 X140.0881 Y148.0392
G00 Z5.0000


;No. 15: Part 4
G00 X106.2094 Y111.8128 Z5.0000
G00 Z0.5000
G01 Z-1.0000 F3000
G03 X113.1509 Y112.3845 I0.5087 J36.2493 F3600
G03 X121.7010 Y114.6021 I-8.8227 J51.6080
G03 X126.7709 Y116.8729 I-9.8241 J28.7300
G03 X131.6157 Y120.6517 I-12.5633 J21.1024
G03 X135.8511 Y125.8385 I-23.8128 J23.7673
G03 X140.0916 Y133.9403 I-37.5251 J24.8017
G03 X142.9165 Y143.4179 I-50.3490 J20.1667
G01 X143.3447 Y145.7902
G01 X143.5228 Y146.9918
G01 X143.5925 Y147.6332
G03 X143.0908 Y148.2358 I-0.5160 J0.0806
G01 X142.3357 Y148.1963
G01 X140.4701 Y148.0500
G01 X132.0805 Y147.3143
G01 X127.4345 Y146.9311
G01 X122.8928 Y146.5820
G01 X118.4650 Y146.2675
G02 X98.3770 Y145.2207 I-40.0025 J574.3522
G02 X82.6026 Y145.0714 I-10.5056 J276.5932
G02 X75.7238 Y145.4234 I1.7135 J100.8668
G01 X73.9242 Y145.6148
G01 X72.3908 Y145.8425
G01 X71.0224 Y146.1314
G01 X70.8329 Y146.1582
G03 X70.3857 Y146.0069 I-0.0407 J-0.6162
G01 X70.2875 Y145.8907
G01 X70.2045 Y145.6903
G01 X70.1954 Y145.4495
G01 X70.2376 Y145.1994
G03 X71.8019 Y139.5007 I57.4935 J12.7184
G03 X74.6001 Y132.6395 I50.1055 J16.4329
G03 X82.3823 Y121.6598 I36.2980 J17.4796
G03 X87.1974 Y117.8236 I20.5686 J20.8769
G03 X92.3726 Y115.2257 I17.5164 J28.4408
G03 X99.5080 Y112.8908 I20.4772 J50.5065
G01 X101.2794 Y112.4801
G01 X102.9861 Y112.1574
G03 X106.2094 Y111.8128 I4.0964 J23.0719
G01 Z-1.5000 F3000
G03 X113.1509 Y112.3845 I0.5087 J36.2493 F3600
G03 X121.7010 Y114.6021 I-8.8227 J51.6080
G03 X126.7709 Y116.8729 I-9.8241 J28.7300
G03 X131.6157 Y120.6517 I-12.5633 J21.1024
G03 X135.8511 Y125.8385 I-23.8128 J23.7673
G03 X140.0916 Y133.9403 I-37.5251 J24.8017
G03 X142.9165 Y143.4179 I-50.3490 J20.1667
G01 X143.3447 Y145.7902
G01 X143.5228 Y146.9918
G01 X143.5925 Y147.6332
G03 X143.0908 Y148.2358 I-0.5160 J0.0806
G01 X142.3357 Y148.1963
G01 X140.4701 Y148.0500
G01 X132.0805 Y147.3143
G01 X127.4345 Y146.9311
G01 X122.8928 Y146.5820
G01 X118.4650 Y146.2675
G02 X98.3770 Y145.2207 I-40.0025 J574.3522
G02 X82.6026 Y145.0714 I-10.5056 J276.5932
G02 X75.7238 Y145.4234 I1.7135 J100.8668
G01 X73.9242 Y145.6148
G01 X72.3908 Y145.8425
G01 X71.0224 Y146.1314
G01 X70.8329 Y146.1582
G03 X70.3857 Y146.0069 I-0.0407 J-0.6162
G01 X70.2875 Y145.8907
G01 X70.2045 Y145.6903
G01 X70.1954 Y145.4495
G01 X70.2376 Y145.1994
G03 X71.8019 Y139.5007 I57.4935 J12.7184
G03 X74.6001 Y132.6395 I50.1055 J16.4329
G03 X82.3823 Y121.6598 I36.2980 J17.4796
G03 X87.1974 Y117.8236 I20.5686 J20.8769
G03 X92.3726 Y115.2257 I17.5164 J28.4408
G03 X99.5080 Y112.8908 I20.4772 J50.5065
G01 X101.2794 Y112.4801
G01 X102.9861 Y112.1574
G03 X106.2094 Y111.8128 I4.0964 J23.0719
G00 Z5.0000


;No. 16: Part 1
G00 X194.5260 Y97.4700 Z5.0000
G00 Z0.5000
G01 Z-1.0000 F3000
G01 X191.6086 Y97.4138 F3600
G01 X188.5593 Y97.3099
G01 X186.7277 Y97.2126
G01 X184.5686 Y97.0409
G01 X182.7876 Y96.9824
G01 X182.0420 Y96.9401
G03 X180.5545 Y96.6640 I0.5069 J-6.8774
G03 X179.4603 Y96.1692 I1.2570 J-4.2371
G01 X179.3380 Y96.0127
G01 X179.2863 Y95.8209
G01 X179.2407 Y94.3143
G01 X179.1519 Y92.7002
G03 X179.3538 Y92.2654 I0.4989 J-0.0327
G03 X179.8287 Y92.2003 I0.2971 J0.4022
G02 X184.6818 Y94.4898 I19.3482 J-34.7244
G01 X184.6975 Y94.4861
G01 X186.4671 Y91.1515
G03 X186.8915 Y90.9286 I0.4162 J0.2770
G01 X187.0389 Y90.9534
G01 X187.1803 Y91.0258
G01 X189.4096 Y92.5598
G01 X191.9880 Y94.4240
G01 X194.9162 Y96.6025
G03 X194.5260 Y97.4700 I-0.3407 J0.3683
G01 Z-1.5000 F3000
G01 X191.6086 Y97.4138 F3600
G01 X188.5593 Y97.3099
G01 X186.7277 Y97.2126
G01 X184.5686 Y97.0409
G01 X182.7876 Y96.9824
G01 X182.0420 Y96.9401
G03 X180.5545 Y96.6640 I0.5069 J-6.8774
G03 X179.4603 Y96.1692 I1.2570 J-4.2371
G01 X179.3380 Y96.0127
G01 X179.2863 Y95.8209
G01 X179.2407 Y94.3143
G01 X179.1519 Y92.7002
G03 X179.3538 Y92.2654 I0.4989 J-0.0327
G03 X179.8287 Y92.2003 I0.2971 J0.4022
G02 X184.6818 Y94.4898 I19.3482 J-34.7244
G01 X184.6975 Y94.4861
G01 X186.4671 Y91.1515
G03 X186.8915 Y90.9286 I0.4162 J0.2770
G01 X187.0389 Y90.9534
G01 X187.1803 Y91.0258
G01 X189.4096 Y92.5598
G01 X191.9880 Y94.4240
G01 X194.9162 Y96.6025
G03 X194.5260 Y97.4700 I-0.3407 J0.3683
G00 Z5.0000


;No. 17: Part 9
G00 X89.1893 Y13.0921 Z5.0000
G00 Z0.5000
G01 Z-1.0000 F3000
G03 X97.0601 Y13.4265 I2.0560 J44.4004 F3600
G03 X100.7219 Y14.1381 I-3.2840 J26.6782
G03 X102.7478 Y14.9345 I-2.0504 J8.1904
G01 X103.1047 Y15.1873
G01 X103.2278 Y15.3459
G03 X103.3789 Y16.0884 I-1.6399 J0.7202
G01 X103.4169 Y17.3462
G01 X103.3936 Y18.9095
G01 X103.3147 Y20.4544
G01 X103.2553 Y21.1189
G01 X103.1890 Y21.6136
G01 X103.2072 Y21.6167
G01 X108.0983 Y21.5571
G01 X110.7375 Y21.4916
G01 X110.5853 Y20.3939
G01 X110.2580 Y17.2132
G03 X110.5696 Y16.2147 I1.2371 J-0.1619
G03 X111.2583 Y15.7782 I1.3773 J1.4113
G01 X111.8205 Y15.5818
G01 X112.5526 Y15.3725
G03 X118.0205 Y14.2793 I11.1308 J41.4523
G03 X130.7648 Y14.1745 I6.7852 J50.2016
G03 X135.8894 Y15.1511 I-4.4081 J37.0650
G03 X140.5547 Y16.8759 I-6.8678 J25.7494
G03 X142.3041 Y17.9040 I-2.9948 J7.0981
G03 X143.2244 Y19.2387 I-2.0251 J2.3811
G01 X143.3973 Y19.7925
G01 X143.5423 Y20.4215
G01 X144.0331 Y23.0578
G01 X144.7815 Y27.4656
G01 X145.0914 Y29.4607
G01 X145.2177 Y30.4310
G01 X145.4476 Y30.6044
G01 X145.9473 Y30.9281
G01 X148.0746 Y32.2000
G01 X149.5432 Y33.1312
G01 X150.9852 Y34.1007
G03 X156.4823 Y38.3566 I-37.0424 J53.5231
G03 X166.1380 Y48.6436 I-44.7193 J51.6505
G03 X171.8912 Y57.4036 I-57.9521 J44.3296
G03 X175.4699 Y64.6195 I-105.0298 J56.5841
G01 X175.9928 Y65.8075
G01 X176.3696 Y66.7384
G01 X176.4944 Y67.0927
G01 X176.5775 Y67.3911
G01 X176.5916 Y67.6192
G01 X176.5789 Y67.7182
G03 X175.8678 Y68.0875 I-0.5264 J-0.1443
G01 X175.5949 Y67.9226
G01 X174.8289 Y67.3525
G01 X174.4155 Y67.0693
G01 X173.6097 Y66.5532
G01 X172.8558 Y66.0958
G01 X171.3701 Y65.2890
G01 X169.9560 Y64.6632
G01 X168.5884 Y64.2080
G01 X167.3373 Y63.9372
G01 X166.1394 Y63.8315
G02 X162.9563 Y64.4964 I-0.2307 J6.8480
G02 X160.3163 Y66.6454 I3.5840 J7.0987
G01 X159.5521 Y67.7097
G01 X158.8565 Y68.9396
G01 X158.2296 Y70.3378
G01 X157.6735 Y71.9019
G02 X156.4326 Y77.6414 I34.8017 J10.5280
G02 X155.9271 Y84.9675 I51.2766 J7.2189
G01 X155.9530 Y87.3342
G01 X155.9994 Y88.9402
G01 X156.0654 Y90.4799
G01 X156.1937 Y92.4977
G01 X156.2932 Y93.5328
G01 X156.3450 Y93.9241
G01 X156.4205 Y94.3053
G03 X165.4888 Y100.7612 I-64.9138 J100.7775
G03 X170.9032 Y105.3967 I-52.4361 J66.7270
G03 X176.5803 Y111.2975 I-51.4320 J55.1640
G03 X180.7069 Y116.5859 I-43.2284 J37.9861
G03 X180.9877 Y117.3524 I-2.2724 J1.2672
G01 X181.1385 Y118.1181
G01 X181.3537 Y119.5942
G03 X181.7681 Y124.9572 I-51.2560 J6.6581
G01 X181.7477 Y125.6674
G01 X181.7172 Y125.9300
G01 X180.9959 Y130.1725
G01 X180.8081 Y131.4657
G01 X180.6715 Y132.7218
G01 X180.6337 Y132.8664
G03 X179.8037 Y133.0050 I-0.4595 J-0.1972
G02 X168.9271 Y119.5496 I-52.8285 J31.5799
G02 X157.4338 Y110.7423 I-50.4697 J53.9592
G03 X156.5518 Y111.0991 I-0.5990 J-0.2121
G01 X155.9132 Y110.8674
G01 X152.8203 Y109.6206
G01 X151.1631 Y108.9771
G01 X147.8077 Y107.7328
G01 X144.4180 Y106.5517
G01 X141.0190 Y105.4412
G02 X126.2741 Y101.5136 I-47.6762 J149.3414
G02 X114.0359 Y99.6375 I-23.0965 J109.8079
G02 X104.9731 Y99.3409 I-6.9085 J72.4881
G02 X93.3964 Y100.5309 I3.3810 J89.7921
G02 X80.3508 Y103.2117 I33.1966 J194.6330
G02 X64.6195 Y107.5542 I70.7285 J286.8865
G01 X59.9393 Y109.0168
G01 X57.0777 Y109.9587
G01 X54.5162 Y110.8461
G01 X53.3732 Y111.2618
G01 X52.3489 Y111.6496
G01 X51.6219 Y111.9875
G01 X50.7893 Y112.4775
G01 X49.8769 Y113.1050
G02 X46.7478 Y115.7146 I23.0137 J30.7771
G02 X40.8936 Y121.7950 I54.2266 J58.0665
G02 X35.3604 Y128.8167 I66.3482 J57.9749
G02 X32.7222 Y132.8949 I44.3670 J31.5930
G01 X32.0146 Y134.1677
G01 X31.0813 Y135.8975
G01 X30.6363 Y136.6711
G03 X30.1077 Y136.9617 I-0.4940 J-0.2725
G03 X29.6062 Y136.5877 I0.0382 J-0.5744
G03 X29.3246 Y135.3371 I4.9201 J-1.7647
G03 X28.8884 Y128.7847 I59.4768 J-7.2505
G03 X29.0761 Y124.1019 I45.3802 J-0.5256
G03 X29.8397 Y121.0134 I10.7264 J1.0134
G03 X31.0434 Y118.6262 I20.2165 J8.6961
G01 X33.5907 Y114.3252
G01 X34.6426 Y112.5008
G03 X36.4848 Y109.7874 I21.4281 J12.5663
G01 X37.0634 Y109.0696
G01 X37.8932 Y108.1160
G01 X41.1260 Y104.5847
G01 X43.1845 Y102.3976
G03 X48.5755 Y97.2025 I62.2270 J59.1790
G01 X49.1540 Y91.3573
G02 X49.5262 Y85.4905 I-99.4041 J-9.2517
G02 X49.5084 Y80.4152 I-64.6572 J-2.3106
G02 X49.1044 Y76.1629 I-38.7714 J1.5387
G02 X48.2332 Y72.4906 I-21.1718 J3.0831
G02 X46.3479 Y68.6523 I-14.4334 J4.7073
G02 X43.7212 Y65.9243 I-9.2623 J6.2898
G02 X40.4364 Y64.3419 I-5.9715 J8.1954
G02 X38.1720 Y63.9661 I-2.9700 J10.8848
G01 X37.3629 Y63.9403
G01 X35.8462 Y63.9378
G03 X35.4754 Y63.7105 I0.0499 J-0.4975
G01 X35.4143 Y63.5741
G01 X35.3963 Y63.4257
G01 X35.5181 Y62.7256
G01 X35.6906 Y61.9962
G01 X35.9569 Y61.1358
G03 X37.6761 Y56.9622 I38.5216 J13.4265
G03 X39.5359 Y53.4648 I33.1179 J15.3677
G03 X42.4565 Y49.3842 I38.1227 J24.2007
G03 X49.0482 Y42.4816 I44.3952 J35.7969
G03 X57.1843 Y36.2862 I46.6699 J52.8484
G03 X67.3052 Y30.6044 I51.8942 J80.5833
G01 X67.3320 Y29.9627
G01 X67.3903 Y29.3853
G01 X67.5228 Y28.5122
G01 X67.8247 Y26.8007
G03 X69.1517 Y20.5695 I94.2940 J16.8234
G03 X69.6328 Y19.6074 I2.1660 J0.4819
G01 X70.0602 Y19.1471
G01 X70.5863 Y18.6988
G03 X73.5601 Y16.9676 I9.5349 J12.9595
G03 X78.7491 Y15.0273 I16.5785 J36.4270
G03 X83.5242 Y13.8358 I14.7593 J48.9884
G03 X89.1893 Y13.0921 I7.7814 J37.3232
G01 Z-1.5000 F3000
G03 X97.0601 Y13.4265 I2.0560 J44.4004 F3600
G03 X100.7219 Y14.1381 I-3.2840 J26.6782
G03 X102.7478 Y14.9345 I-2.0504 J8.1904
G01 X103.1047 Y15.1873
G01 X103.2278 Y15.3459
G03 X103.3789 Y16.0884 I-1.6399 J0.7202
G01 X103.4169 Y17.3462
G01 X103.3936 Y18.9095
G01 X103.3147 Y20.4544
G01 X103.2553 Y21.1189
G01 X103.1890 Y21.6136
G01 X103.2072 Y21.6167
G01 X108.0983 Y21.5571
G01 X110.7375 Y21.4916
G01 X110.5853 Y20.3939
G01 X110.2580 Y17.2132
G03 X110.5696 Y16.2147 I1.2371 J-0.1619
G03 X111.2583 Y15.7782 I1.3773 J1.4113
G01 X111.8205 Y15.5818
G01 X112.5526 Y15.3725
G03 X118.0205 Y14.2793 I11.1308 J41.4523
G03 X130.7648 Y14.1745 I6.7852 J50.2016
G03 X135.8894 Y15.1511 I-4.4081 J37.0650
G03 X140.5547 Y16.8759 I-6.8678 J25.7494
G03 X142.3041 Y17.9040 I-2.9948 J7.0981
G03 X143.2244 Y19.2387 I-2.0251 J2.3811
G01 X143.3973 Y19.7925
G01 X143.5423 Y20.4215
G01 X144.0331 Y23.0578
G01 X144.7815 Y27.4656
G01 X145.0914 Y29.4607
G01 X145.2177 Y30.4310
G01 X145.4476 Y30.6044
G01 X145.9473 Y30.9281
G01 X148.0746 Y32.2000
G01 X149.5432 Y33.1312
G01 X150.9852 Y34.1007
G03 X156.4823 Y38.3566 I-37.0424 J53.5231
G03 X166.1380 Y48.6436 I-44.7193 J51.6505
G03 X171.8912 Y57.4036 I-57.9521 J44.3296
G03 X175.4699 Y64.6195 I-105.0298 J56.5841
G01 X175.9928 Y65.8075
G01 X176.3696 Y66.7384
G01 X176.4944 Y67.0927
G01 X176.5775 Y67.3911
G01 X176.5916 Y67.6192
G01 X176.5789 Y67.7182
G03 X175.8678 Y68.0875 I-0.5264 J-0.1443
G01 X175.5949 Y67.9226
G01 X174.8289 Y67.3525
G01 X174.4155 Y67.0693
G01 X173.6097 Y66.5532
G01 X172.8558 Y66.0958
G01 X171.3701 Y65.2890
G01 X169.9560 Y64.6632
G01 X168.5884 Y64.2080
G01 X167.3373 Y63.9372
G01 X166.1394 Y63.8315
G02 X162.9563 Y64.4964 I-0.2307 J6.8480
G02 X160.3163 Y66.6454 I3.5840 J7.0987
G01 X159.5521 Y67.7097
G01 X158.8565 Y68.9396
G01 X158.2296 Y70.3378
G01 X157.6735 Y71.9019
G02 X156.4326 Y77.6414 I34.8017 J10.5280
G02 X155.9271 Y84.9675 I51.2766 J7.2189
G01 X155.9530 Y87.3342
G01 X155.9994 Y88.9402
G01 X156.0654 Y90.4799
G01 X156.1937 Y92.4977
G01 X156.2932 Y93.5328
G01 X156.3450 Y93.9241
G01 X156.4205 Y94.3053
G03 X165.4888 Y100.7612 I-64.9138 J100.7775
G03 X170.9032 Y105.3967 I-52.4361 J66.7270
G03 X176.5803 Y111.2975 I-51.4320 J55.1640
G03 X180.7069 Y116.5859 I-43.2284 J37.9861
G03 X180.9877 Y117.3524 I-2.2724 J1.2672
G01 X181.1385 Y118.1181
G01 X181.3537 Y119.5942
G03 X181.7681 Y124.9572 I-51.2560 J6.6581
G01 X181.7477 Y125.6674
G01 X181.7172 Y125.9300
G01 X180.9959 Y130.1725
G01 X180.8081 Y131.4657
G01 X180.6715 Y132.7218
G01 X180.6337 Y132.8664
G03 X179.8037 Y133.0050 I-0.4595 J-0.1972
G02 X168.9271 Y119.5496 I-52.8285 J31.5799
G02 X157.4338 Y110.7423 I-50.4697 J53.9592
G03 X156.5518 Y111.0991 I-0.5990 J-0.2121
G01 X155.9132 Y110.8674
G01 X152.8203 Y109.6206
G01 X151.1631 Y108.9771
G01 X147.8077 Y107.7328
G01 X144.4180 Y106.5517
G01 X141.0190 Y105.4412
G02 X126.2741 Y101.5136 I-47.6762 J149.3414
G02 X114.0359 Y99.6375 I-23.0965 J109.8079
G02 X104.9731 Y99.3409 I-6.9085 J72.4881
G02 X93.3964 Y100.5309 I3.3810 J89.7921
G02 X80.3508 Y103.2117 I33.1966 J194.6330
G02 X64.6195 Y107.5542 I70.7285 J286.8865
G01 X59.9393 Y109.0168
G01 X57.0777 Y109.9587
G01 X54.5162 Y110.8461
G01 X53.3732 Y111.2618
G01 X52.3489 Y111.6496
G01 X51.6219 Y111.9875
G01 X50.7893 Y112.4775
G01 X49.8769 Y113.1050
G02 X46.7478 Y115.7146 I23.0137 J30.7771
G02 X40.8936 Y121.7950 I54.2266 J58.0665
G02 X35.3604 Y128.8167 I66.3482 J57.9749
G02 X32.7222 Y132.8949 I44.3670 J31.5930
G01 X32.0146 Y134.1677
G01 X31.0813 Y135.8975
G01 X30.6363 Y136.6711
G03 X30.1077 Y136.9617 I-0.4940 J-0.2725
G03 X29.6062 Y136.5877 I0.0382 J-0.5744
G03 X29.3246 Y135.3371 I4.9201 J-1.7647
G03 X28.8884 Y128.7847 I59.4768 J-7.2505
G03 X29.0761 Y124.1019 I45.3802 J-0.5256
G03 X29.8397 Y121.0134 I10.7264 J1.0134
G03 X31.0434 Y118.6262 I20.2165 J8.6961
G01 X33.5907 Y114.3252
G01 X34.6426 Y112.5008
G03 X36.4848 Y109.7874 I21.4281 J12.5663
G01 X37.0634 Y109.0696
G01 X37.8932 Y108.1160
G01 X41.1260 Y104.5847
G01 X43.1845 Y102.3976
G03 X48.5755 Y97.2025 I62.2270 J59.1790
G01 X49.1540 Y91.3573
G02 X49.5262 Y85.4905 I-99.4041 J-9.2517
G02 X49.5084 Y80.4152 I-64.6572 J-2.3106
G02 X49.1044 Y76.1629 I-38.7714 J1.5387
G02 X48.2332 Y72.4906 I-21.1718 J3.0831
G02 X46.3479 Y68.6523 I-14.4334 J4.7073
G02 X43.7212 Y65.9243 I-9.2623 J6.2898
G02 X40.4364 Y64.3419 I-5.9715 J8.1954
G02 X38.1720 Y63.9661 I-2.9700 J10.8848
G01 X37.3629 Y63.9403
G01 X35.8462 Y63.9378
G03 X35.4754 Y63.7105 I0.0499 J-0.4975
G01 X35.4143 Y63.5741
G01 X35.3963 Y63.4257
G01 X35.5181 Y62.7256
G01 X35.6906 Y61.9962
G01 X35.9569 Y61.1358
G03 X37.6761 Y56.9622 I38.5216 J13.4265
G03 X39.5359 Y53.4648 I33.1179 J15.3677
G03 X42.4565 Y49.3842 I38.1227 J24.2007
G03 X49.0482 Y42.4816 I44.3952 J35.7969
G03 X57.1843 Y36.2862 I46.6699 J52.8484
G03 X67.3052 Y30.6044 I51.8942 J80.5833
G01 X67.3320 Y29.9627
G01 X67.3903 Y29.3853
G01 X67.5228 Y28.5122
G01 X67.8247 Y26.8007
G03 X69.1517 Y20.5695 I94.2940 J16.8234
G03 X69.6328 Y19.6074 I2.1660 J0.4819
G01 X70.0602 Y19.1471
G01 X70.5863 Y18.6988
G03 X73.5601 Y16.9676 I9.5349 J12.9595
G03 X78.7491 Y15.0273 I16.5785 J36.4270
G03 X83.5242 Y13.8358 I14.7593 J48.9884
G03 X89.1893 Y13.0921 I7.7814 J37.3232
G00 Z5.0000


;No. 18: Part 2
G00 X14.2434 Y98.9123 Z5.0000
G00 Z0.5000
G01 Z-1.0000 F3000
G01 X17.4882 Y96.5057 F3600
G01 X19.6838 Y94.9223
G01 X21.9285 Y93.3774
G01 X22.0633 Y93.3129
G01 X22.2111 Y93.2911
G03 X22.6310 Y93.5226 I-0.0019 J0.5000
G01 X24.4081 Y96.8574
G01 X24.4218 Y96.8615
G02 X28.1845 Y95.1578 I-15.0267 J-38.1945
G02 X30.2693 Y93.8753 I-5.3939 J-11.1039
G03 X30.7477 Y93.9064 I0.2108 J0.4534
G03 X30.9800 Y94.3258 I-0.2677 J0.4223
G01 X30.9351 Y95.6294
G01 X30.9025 Y97.3121
G01 X30.8244 Y97.4948
G01 X30.5414 Y97.8215
G01 X30.2025 Y98.1394
G01 X29.8826 Y98.3846
G03 X27.3710 Y99.2704 I-3.0028 J-4.5110
G01 X26.4572 Y99.3387
G01 X24.3836 Y99.4121
G01 X22.9350 Y99.5359
G01 X21.7714 Y99.6108
G01 X19.2789 Y99.7220
G01 X16.4304 Y99.8011
G01 X14.5674 Y99.8326
G01 X14.4217 Y99.8242
G03 X14.2434 Y98.9123 I0.0952 J-0.4920
G01 Z-1.5000 F3000
G01 X17.4882 Y96.5057 F3600
G01 X19.6838 Y94.9223
G01 X21.9285 Y93.3774
G01 X22.0633 Y93.3129
G01 X22.2111 Y93.2911
G03 X22.6310 Y93.5226 I-0.0019 J0.5000
G01 X24.4081 Y96.8574
G01 X24.4218 Y96.8615
G02 X28.1845 Y95.1578 I-15.0267 J-38.1945
G02 X30.2693 Y93.8753 I-5.3939 J-11.1039
G03 X30.7477 Y93.9064 I0.2108 J0.4534
G03 X30.9800 Y94.3258 I-0.2677 J0.4223
G01 X30.9351 Y95.6294
G01 X30.9025 Y97.3121
G01 X30.8244 Y97.4948
G01 X30.5414 Y97.8215
G01 X30.2025 Y98.1394
G01 X29.8826 Y98.3846
G03 X27.3710 Y99.2704 I-3.0028 J-4.5110
G01 X26.4572 Y99.3387
G01 X24.3836 Y99.4121
G01 X22.9350 Y99.5359
G01 X21.7714 Y99.6108
G01 X19.2789 Y99.7220
G01 X16.4304 Y99.8011
G01 X14.5674 Y99.8326
G01 X14.4217 Y99.8242
G03 X14.2434 Y98.9123 I0.0952 J-0.4920
G00 Z5.0000
G00 X0.0000 Y0.0000

M05
