;Project 02
;Created by Estlcam version 8 build 8.211
;Machining time about ?? 12:01:02 hours

G90
M03 S24000
G00 Z5.0000


;No. 1: Part 5
G00 X76.2367 Y18.0859
G00 Z0.5000
G01 Z-1.5000 F3000 S24000
G01 X76.1331 Y19.0989 F4800
G01 X76.0662 Y20.4752
G01 X76.0467 Y22.0123
G01 X76.0590 Y23.0455
G01 X76.0902 Y24.0298
G01 X76.1696 Y25.3066
G01 X76.2397 Y25.9429
G01 X76.3135 Y26.3330
G01 X76.4941 Y26.7600
G01 X76.5613 Y26.9897
G01 X76.5902 Y27.1409
G01 X76.6025 Y27.3588
G03 X75.7720 Y28.5102 I-1.2464 J-0.0238
G03 X74.4843 Y28.7083 I-1.2614 J-3.9152
G01 X71.9364 Y28.7738
G01 X71.0244 Y28.7540
G03 X70.0580 Y28.5342 I0.0784 J-2.5786
G03 X69.4410 Y27.9663 I0.5758 J-1.2446
G03 X69.2693 Y27.1212 I1.3269 J-0.7097
G01 X69.3069 Y26.8456
G01 X69.3589 Y26.6277
G01 X69.6187 Y25.8070
G01 X69.7514 Y25.2179
G02 X69.9007 Y23.2073 I-12.7549 J-1.9580
G02 X69.5750 Y18.1688 I-44.3845 J0.3392
G01 X50.7407 Y18.0888
G03 X49.4364 Y20.7359 I-22.0019 J-9.1961
G03 X47.2517 Y24.4091 I-65.4526 J-36.4435
G01 X46.2436 Y25.9555
G01 X45.5916 Y26.9016
G01 X45.1490 Y27.5136
G03 X44.1809 Y28.4984 I-3.1012 J-2.0804
G03 X42.5237 Y29.2885 I-4.0120 J-6.2824
G01 X41.2118 Y29.7460
G01 X37.2638 Y31.0411
G01 X35.9506 Y31.4994
G02 X31.2870 Y33.3807 I19.6863 J55.5218
G02 X27.5002 Y35.3751 I14.9634 J33.0030
G02 X23.7745 Y38.1404 I12.3510 J20.5336
G02 X19.1839 Y44.2112 I14.0835 J15.4206
G02 X16.8105 Y51.1900 I25.6016 J12.5996
G02 X15.9794 Y59.7336 I43.5743 J8.5513
G02 X16.1552 Y64.5730 I61.8286 J0.1765
G01 X16.3027 Y66.2675
G01 X16.8522 Y71.0673
G01 X16.8909 Y71.5113
G01 X16.8999 Y71.8430
G03 X16.1723 Y72.8195 I-1.0269 J-0.0058
G03 X15.3126 Y72.6865 I-0.2923 J-0.9563
G03 X14.8396 Y71.9388 I0.7449 J-0.9946
G03 X13.8207 Y67.5608 I77.1935 J-20.2723
G01 X13.4377 Y65.6284
G01 X13.0692 Y63.6199
G01 X12.7175 Y61.5569
G03 X10.9241 Y47.4162 I185.8340 J-30.7529
G03 X10.6459 Y42.7039 I75.1776 J-6.8017
G01 X10.6372 Y41.4623
G01 X10.6766 Y40.4086
G01 X10.7415 Y39.8279
G01 X10.7365 Y39.8117
G01 X10.1239 Y39.7811
G01 X9.5167 Y39.7307
G01 X8.1755 Y39.5791
G01 X6.8052 Y39.3803
G01 X5.7216 Y39.1860
G02 X6.1823 Y57.0750 I490.1431 J-3.6715
G02 X7.0814 Y69.7028 I227.7994 J-9.8732
G02 X8.4757 Y79.6434 I113.4244 J-10.8410
G02 X9.5461 Y84.3338 I58.1802 J-10.8104
G02 X10.8430 Y88.2611 I37.5716 J-10.2297
G01 X10.9307 Y88.7201
G01 X11.0215 Y89.3606
G03 X11.9874 Y99.2325 I-260.3335 J30.4552
G03 X11.5119 Y100.2039 I-1.1944 J0.0174
G01 X11.4655 Y100.6611
G02 X11.6279 Y105.0749 I39.5095 J0.7569
G02 X12.2301 Y110.4004 I75.6992 J-5.8641
G01 X12.4744 Y111.7888
G01 X12.5918 Y112.3168
G01 X12.7132 Y112.7617
G01 X12.8848 Y113.2101
G01 X13.0167 Y113.7415
G01 X13.1132 Y114.4325
G01 X13.1944 Y115.3854
G03 X13.4900 Y123.5558 I-220.4240 J12.0637
G01 X14.2058 Y155.4151
G01 X14.6366 Y172.1845
G02 X15.2842 Y190.5644 I780.4166 J-18.2961
G01 X15.4483 Y193.3887
G01 X15.5267 Y194.4091
G01 X15.6025 Y195.1695
G01 X15.6728 Y195.6635
G02 X17.9752 Y204.7349 I70.2058 J-12.9915
G02 X23.0335 Y216.7817 I72.2061 J-23.2328
G02 X28.4543 Y225.1714 I45.1900 J-23.2526
G01 X29.4072 Y226.3021
G01 X30.8238 Y227.8189
G01 X32.2375 Y227.6694
G01 X33.6948 Y227.5694
G03 X35.6397 Y227.6290 I0.6221 J11.4705
G03 X36.9012 Y227.9677 I-0.3517 J3.8281
G03 X37.8045 Y228.7420 I-0.8447 J1.8997
G03 X38.0461 Y230.0017 I-1.6095 J0.9616
G03 X37.5239 Y230.8178 I-1.1825 J-0.1815
G03 X36.6968 Y231.0808 I-0.9349 J-1.5076
G01 X35.9645 Y231.1352
G01 X34.3286 Y231.2069
G01 X35.3164 Y232.0425
G01 X36.6828 Y233.0967
G02 X44.0650 Y237.7314 I37.0542 J-50.8229
G01 X45.7911 Y238.6230
G01 X47.4796 Y239.4238
G02 X51.2518 Y240.8982 I13.2114 J-28.2382
G03 X52.8926 Y237.7598 I24.3544 J10.7344
G03 X54.9687 Y234.9838 I15.7449 J9.6112
G01 X55.3215 Y234.6174
G01 X55.6732 Y234.2835
G01 X56.0242 Y233.9836
G03 X57.0249 Y233.3459 I2.9508 J3.5270
G03 X58.5528 Y233.2072 I0.9264 J1.7194
G03 X59.4915 Y234.0032 I-0.5486 J1.5982
G03 X59.5264 Y235.2204 I-1.2998 J0.6463
G01 X59.3605 Y235.5550
G01 X59.0412 Y236.0136
G01 X58.7782 Y236.3304
G01 X58.0221 Y237.1576
G01 X57.4779 Y237.7932
G01 X56.9463 Y238.4689
G01 X56.4423 Y239.1620
G02 X54.9114 Y241.8441 I11.1868 J8.1634
G02 X58.5447 Y242.9537 I9.1213 J-23.3655
G02 X62.8517 Y243.7256 I7.4505 J-29.1701
G01 X63.2614 Y243.7472
G01 X63.5562 Y243.7376
G02 X63.9677 Y242.7936 I-2.4641 J-1.6357
G01 X64.1573 Y241.9845
G01 X64.3003 Y240.9932
G01 X64.3774 Y239.8998
G01 X64.4223 Y238.4440
G01 X64.4749 Y237.9227
G03 X64.8798 Y236.9704 I1.6765 J0.1505
G03 X66.1640 Y236.5336 I1.0531 J0.9899
G03 X67.4280 Y237.3266 I-0.3864 J2.0198
G03 X68.8168 Y236.0908 I3.6808 J2.7381
G03 X70.3813 Y235.8993 I1.0020 J1.7002
G03 X71.4571 Y236.7586 I-0.6542 J1.9223
G03 X71.6761 Y237.9757 I-1.3052 J0.8631
G01 X71.5769 Y238.2904
G01 X71.3704 Y238.7123
G01 X71.1028 Y239.1486
G01 X70.5874 Y239.9288
G01 X70.0603 Y240.7917
G01 X69.8218 Y241.2151
G01 X69.4033 Y242.0271
G02 X68.6087 Y244.3128 I7.0410 J3.7284
G01 X70.0356 Y244.3765
G01 X72.0239 Y244.3941
G02 X78.0174 Y244.1789 I0.5480 J-68.3141
G02 X78.1698 Y242.4440 I-5.3817 J-1.3470
G02 X77.7840 Y238.4628 I-48.8357 J2.7226
G01 X77.7476 Y237.8974
G01 X77.7541 Y237.5798
G03 X78.8596 Y236.3667 I1.2716 J0.0485
G03 X80.3449 Y236.6799 I0.3166 J2.1771
G03 X81.3817 Y237.8356 I-1.0610 J1.9949
G03 X81.6139 Y239.3582 I-5.9345 J1.6840
G01 X81.6785 Y240.5036
G01 X81.7657 Y243.0443
G01 X81.8193 Y243.9270
G02 X88.7874 Y242.6640 I-6.5523 J-56.0054
G01 X88.9310 Y241.7962
G01 X89.1538 Y240.2434
G01 X89.3059 Y239.4106
G03 X89.7856 Y237.7153 I9.6732 J1.8217
G03 X90.5117 Y236.5045 I3.4224 J1.2291
G03 X91.4992 Y235.8822 I1.6169 J1.4714
G03 X93.2261 Y236.0405 I0.6471 J2.4402
G03 X94.2228 Y237.2125 I-0.7799 J1.6729
G03 X94.2045 Y238.2964 I-1.8932 J0.5101
G01 X94.1088 Y238.5662
G01 X94.0035 Y238.7814
G01 X93.6750 Y239.2808
G01 X93.4242 Y239.8203
G02 X92.8935 Y241.5085 I10.3126 J4.1695
G01 X95.0045 Y240.7718
G01 X97.3190 Y239.9106
G02 X100.0463 Y238.7125 I-6.0487 J-17.4714
G01 X100.3624 Y238.5182
G02 X99.6642 Y237.1719 I-7.3113 J2.9372
G01 X99.1277 Y236.3605
G01 X98.5099 Y235.5285
G01 X98.0709 Y234.9906
G01 X97.0546 Y233.8504
G01 X96.6157 Y233.3006
G03 X96.1438 Y232.4349 I2.2939 J-1.8117
G03 X96.2861 Y231.2127 I1.3057 J-0.4674
G03 X97.3151 Y230.5480 I1.3332 J0.9353
G03 X98.7356 Y230.6807 I0.5086 J2.2250
G03 X100.2335 Y231.7464 I-2.0342 J4.4449
G03 X101.6749 Y233.5016 I-9.9571 J9.6461
G01 X101.9769 Y233.9398
G01 X102.5995 Y234.9061
G01 X103.5229 Y236.4586
G01 X103.7627 Y236.8365
G01 X104.1762 Y236.5881
G01 X105.0419 Y236.0163
G02 X114.0631 Y228.9114 I-63.2174 J-89.5465
G01 X113.5390 Y227.1407
G01 X113.2043 Y225.8256
G03 X112.7727 Y223.0141 I16.0592 J-3.9043
G03 X112.8761 Y221.2291 I6.8673 J-0.4978
G03 X113.5816 Y219.7990 I2.8661 J0.5250
G03 X115.0586 Y219.1709 I1.4860 J1.4436
G01 X115.6047 Y219.1734
G01 X115.8963 Y219.2388
G03 X116.4116 Y219.6914 I-0.3624 J0.9320
G01 X116.5140 Y219.9722
G01 X116.5340 Y220.1709
G02 X116.6090 Y223.9023 I38.5019 J1.0928
G02 X116.8915 Y225.8043 I10.6347 J-0.6075
G02 X120.1511 Y221.3003 I-43.9620 J-35.2480
G03 X117.7488 Y219.5664 I8.4596 J-14.2517
G03 X116.2559 Y217.8898 I4.9728 J-5.9309
G03 X115.7680 Y216.4917 I2.4244 J-1.6303
G03 X116.1573 Y215.1973 I2.1085 J-0.0716
G03 X118.0535 Y214.8577 I1.1347 J0.8721
G01 X118.4020 Y215.0754
G01 X118.7368 Y215.3392
G01 X119.0826 Y215.6530
G01 X119.9930 Y216.5451
G01 X120.7888 Y217.2261
G01 X121.5691 Y217.8111
G01 X122.1799 Y218.2016
G02 X123.2610 Y216.3969 I-10.4716 J-7.4997
G01 X123.7315 Y215.4441
G01 X124.2302 Y214.3641
G01 X124.7488 Y213.1769
G02 X127.3799 Y206.2827 I-98.2517 J-41.4466
G01 X127.8639 Y204.8395
G01 X128.3175 Y203.4173
G01 X128.7336 Y202.0341
G02 X129.6869 Y198.3080 I-46.9796 J-14.0050
G02 X130.3476 Y192.8956 I-41.7643 J-7.8447
G01 X130.5672 Y189.3897
G01 X130.7830 Y184.8192
G01 X130.9997 Y179.0404
G01 X131.2221 Y171.9080
G02 X132.3512 Y123.2737 I-6580.2663 J-177.0963
G01 X132.5015 Y118.4285
G01 X132.5988 Y116.2565
G01 X132.6671 Y115.1106
G01 X132.7765 Y113.8301
G01 X132.8611 Y113.2359
G01 X132.9399 Y112.9203
G01 X133.1033 Y112.5024
G01 X133.3016 Y111.7268
G01 X133.4157 Y111.1552
G01 X133.6419 Y109.7730
G02 X134.1848 Y104.7473 I-74.3136 J-10.5699
G02 X134.3253 Y101.1513 I-38.9071 J-3.3206
G01 X134.2771 Y100.3488
G01 X134.1456 Y99.7184
G01 X134.0850 Y99.2316
G01 X134.0507 Y98.6953
G01 X134.0458 Y97.4669
G03 X134.4437 Y92.8398 I45.9786 J1.6226
G03 X135.3181 Y87.8279 I57.9528 J7.5287
G01 X135.6888 Y86.3123
G01 X136.1590 Y84.6709
G01 X136.6691 Y82.7526
G01 X137.1347 Y80.7721
G01 X137.5586 Y78.7126
G02 X138.8853 Y69.3456 I-104.9196 J-19.6383
G02 X139.5586 Y60.4416 I-180.3750 J-18.1163
G02 X140.1012 Y42.1814 I-841.8118 J-34.1559
G01 X140.1412 Y38.9334
G03 X135.2230 Y39.8012 I-9.8786 J-41.6202
G03 X134.7918 Y49.4655 I-145.4198 J-1.6465
G03 X133.4895 Y59.6746 I-123.6196 J-10.5818
G03 X131.0882 Y71.7144 I-224.6870 J-38.5536
G03 X130.5489 Y72.5692 I-1.2331 J-0.1804
G03 X129.6572 Y72.6524 I-0.5329 J-0.8915
G03 X129.0051 Y71.7039 I0.3659 J-0.9500
G03 X129.3975 Y68.1526 I32.2523 J1.7661
G01 X129.5561 Y66.2046
G02 X129.7300 Y59.5953 I-107.6585 J-6.1392
G02 X129.5530 Y54.6604 I-57.7684 J-0.3985
G02 X128.8712 Y50.5317 I-37.5362 J4.0773
G02 X126.6593 Y44.2613 I-25.6158 J5.5107
G02 X123.0450 Y39.2276 I-18.5282 J9.4893
G02 X116.1709 Y34.2231 I-19.5323 J19.6059
G01 X114.4379 Y33.3583
G01 X112.5691 Y32.5297
G01 X110.5775 Y31.7414
G01 X108.4469 Y30.9855
G01 X104.6165 Y29.7737
G01 X103.4705 Y29.3734
G03 X101.7342 Y28.4469 I2.1139 J-6.0519
G03 X100.2398 Y26.9035 I4.9500 J-6.2879
G01 X99.3427 Y25.6952
G01 X98.3836 Y24.2759
G03 X94.8632 Y17.9271 I41.0682 J-26.9222
G01 X88.3041 Y18.0012
G01 X76.2367 Y18.0859
G00 Z5.0000


;No. 2: Part 7
G00 X70.0150 Y48.8837 Z5.0000
G00 Z0.5000
G01 Z-1.5000 F3000
G02 X63.3066 Y50.9648 I0.5844 J13.7364 F4800
G02 X58.1181 Y56.7538 I7.6360 J12.0637
G02 X56.8735 Y60.0446 I17.4976 J8.4983
G02 X55.8541 Y65.2925 I34.8177 J9.4857
G02 X55.6039 Y69.6931 I34.9036 J4.1919
G02 X55.6876 Y77.5647 I147.0671 J2.3731
G03 X63.7329 Y75.4625 I14.7123 J39.8587
G03 X71.9729 Y74.8095 I8.1945 J51.0862
G03 X80.1786 Y75.4661 I0.0723 J50.6998
G03 X88.0973 Y77.5622 I-6.3799 J40.1078
G02 X88.2757 Y70.6526 I-81.9965 J-5.5748
G02 X87.9012 Y65.1303 I-50.8137 J0.6723
G02 X86.9994 Y60.4868 I-31.9066 J3.7871
G02 X84.9886 Y55.6033 I-19.2935 J5.0886
G02 X78.9096 Y50.1040 I-11.5317 J6.6378
G02 X74.9485 Y49.0571 I-5.8726 J14.2032
G02 X70.0150 Y48.8837 I-3.3766 J25.7968
G00 Z5.0000


;No. 3: Part 8
G00 X50.1794 Y85.3016 Z5.0000
G00 Z0.5000
G01 Z-1.5000 F3000
G02 X46.6017 Y88.8793 I0.0000 J3.5777 F4800
G02 X50.1794 Y92.4571 I3.5777 J0.0000
G02 X53.7572 Y88.8793 I0.0000 J-3.5777
G02 X50.1794 Y85.3016 I-3.5777 J0.0000
G00 Z5.0000


;No. 4: Part 9
G00 X95.3399 Y85.3019 Z5.0000
G00 Z0.5000
G01 Z-1.5000 F3000
G02 X91.7629 Y88.8789 I0.0000 J3.5770 F4800
G02 X95.3399 Y92.4558 I3.5770 J0.0000
G02 X98.9168 Y88.8789 I0.0000 J-3.5770
G02 X95.3399 Y85.3019 I-3.5770 J0.0000
G00 Z5.0000


;No. 5: Part 15
G00 X73.0232 Y154.9818 Z5.0000
G00 Z0.5000
G01 Z-1.5000 F3000
G02 X72.5908 Y155.2496 I0.1397 J0.7086 F4800
G01 X72.5043 Y155.4388
G01 X72.4024 Y155.8417
G01 X72.3508 Y155.9750
G01 X72.2414 Y156.1772
G01 X72.1608 Y156.2847
G03 X71.5565 Y156.7098 I-1.1284 J-0.9620
G01 X71.2257 Y156.8085
G01 X70.8714 Y156.8782
G01 X68.0310 Y157.2571
G01 X67.2107 Y157.4002
G01 X66.3721 Y157.5741
G01 X65.5296 Y157.7760
G02 X59.6113 Y159.9118 I8.5405 J32.9328
G02 X55.6685 Y162.0822 I14.1759 J30.4190
G02 X52.2431 Y164.6369 I17.4029 J26.9083
G01 X52.0014 Y164.8013
G01 X51.7297 Y164.9463
G03 X50.8312 Y165.0475 I-0.6065 J-1.3451
G01 X50.6663 Y165.0017
G01 X50.4758 Y164.9237
G01 X50.2427 Y164.7867
G01 X49.9840 Y164.6066
G01 X49.9227 Y164.5746
G01 X49.8064 Y164.5450
G02 X49.3219 Y164.7348 I-0.0060 J0.6980
G02 X48.9343 Y165.5842 I0.7532 J0.8567
G01 X48.9536 Y165.7632
G01 X48.9890 Y165.8925
G01 X49.3200 Y166.6057
G01 X49.3825 Y166.7953
G03 X49.2924 Y167.4752 I-0.9763 J0.2166
G01 X49.1827 Y167.6420
G01 X48.0737 Y169.0164
G01 X47.1248 Y170.2978
G01 X46.2148 Y171.6594
G01 X45.3605 Y173.0732
G02 X42.4534 Y179.6118 I30.1167 J17.3057
G01 X42.2845 Y179.8583
G01 X42.0502 Y180.0439
G01 X41.7715 Y180.1519
G01 X41.5733 Y180.1758
G01 X40.1743 Y180.0743
G01 X39.7477 Y180.0871
G02 X38.6227 Y180.3764 I0.2837 J3.4352
G02 X37.7265 Y180.9927 I1.2396 J2.7625
G01 X37.4906 Y181.2605
G01 X37.2992 Y181.5414
G01 X36.8722 Y182.3627
G01 X36.7581 Y182.5266
G01 X36.5319 Y182.7220
G01 X36.2581 Y182.8418
G01 X21.4615 Y185.2763
G01 X15.3268 Y186.3057
G02 X15.2010 Y188.6197 I15.3935 J1.9977
G02 X15.3868 Y191.9870 I22.3791 J0.4535
G01 X31.2766 Y194.6135
G01 X33.9949 Y195.0887
G01 X35.2429 Y195.3381
G01 X36.0327 Y195.5454
G01 X36.3978 Y195.6931
G01 X36.6122 Y195.8188
G01 X36.8761 Y196.0552
G01 X37.3286 Y196.6530
G01 X37.6897 Y197.0545
G01 X37.8797 Y197.2357
G02 X38.9636 Y197.9272 I2.4194 J-2.5970
G02 X39.9398 Y198.1205 I1.0327 J-2.6541
G02 X41.4576 Y197.8831 I-0.1519 J-5.9414
G01 X41.7556 Y197.9067
G01 X42.0332 Y198.0173
G01 X42.2658 Y198.2050
G01 X42.4325 Y198.4531
G01 X43.1971 Y200.5745
G01 X43.7547 Y201.9410
G02 X45.3803 Y205.1341 I29.5444 J-13.0305
G01 X46.1980 Y206.4706
G01 X47.0772 Y207.7679
G01 X47.6935 Y208.6042
G01 X49.1898 Y210.5088
G01 X49.2954 Y210.6783
G03 X49.3685 Y211.3601 I-0.8974 J0.4411
G01 X49.3013 Y211.5482
G01 X48.9727 Y212.2568
G01 X48.9314 Y212.3893
G01 X48.9027 Y212.5872
G02 X49.2049 Y213.3143 I0.8610 J0.0684
G02 X49.7536 Y213.5037 I0.5313 J-0.6498
G01 X49.9556 Y213.4812
G01 X50.0980 Y213.4412
G03 X50.9388 Y213.1267 I1.1803 J1.8735
G03 X51.6754 Y213.2198 I0.1899 J1.4580
G01 X51.9251 Y213.3362
G01 X52.3199 Y213.5900
G02 X56.4045 Y216.5225 I24.8491 J-30.3005
G02 X59.6873 Y218.3038 I17.3715 J-28.0987
G02 X64.8959 Y220.2390 I13.9161 J-29.4778
G01 X65.7876 Y220.4720
G01 X66.6839 Y220.6786
G01 X67.5839 Y220.8585
G02 X70.9290 Y221.3077 I7.0172 J-39.5724
G01 X71.2443 Y221.3641
G01 X71.5444 Y221.4463
G03 X72.2475 Y221.9625 I-0.3907 J1.2692
G01 X72.3523 Y222.1610
G01 X72.3853 Y222.2553
G01 X72.4295 Y222.4720
G01 X72.4512 Y222.7343
G01 X72.4794 Y222.8260
G01 X72.4669 Y222.7867
G01 X72.5167 Y222.8959
G01 X72.4950 Y222.8561
G01 X72.5629 Y222.9551
G01 X72.6216 Y223.0106
G01 X72.5856 Y222.9799
G02 X73.2841 Y223.2180 I0.6553 J-0.7788
G02 X73.9937 Y222.9571 I0.0261 J-1.0247
G01 X74.0677 Y222.8683
G01 X74.1446 Y222.7280
G01 X74.1250 Y222.7732
G01 X74.3180 Y222.2324
G01 X74.4861 Y221.9569
G03 X75.1479 Y221.4734 I1.1690 J0.9055
G01 X75.3750 Y221.4016
G01 X75.7042 Y221.3327
G01 X78.2116 Y220.9730
G01 X79.4697 Y220.7605
G01 X80.3282 Y220.5833
G01 X81.4589 Y220.3088
G02 X86.5384 Y218.5054 I-7.7020 J-29.7498
G02 X90.7548 Y216.1992 I-13.6406 J-29.9459
G02 X94.4039 Y213.4990 I-21.6160 J-33.0281
G01 X94.6447 Y213.3376
G01 X94.9145 Y213.1958
G03 X95.7239 Y213.0946 I0.5745 J1.3072
G01 X95.9911 Y213.1668
G01 X96.5427 Y213.4445
G01 X96.4935 Y213.4233
G01 X96.6645 Y213.4796
G01 X96.7784 Y213.4943
G02 X97.3869 Y213.2904 I0.0328 J-0.9124
G02 X97.7941 Y212.5680 I-0.5724 J-0.7985
G01 X97.7854 Y212.4282
G01 X97.7357 Y212.2499
G03 X97.3770 Y211.4239 I1.4239 J-1.1091
G03 X97.5133 Y210.6023 I1.4319 J-0.1845
G01 X97.6541 Y210.3476
G01 X97.9086 Y209.9815
G01 X99.1606 Y208.3815
G01 X99.7604 Y207.5609
G01 X100.6001 Y206.3113
G01 X101.1217 Y205.4632
G01 X101.8493 Y204.1641
G01 X102.5145 Y202.8269
G01 X103.1206 Y201.4454
G01 X103.8076 Y199.6830
G01 X104.1272 Y198.9642
G03 X104.8164 Y198.1781 I1.5878 J0.6969
G01 X105.0086 Y198.0919
G01 X105.3043 Y198.0280
G01 X105.4871 Y198.0242
G01 X105.8774 Y198.0630
G01 X106.4273 Y198.0814
G01 X106.6793 Y198.0711
G01 X107.1597 Y198.0136
G01 X107.6318 Y197.9029
G01 X108.0241 Y197.7585
G01 X108.2324 Y197.6595
G02 X109.0277 Y197.0567 I-1.3511 J-2.6085
G01 X109.2663 Y196.7619
G01 X109.3868 Y196.5779
G01 X109.7359 Y195.9168
G01 X109.8500 Y195.7529
G01 X110.0762 Y195.5575
G01 X110.3500 Y195.4377
G01 X125.1446 Y193.0052
G01 X131.2980 Y191.9734
G01 X131.3109 Y191.9648
G01 X131.3183 Y191.8120
G01 X131.3358 Y191.0916
G01 X131.3430 Y188.2393
G01 X131.3312 Y186.9173
G01 X131.3104 Y186.3082
G01 X115.1560 Y183.6231
G01 X112.4215 Y183.1431
G01 X111.2133 Y182.8961
G03 X109.9766 Y182.4168 I0.4470 J-2.9887
G01 X109.8415 Y182.2990
G01 X109.6834 Y182.1061
G02 X109.0438 Y181.1419 I-3.0047 J1.2988
G02 X107.8950 Y180.3613 I-2.4926 J2.4327
G02 X106.8911 Y180.1006 I-1.3782 J3.2442
G01 X106.4874 Y180.0839
G01 X105.0742 Y180.1899
G01 X104.7803 Y180.1355
G01 X104.5991 Y180.0517
G01 X104.3672 Y179.8631
G01 X104.2015 Y179.6144
G02 X101.5384 Y173.5163 I-30.6636 J9.7605
G01 X100.7093 Y172.1122
G01 X99.8281 Y170.7619
G01 X98.9150 Y169.5001
G01 X97.8201 Y168.0895
G01 X97.6458 Y167.8327
G01 X97.4972 Y167.5672
G03 X97.3622 Y166.6692 I1.2793 J-0.6515
G01 X97.4046 Y166.5018
G01 X97.4766 Y166.3169
G01 X97.7080 Y165.9175
G01 X97.7743 Y165.7502
G01 X97.7551 Y165.8115
G01 X97.7974 Y165.6365
G01 X97.8030 Y165.5308
G02 X97.4473 Y164.8708 I-0.8740 J0.0451
G02 X96.7718 Y164.6719 I-0.5986 J0.7865
G01 X96.4952 Y164.7316
G01 X95.7637 Y165.0697
G01 X95.5740 Y165.1320
G01 X95.2758 Y165.1520
G01 X94.9850 Y165.0830
G01 X94.7275 Y164.9311
G01 X92.9067 Y163.4664
G01 X92.2016 Y162.9433
G01 X91.4797 Y162.4396
G01 X90.7386 Y161.9529
G02 X86.8074 Y159.8040 I-18.2224 J28.6660
G02 X80.9954 Y157.7339 I-13.7888 J29.5198
G01 X80.1602 Y157.5386
G01 X79.3308 Y157.3713
G01 X78.5188 Y157.2339
G01 X75.6994 Y156.8709
G01 X75.3539 Y156.8062
G01 X75.0311 Y156.7142
G03 X74.3582 Y156.1875 I0.4274 J-1.2392
G01 X74.2670 Y156.0098
G01 X74.1994 Y155.7913
G01 X74.1751 Y155.6267
G01 X74.1587 Y155.3428
G01 X74.1707 Y155.3871
G01 X74.1294 Y155.2923
G01 X74.1610 Y155.3493
G01 X74.1071 Y155.2651
G01 X74.0340 Y155.1922
G02 X73.0232 Y154.9818 I-0.6889 J0.7762
G00 Z5.0000


;No. 6: Part 16
G00 X73.0476 Y165.0564 Z5.0000
G00 Z0.5000
G01 Z-1.5000 F3000
G02 X48.9846 Y189.1194 I0.0000 J24.0630 F4800
G02 X73.0476 Y213.1824 I24.0630 J0.0000
G02 X97.1106 Y189.1194 I0.0000 J-24.0630
G02 X73.0476 Y165.0564 I-24.0630 J0.0000
G00 Z5.0000


;No. 7: Part 13
G00 X73.5611 Y174.8007 Z5.0000
G00 Z0.5000
G01 Z-1.5000 F3000
G02 X58.2719 Y190.0900 I0.0000 J15.2892 F4800
G02 X73.5611 Y205.3792 I15.2892 J0.0000
G02 X88.8503 Y190.0900 I0.0000 J-15.2892
G02 X73.5611 Y174.8007 I-15.2892 J0.0000
G00 Z5.0000


;No. 8: Part 10
G00 X73.3414 Y181.1369 Z5.0000
G00 Z0.5000
G01 Z-1.5000 F3000
G02 X64.4994 Y189.9789 I0.0000 J8.8420 F4800
G02 X73.3414 Y198.8209 I8.8420 J0.0000
G02 X82.1834 Y189.9789 I0.0000 J-8.8420
G02 X73.3414 Y181.1369 I-8.8420 J0.0000
G00 Z5.0000


;No. 9: Part 3
G00 X73.1348 Y181.2089 Z5.0000
G00 Z0.5000
G01 Z-1.5000 F3000
G02 X69.4812 Y182.0305 I0.0422 J8.7219 F4800
G02 X66.9511 Y183.6808 I3.7783 J8.5574
G02 X64.1041 Y190.1192 I5.7950 J6.4110
G02 X66.7596 Y196.1749 I8.5887 J-0.1561
G02 X72.8348 Y198.7756 I6.2008 J-6.0887
G02 X79.2901 Y195.9886 I0.0842 J-8.6743
G02 X81.6569 Y189.9090 I-6.6633 J-6.0945
G02 X78.9823 Y183.8514 I-8.9733 J0.3427
G02 X76.2580 Y181.9334 I-6.6317 J6.5260
G02 X73.1348 Y181.2089 I-3.2374 J6.8617
G00 Z5.0000


;No. 10: Part 1
G00 X65.9651 Y245.1875 Z5.0000
G00 Z0.5000
G01 Z-1.5000 F3000
G01 X65.1752 Y246.0511 F4800
G01 X64.9146 Y247.7884
G01 X65.2671 Y247.0361
G01 X65.8056 Y245.6571
G01 X65.9651 Y245.1875
G00 Z5.0000


;No. 11: Part 17
G00 X106.7731 Y200.1692 Z5.0000
G00 Z0.5000
G01 Z-1.5000 F3000
G01 X106.1486 Y200.1817 F4800
G01 X105.5269 Y200.1164
G01 X105.5196 Y200.1286
G03 X99.1964 Y211.2765 I-32.4260 J-11.0251
G03 X98.3118 Y215.0542 I-2.6079 J1.3818
G03 X96.8185 Y215.5989 I-1.7157 J-2.3845
G03 X95.2221 Y215.2676 I-0.2281 J-2.9127
G01 X95.0309 Y215.4147
G01 X95.2104 Y215.2622
G03 X85.2640 Y221.1601 I-22.1995 J-26.1017
G03 X75.8556 Y223.2909 I-12.1019 J-31.5989
G01 X76.0623 Y223.2754
G01 X75.8434 Y223.3450
G03 X75.1308 Y224.4975 I-2.7951 J-0.9318
G03 X73.7543 Y225.2748 I-2.0822 J-2.0797
G03 X70.2350 Y223.2877 I-0.7071 J-2.8578
G03 X59.7714 Y220.7342 I2.6758 J-33.6796
G03 X50.8900 Y215.2635 I13.2836 J-31.5101
G01 X51.0333 Y215.3871
G01 X50.8851 Y215.2611
G03 X49.9527 Y215.5730 I-1.3648 J-2.5304
G03 X48.8296 Y215.5299 I-0.4502 J-2.9209
G03 X47.1096 Y214.3803 I0.6732 J-2.8689
G03 X46.5649 Y212.8867 I2.3851 J-1.7159
G03 X46.8961 Y211.2899 I2.9139 J-0.2282
G01 X46.7573 Y211.1120
G01 X46.9038 Y211.2825
G03 X40.5697 Y200.1115 I26.0874 J-22.1733
G03 X34.7823 Y196.6060 I-0.8363 J-5.1495
G03 X34.5161 Y194.9723 I4.9312 J-1.6421
G01 Y183.2602
G03 X34.9270 Y181.2428 I5.2014 J0.0088
G03 X40.5683 Y178.1160 I4.8100 J2.0257
G03 X46.8987 Y166.9559 I32.5046 J11.0621
G03 X47.7834 Y163.1771 I2.6095 J-1.3820
G03 X49.2769 Y162.6324 I1.7158 J2.3844
G03 X50.8735 Y162.9637 I0.2282 J2.9126
G01 X51.0517 Y162.8277
G01 X50.8850 Y162.9693
G03 X58.7296 Y157.9563 I22.2185 J26.1242
G03 X70.2395 Y154.9403 I14.2052 J30.7405
G01 X70.0324 Y154.9559
G01 X70.2515 Y154.8863
G03 X71.3068 Y153.4401 I2.7988 J0.9341
G03 X73.0472 Y152.8712 I1.7373 J2.3683
G03 X75.8600 Y154.9435 I0.0020 J2.9424
G03 X86.3238 Y157.4964 I-2.6717 J33.6721
G03 X95.2102 Y162.9702 I-13.3030 J31.5472
G03 X98.9857 Y163.8510 I1.3848 J2.5960
G03 X99.5304 Y165.3446 I-2.3849 J1.7159
G03 X99.1991 Y166.9413 I-2.9135 J0.2282
G01 X99.3359 Y167.1178
G01 X99.1913 Y166.9494
G03 X105.5254 Y178.1212 I-26.0715 J22.1636
G03 X111.4277 Y182.0237 I0.8367 J5.1492
G03 X111.5790 Y183.2602 I-5.0141 J1.2411
G01 Y194.9723
G03 X111.4277 Y196.2090 I-5.1963 J-0.0081
G03 X106.7731 Y200.1692 I-5.0827 J-1.2585
G00 Z5.0000


;No. 12: Part 11
G00 X103.0081 Y189.9227 Z5.0000
G00 Z0.5000
G01 Z-1.5000 F3000
G03 X100.6154 Y198.5038 I-16.8479 J-0.0736 F4800
G01 X99.6157 Y200.0298
G01 X98.4639 Y201.4827
G03 X94.1812 Y205.3554 I-18.7716 J-16.4542
G03 X84.7590 Y209.9137 I-18.6915 J-26.6190
G03 X73.2890 Y211.5753 I-11.3763 J-38.1113
G03 X66.2129 Y210.9614 I-0.0521 J-40.4907
G03 X57.7533 Y208.4031 I6.2354 J-35.8842
G03 X50.8401 Y204.1501 I11.8238 J-26.9646
G03 X45.9631 Y198.5038 I13.9439 J-16.9735
G03 X43.6781 Y191.8357 I14.5836 J-8.7228
G01 X43.5715 Y189.9027
G01 X43.6762 Y188.1341
G01 X43.9805 Y186.3731
G03 X46.9628 Y179.9282 I17.4055 J4.1418
G03 X52.3973 Y174.6027 I19.1027 J14.0579
G03 X59.7417 Y170.7444 I18.1199 J25.5729
G03 X68.5142 Y168.6592 I13.0708 J35.4942
G03 X84.7590 Y170.0444 I4.7748 J39.9502
G03 X92.5049 Y173.4890 I-9.4905 J31.7732
G03 X98.4639 Y178.4753 I-13.2466 J21.8843
G03 X102.1024 Y184.6554 I-14.1894 J12.5151
G03 X103.0081 Y189.9227 I-15.1762 J5.3211
G00 Z5.0000


;No. 13: Part 12
G00 X73.5570 Y179.2506 Z5.0000
G00 Z0.5000
G01 Z-1.5000 F3000
G02 X62.7143 Y190.0933 I0.0000 J10.8427 F4800
G02 X73.5570 Y200.9361 I10.8427 J0.0000
G02 X84.3997 Y190.0933 I0.0000 J-10.8427
G02 X73.5570 Y179.2506 I-10.8427 J0.0000
G00 Z5.0000


;No. 14: Part 14
G00 X71.2650 Y163.1089 Z5.0000
G00 Z0.5000
G01 Z-1.5000 F3000
G03 X75.2543 Y163.1140 I1.9749 J15.3614 F4800
G01 X78.2054 Y163.5222
G01 X80.9907 Y164.2158
G01 X83.6198 Y165.1788
G01 X86.0817 Y166.3915
G01 X88.3660 Y167.8342
G01 X90.4624 Y169.4870
G01 X92.3614 Y171.3300
G01 X93.9929 Y173.2639
G01 X95.5051 Y175.4637
G01 X96.7600 Y177.7571
G01 X97.7807 Y180.1634
G01 X98.5676 Y182.7122
G01 X99.0865 Y185.2868
G01 X99.3378 Y187.8160
G01 X99.3268 Y190.5798
G01 X99.0294 Y193.2589
G01 X98.4409 Y195.9331
G01 X97.5889 Y198.4889
G01 X96.3556 Y201.1852
G01 X94.8972 Y203.6388
G01 X93.0859 Y206.0529
G01 X91.1390 Y208.1161
G01 X89.0258 Y209.9098
G01 X86.7701 Y211.4342
G01 X84.4860 Y212.6478
G01 X82.0199 Y213.6467
G01 X79.4805 Y214.3805
G01 X76.8413 Y214.8599
G01 X74.2232 Y215.0642
G01 X71.5996 Y215.0091
G01 X68.9926 Y214.6964
G01 X66.4243 Y214.1275
G01 X63.8714 Y213.2837
G01 X61.4503 Y212.2025
G01 X59.1355 Y210.8695
G01 X56.9500 Y209.2865
G01 X54.9877 Y207.5254
G01 X53.0590 Y205.3772
G01 X51.4541 Y203.1400
G01 X49.9628 Y200.4943
G01 X48.9027 Y198.0299
G01 X48.1442 Y195.6298
G01 X47.6173 Y193.1170
G01 X47.3435 Y190.5528
G03 X48.6917 Y180.8049 I25.9007 J-1.3849
G03 X53.4516 Y172.3152 I25.2177 J8.5595
G03 X61.0624 Y166.0843 I19.9134 J16.5597
G01 X63.3916 Y164.9822
G01 X65.8081 Y164.1233
G03 X71.2650 Y163.1089 I7.7439 J26.4731
G00 Z5.0000


;No. 15: Part 4
G00 X72.7963 Y134.0931 Z5.0000
G00 Z0.5000
G01 Z-1.5000 F3000
G03 X83.1925 Y135.3545 I-0.6620 J48.9285 F4800
G03 X87.6165 Y136.7033 I-7.7972 J33.5045
G03 X91.3771 Y138.4960 I-8.4919 J22.6543
G03 X94.3603 Y140.7241 I-7.9617 J13.7707
G03 X96.4145 Y143.3797 I-7.3299 J7.7924
G03 X97.1785 Y145.8183 I-4.8591 J2.8612
G03 X97.0235 Y146.6858 I-1.9712 J0.0955
G03 X96.4653 Y147.2890 I-1.1610 J-0.5146
G03 X94.8955 Y147.0323 I-0.5991 J-1.2642
G01 X94.6120 Y146.7582
G01 X94.3948 Y146.4914
G01 X94.1824 Y146.1863
G01 X93.5476 Y145.1757
G01 X93.0069 Y144.4814
G02 X91.0272 Y142.6754 I-8.8199 J7.6805
G02 X86.2516 Y140.2379 I-11.0841 J15.8195
G02 X79.8195 Y138.6868 I-11.2706 J32.6247
G02 X71.9444 Y138.1460 I-7.6766 J54.1777
G02 X64.2604 Y138.6804 I-0.2245 J52.2884
G02 X56.6798 Y140.6221 I4.4228 J33.0359
G02 X52.0843 Y143.1519 I6.5058 J17.2568
G02 X50.1860 Y144.9846 I6.7443 J8.8853
G01 X49.6776 Y145.6782
G01 X49.0491 Y146.5871
G01 X48.8373 Y146.8591
G01 X48.6221 Y147.0974
G03 X47.6503 Y147.5444 I-1.0095 J-0.9149
G03 X46.7357 Y147.1022 I0.0143 J-1.1966
G03 X46.2551 Y145.8553 I1.7337 J-1.3843
G03 X46.4549 Y144.8195 I2.5591 J-0.0435
G03 X47.3239 Y143.0819 I10.1877 J4.0092
G03 X49.2904 Y140.7635 I9.7404 J6.2685
G03 X52.9602 Y138.1945 I12.4743 J13.9137
G03 X61.6381 Y135.0769 I15.4808 J29.4550
G03 X72.7963 Y134.0931 I9.6649 J45.8469
G00 Z5.0000


;No. 16: Part 6
G00 X103.7925 Y59.9335 Z5.0000
G00 Z0.5000
G01 Z-1.5000 F3000
G01 X103.5806 Y67.8783 F4800
G01 X103.3533 Y75.3379
G01 X103.1108 Y81.7515
G01 X102.9710 Y84.1630
G01 X115.4917 Y90.8579
G02 X119.9568 Y93.3522 I18.6337 J-28.1136
G01 X121.1102 Y93.8458
G01 X121.6951 Y94.0680
G01 X122.2907 Y94.2725
G01 X122.8858 Y94.4526
G01 X123.4659 Y94.6016
G03 X126.2314 Y95.2484 I-4.5476 J25.6809
G01 X127.0041 Y95.4828
G01 X128.5761 Y96.0115
G03 X132.9831 Y97.7475 I-26.3922 J73.4610
G01 X134.1482 Y98.2536
G01 X135.6533 Y98.9351
G01 X135.9556 Y99.0826
G01 X136.1157 Y99.2020
G03 X136.4323 Y99.8103 I-0.6749 J0.7379
G01 X136.4264 Y100.5588
G01 X136.3696 Y101.7762
G03 X135.4803 Y110.3223 I-108.5128 J-6.9725
G01 X135.1058 Y112.8290
G01 X134.8874 Y114.1745
G01 X134.8359 Y114.3675
G03 X133.9102 Y115.0143 I-0.9356 J-0.3531
G03 X133.1232 Y114.6436 I-0.0099 J-1.0000
G01 X133.0136 Y114.4767
G01 X132.6551 Y113.7300
G01 X132.2397 Y112.9590
G01 X131.6653 Y112.0048
G02 X130.0763 Y109.8638 I-15.3947 J9.7653
G02 X127.3628 Y107.5267 I-8.4587 J7.0772
G01 X126.7880 Y107.2190
G01 X126.1589 Y106.9542
G01 X125.4345 Y106.7402
G01 X124.6317 Y106.5360
G01 X123.7483 Y106.2823
G01 X122.8282 Y105.9932
G01 X121.8790 Y105.6736
G03 X116.9841 Y103.7803 I28.2508 J-80.3140
G01 X114.2354 Y102.5779
G01 X111.9125 Y101.4805
G01 X110.7114 Y100.8669
G01 X110.2360 Y100.6063
G01 X109.8463 Y100.3763
G01 X109.3956 Y100.0755
G01 X109.0990 Y99.9092
G01 X108.7025 Y99.7059
G01 X107.6820 Y99.2237
G01 X105.0986 Y98.0987
G01 X101.3779 Y96.5721
G01 X101.3737 Y96.9271
G01 X101.3538 Y97.1257
G01 X101.2513 Y97.4065
G01 X101.1386 Y97.5713
G03 X100.3445 Y97.9266 I-0.7648 J-0.6442
G02 X86.1114 Y96.7482 I-55.2112 J580.3143
G02 X72.8155 Y96.0255 I-27.0251 J374.4983
G02 X45.2187 Y97.9271 I19.6951 J487.0252
G03 X44.4363 Y97.5468 I0.0023 J-1.0000
G03 X44.2211 Y96.5671 I1.0786 J-0.7505
G01 X40.4967 Y98.0987
G01 X37.9135 Y99.2236
G01 X36.8931 Y99.7059
G01 X36.5003 Y99.9072
G01 X36.2258 Y100.0598
G01 X35.7488 Y100.3764
G01 X35.3592 Y100.6061
G01 X34.8839 Y100.8665
G01 X33.6828 Y101.4800
G01 X31.3598 Y102.5773
G01 X28.6109 Y103.7798
G03 X23.7156 Y105.6734 I-31.9966 J-75.4406
G03 X19.4979 Y106.9321 I-16.1256 J-46.3422
G01 X18.8571 Y107.1950
G01 X18.2374 Y107.5229
G02 X16.5235 Y108.8198 I5.2389 J8.7045
G02 X15.0755 Y110.3961 I10.1036 J10.7345
G01 X14.6423 Y110.9634
G01 X14.2740 Y111.4834
G01 X13.9297 Y112.0047
G02 X12.5652 Y114.5068 I17.0359 J10.9131
G01 X12.3808 Y114.7420
G03 X10.8304 Y114.5169 I-0.6859 J-0.7277
G01 X10.7478 Y114.3351
G01 X10.7046 Y114.1548
G01 X10.4894 Y112.8289
G01 X10.1150 Y110.3220
G01 X9.6959 Y107.0512
G01 X9.4208 Y104.3803
G03 X9.1546 Y99.9479 I61.6157 J-5.9249
G03 X9.4521 Y99.2281 I1.0000 J-0.0080
G01 X9.6075 Y99.1028
G01 X9.7830 Y99.0095
G01 X10.9561 Y98.4722
G01 X12.6120 Y97.7475
G01 X14.7017 Y96.8858
G01 X16.2338 Y96.2967
G01 X17.0190 Y96.0115
G01 X18.5911 Y95.4828
G01 X19.3638 Y95.2484
G03 X22.1245 Y94.6029 I7.4713 J25.7257
G01 X22.7015 Y94.4546
G01 X23.3007 Y94.2737
G02 X25.6378 Y93.3522 I-6.8477 J-20.7914
G02 X30.0993 Y90.8600 I-14.1485 J-30.5681
G01 X42.6248 Y84.1608
G01 X42.5995 Y84.1743
G01 X42.6239 Y84.1553
G01 X42.4849 Y81.7514
G01 X42.3035 Y77.1297
G01 X42.0687 Y69.7144
G01 X41.8023 Y59.9415
G01 X41.4053 Y59.8627
G01 X40.0885 Y59.7561
G01 X38.6104 Y59.7371
G01 X36.9998 Y59.7993
G02 X31.6562 Y60.3869 I4.3488 J64.1375
G02 X14.9587 Y64.0487 I23.2685 J146.0018
G03 X14.2835 Y63.9290 I-0.1736 J-0.9848
G03 X13.7861 Y63.1092 I0.5016 J-0.8651
G01 X13.7418 Y59.6445
G01 X13.8809 Y56.4228
G01 X14.1981 Y53.4256
G01 X14.6888 Y50.6426
G01 X15.3484 Y48.0641
G01 X16.1724 Y45.6810
G01 X17.1555 Y43.4851
G01 X18.2918 Y41.4683
G01 X19.5745 Y39.6231
G03 X26.0078 Y33.7877 I19.8171 J15.3836
G03 X31.9717 Y30.7458 I19.7764 J31.4063
G01 X34.1383 Y29.9251
G01 X36.3839 Y29.1816
G01 X38.7030 Y28.5038
G01 X41.0045 Y27.9058
G01 X42.8918 Y27.2106
G02 X47.3524 Y20.6297 I-47.6921 J-37.1283
G02 X48.9011 Y17.4666 I-18.6709 J-11.1019
G01 X49.1157 Y16.8150
G01 X49.2459 Y16.2467
G01 X49.2868 Y15.7974
G01 X49.2325 Y15.3494
G01 X49.2283 Y15.1498
G01 X49.2963 Y14.8587
G01 X49.4472 Y14.6008
G01 X49.5998 Y14.4484
G01 X50.0692 Y14.1051
G01 X50.4240 Y13.8852
G03 X54.6414 Y12.4136 I6.4297 J11.6477
G03 X59.5527 Y12.1675 I3.4732 J20.1781
G03 X64.4027 Y12.8990 I-2.0731 J30.1863
G03 X70.4606 Y14.8350 I-9.1307 J39.0172
G03 X70.9757 Y15.7720 I-0.6313 J0.9572
G03 X71.8075 Y21.6591 I-49.4092 J9.9829
G03 X71.8358 Y24.9889 I-21.7306 J1.8498
G03 X71.4561 Y26.9298 I-6.8809 J-0.3384
G01 X72.8374 Y27.0205
G01 X74.1370 Y26.9274
G03 X73.7605 Y24.9888 I7.5881 J-2.4795
G03 X73.7888 Y21.6591 I21.7730 J-1.4800
G03 X74.4695 Y16.5588 I49.5870 J4.0227
G01 X74.7050 Y15.3851
G01 X74.8368 Y15.1169
G01 X75.0421 Y14.8996
G01 X75.3024 Y14.7527
G01 X77.3801 Y13.9930
G01 X79.3460 Y13.3779
G03 X84.5405 Y12.3051 I9.1924 J31.3981
G03 X88.7165 Y12.1542 I2.9294 J23.2066
G03 X92.7690 Y12.8524 I-0.8240 J16.8913
G03 X94.7203 Y13.6379 I-3.4394 J11.3606
G01 X95.1717 Y13.8853
G01 X95.7864 Y14.2852
G01 X96.0845 Y14.5291
G01 X96.2093 Y14.6850
G01 X96.3007 Y14.8625
G01 X96.3549 Y15.0547
G01 X96.3699 Y15.2538
G01 X96.3101 Y15.7861
G01 X96.3503 Y16.2531
G01 X96.4799 Y16.8149
G02 X97.7757 Y19.7919 I15.0327 J-4.7726
G02 X99.7894 Y23.1198 I38.9778 J-21.3120
G02 X102.6984 Y27.2088 I64.4748 J-42.7892
G01 X104.5358 Y27.8885
G03 X111.4572 Y29.9251 I-16.9236 J70.2958
G01 X113.6239 Y30.7458
G01 X115.7055 Y31.6553
G03 X123.0481 Y36.4150 I-12.3828 J27.1464
G03 X127.3039 Y41.4683 I-15.8120 J17.6352
G03 X130.2472 Y48.0641 I-23.1362 J14.2789
G03 X131.7149 Y56.4228 I-38.5777 J11.0818
G01 X131.8540 Y59.6445
G01 X131.8107 Y63.0765
G03 X131.5674 Y63.7177 I-0.9999 J-0.0126
G03 X130.6694 Y64.0538 I-0.7566 J-0.6538
G02 X121.2447 Y61.7397 I-46.5460 J169.2171
G02 X112.1032 Y60.1338 I-22.9506 J103.8241
G02 X106.9897 Y59.7372 I-6.0684 J45.0791
G01 X105.4898 Y59.7570
G01 X104.2060 Y59.8602
G01 X103.7925 Y59.9335
G00 Z5.0000


;No. 17: Part 2
G00 X47.0888 Y-0.9270 Z5.0000
G00 Z0.5000
G01 Z-1.5000 F3000
G01 X47.7589 Y-0.9899 F4800
G01 X48.5532 Y-1.0003
G03 X51.5197 Y-0.7716 I-0.9595 J31.8106
G03 X59.2156 Y0.5716 I-10.8167 J84.6927
G03 X67.0502 Y2.6208 I-18.0115 J84.8622
G03 X70.1653 Y3.7415 I-10.5880 J34.3208
G01 X70.9438 Y4.0728
G01 X71.1090 Y4.1850
G01 X71.2486 Y4.3277
G03 X71.4674 Y4.9735 I-0.7839 J0.6256
G01 X71.4587 Y14.5212
G01 X71.4717 Y16.5632
G01 X71.5012 Y17.9633
G01 X71.5658 Y19.1068
G01 X71.7522 Y20.7782
G01 X71.8416 Y21.8525
G01 X71.8975 Y23.3236
G03 X71.7740 Y25.4163 I-14.0318 J0.2216
G03 X71.4350 Y26.8325 I-6.0450 J-0.6985
G01 X72.9923 Y26.8457
G01 X74.2480 Y26.8358
G03 X73.8979 Y25.0175 I8.6165 J-2.6019
G01 X73.8125 Y23.8145
G01 X73.8021 Y22.5228
G01 X73.8698 Y21.1844
G01 X73.9600 Y20.2934
G01 X74.1981 Y18.2812
G01 X74.2562 Y17.1734
G02 X74.4563 Y4.8695 I-535.6350 J-14.8643
G03 X74.8438 Y4.0906 I0.9999 J0.0116
G01 X75.0961 Y3.9480
G01 X76.3648 Y3.4336
G01 X77.2761 Y3.0979
G01 X78.2898 Y2.7544
G03 X82.9940 Y1.4001 I23.5471 J72.9425
G03 X93.5365 Y-0.6983 I30.1261 J123.8268
G03 X96.8658 Y-0.9783 I3.9591 J27.1365
G01 X97.8414 Y-0.9705
G01 X98.7544 Y-0.9091
G03 X101.0876 Y-0.3896 I-0.6886 J8.5926
G01 X101.8521 Y-0.0422
G01 X102.4627 Y0.3412
G03 X104.4151 Y3.2786 I-3.0958 J4.1751
G03 X104.4069 Y7.9273 I-9.7402 J2.3073
G03 X102.1616 Y11.8252 I-7.8993 J-1.9546
G03 X100.2384 Y13.3085 I-7.4656 J-7.6912
G01 X99.6804 Y13.6319
G01 X99.0920 Y13.9375
G01 X98.4732 Y14.2258
G01 X97.5311 Y14.6185
G01 X97.0656 Y14.8419
G02 X96.4482 Y15.3228 I0.6451 J1.4649
G02 X96.3469 Y15.7408 I0.6239 J0.3725
G01 X96.3744 Y16.0550
G01 X96.4709 Y16.5092
G02 X97.3702 Y18.7581 I10.9420 J-3.0714
G02 X100.1450 Y23.5072 I47.5918 J-24.6209
G01 X101.1060 Y24.9381
G01 X101.7285 Y25.8088
G01 X102.4198 Y26.7132
G01 X102.6094 Y26.9254
G01 X102.8400 Y27.1167
G01 X103.2472 Y27.3300
G01 X103.9774 Y27.5997
G01 X105.1188 Y27.9509
G01 X108.5934 Y28.9723
G01 X110.3004 Y29.5197
G01 X111.8932 Y30.0741
G03 X116.7259 Y32.1427 I-14.2492 J39.9687
G03 X124.6746 Y38.0200 I-12.4393 J25.1369
G03 X129.9435 Y47.1052 I-18.7098 J16.9211
G03 X131.2890 Y52.7645 I-32.8644 J10.8032
G03 X131.7567 Y57.8871 I-38.1286 J6.0642
G02 X132.9433 Y47.6444 I-166.5245 J-24.4809
G01 X133.1708 Y44.4957
G01 X133.2576 Y42.6697
G01 X133.2870 Y41.1370
G01 X133.2792 Y40.5083
G01 X133.2498 Y39.8640
G01 X129.9071 Y39.8032
G01 X128.7364 Y39.7624
G01 X128.2349 Y39.7268
G03 X127.3744 Y39.0524 I0.0995 J-1.0131
G03 X127.4176 Y38.1938 I1.2018 J-0.3698
G01 X127.7711 Y37.1878
G01 X128.7145 Y34.7096
G01 X129.2435 Y33.1952
G02 X129.8686 Y30.8326 I-12.8222 J-4.6563
G03 X128.3323 Y28.0453 I8.2233 J-6.3495
G01 X128.0422 Y27.3031
G01 X127.5941 Y26.0448
G01 X127.1272 Y24.6060
G01 X126.6031 Y22.8884
G01 X126.4181 Y22.3973
G01 X126.3043 Y22.1783
G01 X126.1424 Y21.9240
G01 X125.1434 Y20.5427
G01 X124.6828 Y19.8382
G03 X123.8510 Y18.1996 I8.0595 J-5.1215
G03 X123.5013 Y16.6450 I4.6845 J-1.8702
G03 X123.7151 Y15.1604 I3.7627 J-0.2160
G03 X124.4879 Y13.9140 I3.2791 J1.1704
G03 X125.7354 Y12.9404 I4.0972 J3.9640
G03 X129.4156 Y11.8935 I3.8070 J6.3911
G03 X128.9518 Y9.7523 I8.2926 J-2.9172
G03 X129.0249 Y8.2243 I5.7399 J-0.4911
G03 X130.7738 Y5.2939 I4.9104 J0.9435
G03 X134.4196 Y3.5698 I5.7280 J7.3954
G03 X137.3284 Y3.5670 I1.4595 J5.4568
G03 X139.9580 Y5.2441 I-1.7913 J5.7087
G03 X141.2990 Y6.9711 I-9.2727 J8.5845
G03 X142.6109 Y9.2580 I-22.1435 J14.2225
G03 X144.1275 Y12.5125 I-44.7236 J22.8209
G01 X144.6194 Y13.7856
G01 X144.8874 Y14.6075
G03 X145.4522 Y17.1725 I-17.5162 J5.2012
G01 X145.6352 Y18.6398
G01 X145.7820 Y20.3371
G01 X145.8990 Y22.4411
G01 X145.9182 Y23.6751
G01 X145.9090 Y24.2466
G03 X145.6553 Y26.7182 I-14.2085 J-0.2098
G03 X145.1619 Y28.3217 I-7.7262 J-1.4996
G01 X144.9925 Y28.6787
G01 X144.8042 Y29.0187
G01 X144.5973 Y29.3418
G01 X144.3724 Y29.6481
G01 X143.8595 Y30.2826
G01 X143.6450 Y30.6457
G02 X143.3449 Y31.7026 I2.7380 J1.3485
G02 X143.4610 Y33.3691 I5.4049 J0.4607
G01 X143.5453 Y33.7388
G01 X143.7446 Y34.4420
G01 X144.1633 Y35.6346
G01 X144.3135 Y36.1225
G01 X144.3645 Y36.4212
G01 X144.3388 Y36.7189
G03 X143.8673 Y37.3869 I-1.1094 J-0.2827
G01 X143.5238 Y37.6074
G01 X143.1226 Y37.8284
G01 X142.5185 Y38.1283
G01 X141.9610 Y38.3744
G01 X141.9589 Y38.4041
G01 Y38.3821
G03 X141.7656 Y55.5344 I-413.8240 J3.9127
G03 X140.8184 Y69.6537 I-217.1164 J-7.4733
G03 X139.2320 Y80.6723 I-103.8717 J-9.3314
G03 X138.2865 Y84.6642 I-57.9389 J-11.6146
G03 X136.9640 Y88.7111 I-45.1636 J-12.5202
G01 X136.8436 Y89.1875
G01 X136.7322 Y89.8418
G02 X135.8561 Y98.9973 I246.6361 J28.2211
G01 X136.2258 Y99.3122
G01 X136.3506 Y99.4680
G01 X136.4740 Y99.7403
G01 X136.5088 Y99.9369
G01 X136.4032 Y101.6816
G01 X136.2321 Y103.7676
G03 X135.1210 Y112.9268 I-140.5581 J-12.4039
G01 X135.0137 Y113.5282
G01 X134.9176 Y113.8870
G03 X134.5071 Y114.4534 I-1.1151 J-0.3762
G01 X134.4034 Y117.6644
G01 X134.2733 Y123.0038
G01 X133.9628 Y138.8717
G01 X133.6217 Y154.5613
G01 X133.3938 Y163.7936
G01 X133.1669 Y171.9948
G01 X132.8317 Y182.2717
G01 X132.6134 Y187.7129
G03 X132.0913 Y196.1121 I-139.1288 J-4.4325
G01 X131.9882 Y196.8792
G01 X131.7818 Y197.9891
G01 X131.5373 Y199.1394
G01 X131.2561 Y200.3329
G01 X130.9412 Y201.5621
G03 X128.9646 Y207.9677 I-86.3297 J-23.1318
G03 X126.5887 Y214.0719 I-81.0706 J-28.0400
G01 X126.0973 Y215.1685
G01 X125.6069 Y216.2054
G01 X125.1197 Y217.1753
G01 X124.6380 Y218.0709
G01 X124.1629 Y218.8856
G01 X123.9566 Y219.2067
G02 X128.8309 Y220.8691 I8.9163 J-18.1669
G02 X130.5139 Y221.0495 I1.7825 J-8.6872
G01 X130.7867 Y221.0411
G01 X131.1812 Y220.9958
G01 X131.6040 Y220.8874
G01 X132.0783 Y220.8109
G03 X133.0387 Y220.9137 I0.2393 J2.3040
G03 X134.0374 Y222.8424 I-0.4468 J1.4542
G03 X132.7363 Y224.3074 I-2.3675 J-0.7924
G03 X131.4606 Y224.6867 I-1.8704 J-3.9557
G03 X129.8802 Y224.7414 I-1.0788 J-8.3042
G03 X126.1452 Y224.0441 I1.3002 J-17.3159
G01 X125.4685 Y223.8330
G01 X124.7825 Y223.5961
G01 X124.0895 Y223.3336
G01 X123.3921 Y223.0459
G01 X122.6930 Y222.7334
G01 X121.9769 Y222.3874
G01 X121.9539 Y222.3949
G01 X121.0724 Y223.6312
G01 X119.6964 Y225.4568
G01 X118.8251 Y226.5635
G01 X117.8587 Y227.7074
G01 X117.6385 Y227.9929
G02 X120.0014 Y232.4171 I20.6626 J-8.1924
G01 X120.3641 Y232.8949
G01 X120.8709 Y233.4673
G01 X121.2876 Y233.8361
G01 X121.7973 Y234.1424
G01 X122.0661 Y234.3334
G01 X122.1924 Y234.4418
G01 X122.4258 Y234.6926
G01 X122.5935 Y234.9509
G03 X122.5070 Y236.6317 I-1.4309 J0.7691
G03 X121.0855 Y237.5314 I-1.5801 J-0.9239
G01 X120.6194 Y237.5174
G01 X120.1856 Y237.4133
G03 X119.0941 Y236.8170 I1.3787 J-3.8211
G03 X117.0011 Y234.5888 I7.0745 J-8.7422
G03 X114.8571 Y230.8972 I17.9018 J-12.8654
G03 X104.4761 Y238.7069 I-38.3979 J-40.2361
G03 X105.5740 Y242.2463 I-21.8882 J8.7297
G03 X105.9560 Y245.2253 I-14.2313 J3.3390
G03 X105.5988 Y247.5140 I-5.4370 J0.3238
G03 X104.6118 Y248.6648 I-2.0643 J-0.7718
G03 X103.1261 Y248.8104 I-0.9250 J-1.7869
G03 X102.1332 Y247.9158 I0.4083 J-1.4514
G03 X102.0047 Y247.1237 I1.7850 J-0.6961
G01 X102.0664 Y246.6023
G01 X102.2260 Y245.9679
G01 X102.2730 Y245.6533
G01 X102.2848 Y245.0860
G01 X102.2194 Y244.3556
G02 X101.1483 Y240.4620 I-18.0967 J2.8842
G03 X92.7217 Y243.7406 I-27.3044 J-57.7086
G02 X93.2508 Y248.7563 I18.8617 J0.5462
G02 X93.8875 Y250.6759 I12.4580 J-3.0672
G01 X94.0403 Y251.0166
G01 X94.3618 Y251.6368
G01 X94.8370 Y252.3784
G01 X95.0437 Y252.7376
G01 X95.2007 Y253.1025
G01 X95.2879 Y253.4401
G03 X94.4756 Y254.9772 I-1.2918 J0.3005
G03 X93.6386 Y255.0401 I-0.5309 J-1.4619
G03 X92.5835 Y254.6071 I0.4933 J-2.7040
G03 X91.6101 Y253.6806 I2.4766 J-3.5766
G03 X90.7576 Y252.3368 I7.0341 J-5.4045
G03 X88.8608 Y244.7813 I16.9775 J-8.2782
G03 X81.4269 Y246.0820 I-23.1877 J-110.6284
G03 X79.2429 Y252.5473 I-21.8289 J-3.7723
G03 X77.5816 Y254.7826 I-7.1619 J-3.5880
G03 X76.1367 Y255.5308 I-1.9480 J-1.9926
G03 X74.5312 Y255.0393 I-0.2921 J-1.9136
G03 X73.9713 Y253.6539 I0.9486 J-1.1893
G03 X74.3046 Y252.8659 I1.8177 J0.3044
G01 X74.6073 Y252.4950
G01 X75.1861 Y251.9139
G01 X75.4842 Y251.5714
G01 X75.8481 Y251.0602
G01 X76.1862 Y250.4625
G01 X76.5078 Y249.7545
G01 X76.8041 Y248.9596
G01 X77.1698 Y247.7773
G01 X77.5570 Y246.3822
G01 X76.4470 Y246.4263
G01 X73.7772 Y246.4420
G01 X70.6300 Y246.4207
G01 X68.0280 Y246.3650
G02 X67.3424 Y252.3915 I26.9115 J6.1137
G01 X67.3574 Y253.3792
G01 X67.4136 Y254.2349
G01 X67.4568 Y254.6086
G01 X67.5623 Y255.1892
G01 X67.7955 Y255.9748
G01 X67.9029 Y256.5012
G01 X67.9461 Y256.9994
G01 X67.9180 Y257.4306
G03 X66.4878 Y258.7585 I-1.4239 J-0.0994
G03 X65.3886 Y258.3322 I0.1198 J-1.9390
G03 X64.4596 Y257.1518 I1.7925 J-2.3664
G03 X63.8043 Y254.9064 I8.5123 J-3.7024
G03 X63.5579 Y252.4582 I17.9368 J-3.0424
G03 X61.5118 Y255.1934 I-17.2197 J-10.7477
G03 X59.5132 Y256.8741 I-5.7421 J-4.7997
G03 X57.6898 Y257.1147 I-1.1749 J-1.8748
G03 X56.5237 Y255.8443 I0.7269 J-1.8376
G03 X56.7372 Y254.4568 I1.6559 J-0.4554
G01 X56.9595 Y254.1480
G01 X57.2175 Y253.8653
G01 X57.6768 Y253.4464
G01 X58.3803 Y252.8636
G01 X58.9023 Y252.3520
G02 X60.1602 Y250.7723 I-10.0124 J-9.2636
G02 X62.8317 Y245.7808 I-24.1472 J-16.1342
G03 X54.0872 Y243.9866 I9.7333 J-69.6470
G02 X53.3592 Y247.0935 I12.7758 J4.6325
G01 X53.3229 Y247.5997
G01 X53.3287 Y248.2741
G01 X53.3726 Y248.6700
G01 X53.5310 Y249.3802
G01 X53.5819 Y249.7847
G03 X53.4885 Y250.4877 I-1.6967 J0.1322
G03 X52.7714 Y251.2991 I-1.3730 J-0.4910
G03 X51.4267 Y251.4551 I-0.8959 J-1.8473
G03 X50.2211 Y250.5367 I0.5547 J-1.9786
G03 X49.6309 Y248.5005 I4.0560 J-2.2794
G03 X49.7604 Y245.7991 I11.7092 J-0.7925
G03 X50.4964 Y242.8782 I17.0054 J2.7319
G03 X40.5627 Y238.2576 I18.1002 J-51.9010
G03 X35.1674 Y234.6985 I27.6793 J-47.8291
G03 X31.6324 Y231.6409 I17.3195 J-23.5951
G02 X26.2157 Y233.9604 I6.0928 J21.7130
G02 X24.2676 Y235.3512 I7.0169 J11.8880
G01 X23.9436 Y235.6453
G01 X23.4290 Y236.1805
G01 X23.2125 Y236.4457
G01 X22.9337 Y236.8386
G01 X22.7406 Y237.0693
G03 X22.0355 Y237.5387 I-1.3081 J-1.2008
G03 X20.7332 Y237.4291 I-0.5294 J-1.5033
G03 X19.7637 Y236.1944 I0.8321 J-1.6513
G03 X20.0639 Y234.5218 I2.2534 J-0.4589
G03 X21.9036 Y232.4576 I6.8149 J4.2221
G03 X24.8700 Y230.4521 I12.7411 J15.6492
G03 X28.7124 Y228.6871 I13.4049 J24.1169
G03 X19.1157 Y213.8430 I43.5903 J-38.7056
G03 X15.7474 Y204.7673 I65.9014 J-29.6206
G03 X13.5513 Y195.4225 I69.3579 J-21.2301
G01 X13.4471 Y194.5491
G01 X13.3796 Y193.6760
G01 X13.3088 Y192.5060
G01 X13.1561 Y189.2932
G01 X12.9013 Y182.3998
G01 X12.6208 Y173.2145
G01 X12.3212 Y161.9667
G01 X12.1140 Y153.4362
G01 X11.7970 Y139.2641
G01 X11.3984 Y120.0918
G01 X11.2652 Y115.4533
G01 X11.2111 Y114.4612
G03 X10.7963 Y113.9577 I0.6314 J-0.9429
G01 X10.6812 Y113.6013
G01 X10.5426 Y112.8512
G03 X9.3948 Y103.5584 I131.4605 J-20.9538
G01 X9.2340 Y101.1789
G01 X9.2081 Y100.5666
G01 X9.2128 Y100.2240
G03 X9.8573 Y98.9299 I1.5812 J-0.0200
G01 X9.7977 Y97.9150
G01 X9.6605 Y96.2219
G01 X9.0700 Y89.3752
G03 X6.6995 Y81.2715 I46.6191 J-18.0352
G03 X5.7574 Y75.9193 I91.0205 J-18.7809
G03 X4.9724 Y69.6083 I150.0977 J-21.8738
G03 X4.0169 Y56.6680 I197.8482 J-21.1153
G03 X3.7610 Y38.6565 I590.8522 J-17.4019
G01 X2.2999 Y38.1080
G01 X1.8231 Y37.8998
G01 X1.6083 Y37.7896
G03 X0.7062 Y36.8466 I0.7802 J-1.6493
G03 X0.6560 Y35.8303 I1.6520 J-0.5910
G01 X0.7672 Y35.4400
G01 X1.0368 Y34.6713
G01 X1.2551 Y33.9479
G01 X1.3441 Y33.5875
G01 X1.4607 Y32.9770
G02 X1.4738 Y31.4562 I-4.7472 J-0.8016
G02 X1.1464 Y30.5308 I-2.7290 J0.4450
G01 X0.9294 Y30.2117
G01 X0.4335 Y29.6392
G01 X0.1154 Y29.2163
G01 X-0.1615 Y28.7660
G01 X-0.3919 Y28.2818
G03 X-0.9110 Y25.5633 I7.8255 J-2.9029
G03 X-0.8561 Y19.1491 I43.2348 J-2.8373
G03 X0.3379 Y13.6044 I22.5592 J1.9570
G03 X3.4884 Y7.0772 I35.2330 J12.9818
G03 X5.2289 Y4.8866 I9.6707 J5.8969
G03 X6.6474 Y3.8867 I3.9328 J4.0734
G03 X8.2937 Y3.4193 I2.0950 J4.2459
G03 X10.0927 Y3.5230 I0.5432 J6.2304
G03 X13.9069 Y5.1218 I-1.8557 J9.7760
G03 X15.8414 Y7.9836 I-2.7578 J3.9490
G03 X15.9570 Y9.5918 I-5.4231 J1.1979
G03 X15.4493 Y11.8989 I-8.7394 J-0.7136
G03 X18.7773 Y12.7190 I0.0036 J7.1486
G03 X20.1550 Y13.6651 I-2.4459 J5.0378
G03 X21.0279 Y14.8316 I-2.6667 J2.9054
G03 X21.3797 Y16.5169 I-3.2674 J1.5615
G03 X20.9316 Y18.4557 I-5.3697 J-0.2198
G03 X20.1572 Y19.9285 I-9.5618 J-4.0882
G03 X18.7806 Y21.8353 I-19.0316 J-12.2887
G01 X18.5580 Y22.2013
G01 X18.4315 Y22.4983
G01 X18.3196 Y22.8192
G01 X17.6731 Y24.8819
G01 X17.2205 Y26.2485
G01 X16.8091 Y27.3920
G01 X16.5492 Y28.0503
G03 X14.9860 Y30.8792 I-11.7233 J-4.6321
G02 X15.7723 Y33.6555 I17.2872 J-3.3961
G01 X16.3167 Y35.1585
G01 X17.2000 Y37.4253
G01 X17.5315 Y38.3321
G03 X17.5300 Y39.0476 I-0.9736 J0.3557
G03 X16.7766 Y39.6883 I-0.9550 J-0.3596
G01 X15.9296 Y39.7613
G01 X13.2925 Y39.9122
G01 X12.5946 Y39.9670
G01 X12.5917 Y39.9817
G02 X12.8080 Y47.8303 I59.4994 J2.2882
G02 X13.9407 Y57.2302 I139.1962 J-12.0052
G03 X15.6962 Y47.1603 I35.7816 J1.0498
G03 X20.7336 Y38.2884 I23.2364 J7.3274
G03 X23.9480 Y35.3117 I18.3113 J16.5501
G03 X29.2732 Y32.0154 I19.1956 J25.0611
G03 X33.8080 Y30.0813 I19.1617 J38.6449
G03 X41.8989 Y27.5388 I49.6063 J143.7126
G01 X42.5185 Y27.3155
G01 X42.8152 Y27.1639
G01 X43.0341 Y26.9758
G01 X43.3074 Y26.6369
G01 X44.8356 Y24.4998
G02 X47.3613 Y20.5589 I-43.3397 J-30.5563
G02 X48.8112 Y17.5389 I-17.1672 J-10.0995
G01 X49.0580 Y16.7638
G01 X49.2096 Y16.0666
G01 X49.2494 Y15.7491
G01 X49.2682 Y15.4390
G01 X49.2586 Y15.0982
G01 X49.0737 Y14.9860
G01 X48.8122 Y14.8553
G01 X47.3213 Y14.2175
G01 X46.7017 Y13.9220
G01 X46.1114 Y13.6091
G01 X45.5505 Y13.2787
G03 X43.2015 Y11.3546 I5.6180 J-9.2546
G03 X41.0121 Y5.6305 I6.1110 J-5.6180
G03 X41.3288 Y3.0816 I8.6705 J-0.2168
G03 X42.4530 Y1.0726 I4.7138 J1.3187
G03 X44.4124 Y-0.2341 I4.0261 J3.9147
G03 X47.0888 Y-0.9270 I4.5099 J11.9060
G00 Z5.0000
G00 X0.0000 Y0.0000

M05
